iKASRA-H/PUMA560-Inverse-Kinematics/puma560_forward_kinematics_data_1000.csv
q1,q2,q3,q4,q5,q6,X,Y,Z,R11,R12,R13,R21,R22,R23,R31,R32,R33
-1.8910116026374058,2.897223625980426,0.22588094722142937,2.986563801099212,0.3648944081845915,-0.91551764647825,0.398022861862148,0.638734393697591,1.33814269032516,-0.991566537044998,-0.0525647699732872,-0.118459898574348,0.0627613146165906,-0.994482577738815,-0.0840560524980732,-0.113387918228472,-0.0907818678570611,0.989394679826103
-1.4126594605814016,-2.622827195422927,-1.5740878689771651,-2.336475552322165,-1.106467107438887,-2.776251007367044,0.103618549916398,-0.231856714469432,0.929742574044585,-0.951085465876519,-0.216187586951273,-0.220679323559392,0.306931936590804,-0.580198518491137,-0.754428568813051,0.0350602752280105,-0.785259578985749,0.618173252989856
0.5632779225595903,2.987317879626156,-0.860600255027181,0.8979326174250426,0.34012644070153275,-2.2812159927866085,-0.0123649963321840,-0.0337942756315127,1.30962361296996,-0.353191389397203,-0.686841519543093,0.635220095311388,0.885859009687504,-0.463866983323242,-0.00901314251911264,0.300848229862081,0.559532080236987,0.772278572650130
-0.43186405801153027,-1.044373287385668,-0.0008950967856855563,2.1281600509973533,0.2823927470472887,1.6644431116462357,0.0815728161888656,-0.609632103681737,1.39620467911769,-0.675448281738957,-0.703377525334556,0.221426456301245,0.736971737613235,-0.654217023748050,0.169919815788423,0.0253431776859135,0.277957087861560,0.960259121618900
-0.8636012022356492,-1.0758219133771147,0.5119514367551088,-2.3054593947180355,0.04523782868017623,-0.7031160722548786,-0.348791271410039,-0.893626615968210,1.20982680521950,0.194110754525400,-0.960764947652601,-0.198120494496847,0.868961689569218,0.262122041711461,-0.419758999081645,0.455221481301783,-0.0906793836057037,0.885748639485436
-1.6419515157335478,2.6727109441643755,-2.2790636374227295,-0.1451944278458539,-1.8743107421984202,-1.4706151245606847,-0.0604094767787848,-0.0739164184157628,0.359798714333305,0.861473405603072,-0.398989783620130,0.314118964733756,-0.469331098050369,-0.389410171049532,0.792520055951904,-0.193886285851990,-0.830160750246563,-0.522724819487830
-2.0692222088278363,1.7722911250200477,0.18353238684813222,1.8794669018533767,-1.4142028277887786,-0.48631865143435027,0.712563689655975,-0.316442816525086,1.26277551578952,0.611641038604154,-0.790404774649678,0.0339931185127891,0.0987026828138252,0.0336065505455016,-0.994549335209564,0.784954151718803,0.611662400325069,0.0985702172463337
-2.020838483868637,1.5158478640789212,1.6999306227372362,0.12997102516577774,-1.588830152085525,-0.7489908750819949,0.903897578196154,-0.514481472369696,0.489083755197752,0.299581803195760,0.953486167956030,0.0333896797005079,-0.939015000237969,0.300866438299179,-0.166523919102491,-0.168824087505496,0.0185341258680310,0.985471924336886
-1.1751379902173078,0.4381273108182633,0.9856903343995924,1.3633149848983885,-3.1122244906278294,-1.1791241033519895,0.725218001009527,-0.662104884082249,0.796509875213095,-0.0342487776436697,-0.768590486549785,-0.638823673023377,-0.730288596418673,-0.417122103867379,0.541006207363738,-0.682279698635947,0.485054444831109,-0.547006945457574
-1.1127851575546077,-1.982076288009487,1.0476556315900671,0.8027695245797273,-2.6926234196286893,2.932601376023504,-0.982941514703882,-0.0147138413881103,0.792610602850547,0.172676823193586,-0.363500613334702,0.915450718956005,-0.770808619673929,0.528755033733591,0.355347978941433,-0.613218384075481,-0.766997665189852,-0.188885666542414
2.710571900303215,-1.4975748218650358,-2.5818683346869387,1.706624337085901,1.6407596492706826,1.35358036583711,-0.113177533056051,-0.0204829657878648,0.241079353022945,0.464335205217069,-0.151038182534167,-0.872685673431619,0.821707289693212,-0.294165290474764,0.488122845137301,-0.330439022001122,-0.943744800937559,-0.0124821249099988
1.5946092197269017,-3.0753278594256908,1.0814958698956012,-0.9201886057067696,2.5205046184556243,-3.1363484796511267,0.0460758201293689,-1.02487241143077,0.720240190476933,-0.580790589864283,-0.633820421941317,-0.510836533007604,-0.798657660635632,0.322186091962147,0.508273610621463,-0.157569768144520,0.703184040544358,-0.693328185847505
-2.466422268822846,1.31130302796418,2.1752547634775707,-2.380651595716013,-0.560483940552726,-2.917988795809549,0.389907208615856,-0.792564120919673,0.0675861280765988,0.393560829897865,0.752232867734799,0.528446388832003,0.916496637530186,-0.276210230971886,-0.289381792278506,-0.0717201963603495,0.598208676805961,-0.798124421646208
-0.07426830363258752,-1.8490083548435623,2.3696985124324375,0.805514613518215,1.2907704818986865,0.12375622838059908,-0.175806903094736,-0.678706912368152,0.0128077355137196,0.520515170657492,0.410626022076664,0.748632237556530,0.594402581219457,-0.803695662590441,0.0275472933871951,0.612984117702122,0.430650150269111,-0.662412952408196
-2.2240455628685325,-2.4964174676095077,2.021931249702117,-1.0789607187999186,-0.16083876195671287,0.04789184556987536,-0.00602657221779257,1.00198522571511,0.179107672439177,0.845832136834662,-0.516417311742974,-0.133720441331419,-0.0842736178202012,-0.376880775487933,0.922420098657390,-0.526750371273912,-0.768943457739107,-0.362298226828426
-2.521193425606194,-0.9926214814451773,-1.0912200610087468,-2.18382343719655,-0.7876027585568397,2.8689341976889233,0.0538441094017366,-0.0832452256557373,1.20684945384044,-0.972498759932819,-0.124175985808444,0.197044376924667,-0.0505993051976943,-0.713169072110667,-0.699163489391659,0.227345270992470,-0.689905934989192,0.687272819645917
1.055332882952519,-1.3323963042421654,-1.9451619962351672,2.1413496675616344,1.5070093363285437,0.5573717789917456,-0.184524268005420,0.139793742643755,0.573270349033440,0.859370000688046,-0.360906351467738,0.362256549130134,-0.494069326154099,-0.403394810981374,0.770174089038924,-0.131828308306912,-0.840844356550930,-0.524978156865018
-2.1068876821678053,-2.324076129382148,1.4645789263603763,-1.571891310098373,-2.983665042778169,2.263561606527099,-0.287127904660635,0.936556849140062,0.527431391811902,0.611818978486621,0.781589986753177,0.121633178741474,0.157750463369762,0.0301175890228086,-0.987019615883129,-0.775107946592094,0.623065023443478,-0.104869670025065
2.2378762105711907,-2.5932634140053055,-0.19181462716848952,-0.47433076900233484,-1.312200422964565,-1.6577021182644824,0.406239648267345,-0.103675297330186,1.33528173662509,-0.726780642390962,-0.0673981637133562,-0.683554961487259,-0.664757148084953,-0.181460852573270,0.724686065171217,-0.172880976153364,0.981085850734506,0.0870788239057591
2.634477933523038,-1.1007414472373651,-1.8665972547362726,-0.07959645830465245,-1.8529330907953174,0.5039568224936866,-0.0141674350372000,-0.175994464948318,0.594196741359831,-0.528005081493554,-0.847385696597714,-0.0561080664307188,-0.725813422044929,0.415977583124764,0.547866340193582,-0.440914402459725,0.330000199301892,-0.834682189916795
0.6733606993628825,0.5147012038764043,1.9748491648705215,-2.327881141461422,-2.078371065781663,1.9521751352945138,0.263127405337932,0.823678970424444,0.202342543237094,0.520815263505378,-0.126273371089354,-0.844278684471872,-0.765336523813104,-0.507185390218989,-0.396261258850882,-0.378168569050229,0.852536225448597,-0.360791515532669
-3.0364684826612467,1.7797218669766712,0.003097066623372946,-0.9696803575559776,0.5987726075871413,0.8448662385501118,0.160934317474652,-0.645961727156391,1.38188124882152,0.258157207138280,0.903228197889472,-0.342831852283156,-0.889498812487054,0.0837335381258786,-0.449199907810591,-0.377023499249960,0.420912719135759,0.825036825773891
-1.8286744004942923,1.5404815734172193,0.7457079078054902,1.531167797780566,1.5109953789924182,2.2753309802732584,0.997972400832141,-0.191811365187134,0.998811647231947,-0.119128009926539,0.929060743596372,0.350220861684593,0.0264568987855066,-0.349637127447500,0.936511565127155,0.992526347135226,0.120830516916948,0.0170715091303355
-2.8547825443534096,0.3587769531887135,-2.248492576857392,-1.2106841305900347,3.0091704090340157,-1.3663223398257103,0.0819287493352213,0.0771840532319721,0.496569405693743,-0.605395160198613,0.433003126980235,-0.667836051762283,-0.259872429931273,-0.900618631833490,-0.348356713952793,-0.752305137673346,-0.0373412910825412,0.657755735672884
-1.0261712469440627,-2.5248713744812945,-3.025778825649892,-0.7888108257376261,-0.21404836352381906,1.2457837274732064,-0.154716234428596,0.0507139317686929,-0.0314616738535951,0.642494448092056,-0.760649070876383,-0.0928109645773587,-0.765456895520679,-0.631423539446051,-0.124016349459519,0.0357298932370261,0.150722608816050,-0.987930194862448
-1.297931444405811,1.8783273588585114,-3.1342144981092175,-1.0156660021957769,-0.0647515252683224,2.2985582863169727,0.187674769190244,0.129640566803184,-0.0583201157714866,-0.762924334979613,0.646440822857516,-0.00779240907634424,0.644909817714529,0.761848523171559,0.0606477926781194,0.0451418443500970,0.0412442757799535,-0.998128811128132
-2.7711661072500116,2.7695052460762772,-2.4064729726850707,-0.05569970936267321,2.1396896078542422,-2.1928158638081525,-0.167149577436331,-0.00441265546332503,0.433207137286394,-0.529519961766661,0.806583640383563,-0.262738351133277,-0.828039151117819,-0.558741484501303,-0.0464663072920753,-0.184281779638456,0.192952803977757,0.963747602399303
2.209925734344722,-1.4613184449025272,-2.6444485526690085,-0.24166733847258381,-2.757955816000013,-1.8773608227077514,0.0158237746050812,0.0269269181180380,0.275819755386926,0.687035568341654,0.530008491244049,0.497064509940779,-0.716637410464962,0.381221203676630,0.584038710865482,0.120053945189375,-0.757470390890989,0.641736439021440
-2.3079778510602544,-2.887767784336322,-2.428299944337342,-2.442757932421173,-0.4719944866793,1.111299488592663,-0.127247614293025,-0.179493753325393,0.279875539404930,0.674897108212326,-0.345224863896826,-0.652176116301462,-0.737420583030960,-0.283289141616702,-0.613154259517416,0.0269216836197035,0.894744128558266,-0.445766942876645
-2.980120906137972,2.540005527826872,-1.4440992482847599,1.7394197138301442,-0.42515372758277703,2.4091220235905766,-0.251796365132198,0.0736321757666146,0.966380312662851,-0.119433776658450,0.140318108361628,-0.982876595234068,-0.805864916234799,-0.591947413349548,0.0134162815511541,-0.579928710942113,0.793668122261814,0.183775955800606
2.092330926085406,2.604988024405695,1.5167217894568887,2.318506043834624,1.5875784446753185,1.9599921965898712,0.0572641385392490,-1.06552248535311,0.572139163885049,-0.629522808952240,0.255223476624636,0.733867842318026,-0.332486814062981,-0.942152150723947,0.0424481255238532,0.702248924159468,-0.217279317621061,0.677964709001136
3.065665084888286,-1.248602463552626,-2.694960268637488,1.0934632590524682,0.8416489964832037,-0.9375209645591775,-0.0442073907180226,-0.0958427261498184,0.142894850257132,0.170303450115128,-0.850921495121258,-0.496919856736967,-0.594933159267669,0.313213064750672,-0.740237875330141,0.785526110885357,0.421699164345976,-0.452900147833086
-1.8773277191134583,1.7177554005300975,-1.644759521777073,1.3286232693446243,-1.062867277677931,2.1663084765752467,-0.270187316816608,-0.0424330962433353,0.798408349138809,0.535437229240962,0.596033003424618,-0.598374157506313,-0.153354451574242,-0.628102324461350,-0.762869505347155,-0.830535601720435,0.500232074976084,-0.244905053929063
-1.4194774219078221,1.6758055184222052,1.6119844438994493,-2.6029639670569766,1.1669084229760038,1.4710817682226924,1.06997011820247,0.231670490306937,0.521477781451223,0.114174246715510,0.839732508047344,0.530861145984016,-0.873820452098959,0.339112635953031,-0.348483052142509,-0.472654269927309,-0.424089536614032,0.772493369585771
-0.5328144616358008,2.0039109521139213,-2.5052012615831716,-1.3153206815427396,-1.7322386418116098,-1.4817806191146148,-0.102551152565532,-0.0657631594821276,0.280289375126358,0.308942334243471,-0.238292662079195,-0.920744938249137,0.698539099384042,-0.600144646971864,0.389704412783263,-0.645443847862792,-0.763572530877210,-0.0189533465605845
1.2181982661667856,1.1840226987188487,1.7842531215600275,1.6972725669320976,0.8900361941953507,-1.6165621285796605,-0.840283250755368,0.661956068821491,0.337327135086405,0.0643499204794163,0.131105678669370,-0.989277710632832,-0.190560356511959,-0.971476044395142,-0.141141934563769,-0.979564106253556,0.197599585493017,-0.0375308613365078
2.9755270487793117,0.7381902680040091,-3.0296016169085473,-0.35753239755075894,-0.4381310107617691,-0.893348573837816,-0.151888422432471,-0.115470956301964,-0.0281307710963280,-0.261332858204811,0.950768232141738,-0.166568022058790,0.936127965250363,0.207578763966714,-0.283858220642396,-0.235307394483726,-0.230110463691082,-0.944287882269573
2.8346967556165517,1.0718334040953188,-0.42125797783661545,-1.8528986610667746,1.6816130817706956,-0.5097141378186505,-0.307187531465055,-0.162548691989109,1.30529879820827,0.193186579597007,-0.837274606728037,-0.511517525009671,-0.131356021081717,-0.538715857869849,0.832184366715172,-0.972329440667714,-0.0935759446009672,-0.214053734849098
3.05467516982515,-0.906382741801997,0.8721833225468414,-2.655510148085148,-0.06571388494760244,-1.137700443427156,-0.614657225037528,0.937691591168548,0.981772348743742,-0.241105337438702,0.852815066069966,-0.463222062668272,-0.741656642557977,0.145939510856569,0.654711450732744,0.625950190357187,0.501406145011232,0.597309163613599
1.8103324506417477,-1.1063329819488863,-1.7573570605164872,1.0425013867808683,1.9734612438205117,0.09434605779221439,-0.201031728369341,-0.0664641680525527,0.802515348780730,0.912723414501627,-0.291435890412333,-0.286358325180291,0.395303558203828,0.452687527933411,0.799255340254245,-0.103300849424791,-0.842697528080572,0.528384150665981
0.8915740537566057,0.8569569131345376,2.1849622766890535,0.7337957699453681,0.2362651475455917,-0.5101180905914227,-0.174381554945441,0.882117860107167,0.0732613428393088,-0.0753135293758789,-0.957898322023920,-0.277053563335156,-0.743516321470078,-0.131196786363966,0.655721650515958,-0.664463205904249,0.255378558049666,-0.702332143709742
-2.1464441082583585,1.8224198051041878,-2.540624350360334,-2.403822231721319,-0.15823701010519198,0.09957264628329199,-0.145114788281702,0.0599196252677519,0.188616318565348,0.198320004985910,-0.785113659501339,-0.586741610325027,-0.841433773059216,-0.443379327400083,0.308875343123376,-0.502651351512877,0.432448047398375,-0.748552139215173
0.03098319308947861,-2.605237427489415,-0.7087804675755449,-3.135119717175126,2.9846532981223195,1.168394879751041,-0.189117068724389,-0.120389191558772,1.19329425975286,-0.778164974062893,0.445537475341624,-0.442668760144545,0.592199944674294,0.755252898793271,-0.280877703622280,0.209185321352767,-0.480717606220714,-0.851558620648024
-2.097229868907685,2.2720366768969864,1.5076740870001037,-1.1999424649519816,-2.948863763621085,-2.7707169745898965,0.955037817617801,0.186796604061186,0.510875406138867,-0.00471375849690098,0.00734133673803194,-0.999961941903657,-0.999976401332142,-0.00503225152982895,0.00467688179866693,-0.00499772544774740,0.999960389825237,0.00736488431067188
1.0070127419706472,2.08951567959478,1.9814009191909934,-1.30692592279361,1.5923749224128354,-1.9947476865859028,-0.910137262180113,0.137656806812130,0.212103794443434,-0.715559758046374,0.678241005599631,0.167222519380063,0.278815868592812,0.0578104398177198,0.958602975412093,0.640496638621508,0.732562005137642,-0.230471179420045
1.187975779819661,-2.7057394936073482,0.6679575759450636,1.3701589465979067,-0.05412750331842453,-3.104688365631602,0.0497401525890140,-1.03705202324839,1.11979057561167,-0.992352778233975,-0.121701932596157,-0.0206059004576862,0.108779423396403,-0.783368692350848,-0.611964483356729,0.0583352430084731,-0.609526153209919,0.790616764289918
2.3784367296260047,-0.005223687255241138,0.0398280922951022,1.429877607757554,-2.2536807995322548,2.757534303705399,-0.407903597939028,0.501069364436202,1.22891743040766,-0.211060711118050,-0.747252657408103,0.630132400546799,-0.674802834205693,0.577778050356994,0.459144486489423,-0.707173607518202,-0.328307767989427,-0.626194457263471
0.7330319484133665,2.893743461117129,1.8679660063999899,1.5605518809090961,0.8828219814277087,2.6960389795024877,-0.878909670845818,-0.550703272827975,0.274942956570162,-0.967920924312950,-0.180527293534353,-0.174754057367281,0.132409740796647,0.224605749412593,-0.965411786686372,0.213533943014524,-0.957581408351253,-0.193497032433836
-0.1290414978731187,-1.1367104160422898,2.3057082068855133,-1.4836581278392362,-0.5421830993942729,-0.15726124173901423,0.298264149826056,-0.776096731037120,0.0450890789455653,-0.686747160249624,-0.227974585446267,0.690221650109354,-0.670554262875096,0.565234171999710,-0.480486536069263,-0.280598144022932,-0.792803833993255,-0.541042292595026
-1.1090672095481642,-0.9001226986163409,1.5587901334461698,2.524872698463837,-1.0299340298474204,-2.2660252009870465,-0.518057527624663,-0.988222872574697,0.408267372367831,0.623939029437414,0.400524885568801,-0.671028988632232,0.304467769470617,-0.915411087773376,-0.263290557626269,-0.719721796875908,-0.0400294444336099,-0.693107624168174
3.088046205927978,-1.5148513078150079,1.366971092136052,1.7894868322545738,-1.747793246625019,0.1890926884139934,0.0935155469268186,1.07474933883791,0.577184568358788,0.207395969436247,0.181679458686250,0.961238516786063,0.917769493078902,-0.376293326493957,-0.126895587038351,0.338653317472744,0.908513019569661,-0.244781583941934
-0.3614476050293849,1.0881850214334348,-2.551309953223149,-2.7758588432451217,-1.9408479690363876,2.734765537375001,-0.126045537387154,-0.0674472777819210,0.336431941004581,0.785331190587892,-0.0954805387253300,-0.611668527729296,0.0448096201422767,0.994210264707450,-0.0976629279360806,0.617452037839789,0.0492891090918063,0.785062777548667
-0.8586931842936338,-0.17094395442205546,-0.1810398587576576,-3.0598232555470415,-0.9166939535156984,0.24893317596954612,0.304405629625768,-0.493910012613925,1.39980586807699,-0.610690171486567,-0.683472646206463,0.399903308735053,0.445941724563633,-0.714151937433157,-0.539558141958475,0.654364953785669,-0.151169283083582,0.740914539679898
2.254272372269819,-0.5107926400194445,1.384503967974827,-2.0153254968606715,-1.2238456680234342,1.635595027800167,-0.277295770952019,1.09569736036755,0.556703756728923,0.384474456766152,-0.173541137413176,-0.906676825401264,0.177480032366532,-0.949951873922092,0.257084179488122,-0.905914030250966,-0.259759332570069,-0.334432143995169
0.31976216310027583,1.5675399556121556,1.6192159753358553,2.919967124297891,0.6319157057611626,2.828556665224503,-0.364972494706180,1.07264859599547,0.493393375671452,0.281412024206231,-0.879872373225210,-0.382925422853053,0.648138489508575,-0.119983475646580,0.752010946721728,-0.707618379530729,-0.459813627904615,0.536514358189509
-1.5845391566629528,-2.4408030192653416,-2.31034250317867,1.9067598900261835,0.17743109498372434,0.1510828867761913,0.138713667835515,-0.195356284140162,0.322528658026084,-0.951527331426808,-0.00552866217452114,0.307514506068150,-0.210354526607318,0.741121499646810,-0.637565601249844,-0.224380727076969,-0.671348163515641,-0.706360341936456
-1.086509191314665,-2.222018496208147,2.591423686838061,1.8262601116294093,-1.5158462959155015,0.6211535422585381,-0.546279997017460,0.190020425099695,0.0105254617739738,-0.884181373124987,-0.315722425163300,0.344300231873022,0.254298885506505,0.292951983321342,0.921689325260004,-0.391861424803413,0.902495698447974,-0.178734826024314
2.015147719168316,-0.294690636601322,-2.2969854607289952,-1.0987317313298792,-0.20241262126179027,2.0365647909810827,0.0182347342704173,-0.241012123007060,0.329324235254728,-0.740276582168434,-0.667891511539349,-0.0768863492871496,-0.443389432234962,0.570981903011219,-0.690930877741070,0.505367582335254,-0.477389353931747,-0.718820569737156
-0.06370826331733781,-2.286549912598269,2.5276971863434152,-2.5388237578251314,-0.8650542492137259,2.3691910417492297,-0.401971953535242,-0.468162406343011,-0.0493152353199327,0.446347341730040,0.798195713021297,0.404546232518548,0.894855591622066,-0.396744934780458,-0.204516324210984,-0.00274238459182988,0.453295775890835,-0.891355943989985
0.6797858773697603,0.8604806885742651,0.11996192404706685,2.9715666065369133,-0.8519540411197597,-1.4052790529962158,0.0367048261524058,0.784722127870997,1.32803910287773,-0.987737801354577,0.0349258921419447,0.152165100576037,0.104569134546963,-0.575728589830163,0.810926560763841,0.115928132372283,0.816894591064393,0.565016721181252
-2.4726039571682845,0.5187975315163249,0.32283713985579876,-1.7811965125619378,2.1229124998736557,2.252125232822001,-0.370984382265146,-0.697967272901138,1.15990398857318,-0.758452780360659,-0.0774928855156887,-0.647104499024415,-0.583930905963703,0.521758691957041,0.621926494392775,0.289437518341342,0.849566195220672,-0.440979821437076
1.7900148834266227,0.8999534984776192,3.0248220047385406,0.7202130847279054,-0.9502514617331124,-0.6709849638229985,-0.311529161389723,0.210747630447616,-0.0296380807155888,0.678437311195900,-0.632782183525276,-0.373241909477301,-0.143491234633898,-0.612398315711815,0.777417885372193,-0.720508903734380,-0.473872357419501,-0.506272563460797
0.12398781980048179,-1.7851572317242324,-1.1089055686886153,1.8206543521572938,0.8834824159647008,-2.529716512439189,0.0845323255556075,0.102961273956233,1.14096102418249,-0.336152145072114,0.489113176708137,0.804841621521832,0.292689886278119,-0.758002247014927,0.582893835951989,0.895172813390754,0.431510015979695,0.111645601235716
0.15261996549567236,1.9132167551279897,-1.1962446627204044,1.4576914929608744,1.4360636192606933,-0.36592997405304617,-0.0431423838991711,-0.127345025326682,1.10194628688508,-0.547503116107196,-0.131212974261704,-0.826452353882731,0.836785423574913,-0.0793307158233364,-0.541753442462076,0.00552202367456728,-0.988174980918033,0.153230918362395
0.5953561411959405,-2.707020382548549,0.5773736124041147,1.3838684824145657,0.314847059237104,1.3436508766728883,-0.487854128897370,-0.871360967459303,1.16524129763905,0.751032286590780,-0.659527760794360,-0.0312031607341595,0.490146696552967,0.588568206143419,-0.642918099430505,0.442387522830875,0.467558124150031,0.765299078912856
-0.4842502567897924,2.3803270831423244,0.37620136411538674,-0.6318655100576129,-1.9580861405925758,0.8841339110961419,-0.296010325444637,0.706556054892073,1.17478735982904,-0.872595028280401,-0.418534454358888,-0.251807122883438,0.192020951587505,0.180077945865427,-0.964727882651018,0.449116767413282,-0.890168997397346,-0.0767677360669684
-2.2728693149394554,-0.03570478920040454,-0.5630467969757893,-0.8642275570166413,0.4960607020870622,0.1311446968617047,-0.189596735672139,-0.154752284932464,1.40036591075249,-0.975883454140553,0.176906383137585,-0.127889075138892,-0.213853382785420,-0.892330301883444,0.397508947084006,-0.0437974269328211,0.415271915671864,0.908642405706604
2.8018991486361475,2.6174477007578156,0.653539945719094,0.8152065808831463,-1.0933873270042125,2.565308161060144,0.568808355698949,-0.765386714794065,1.12208968474601,-0.563986031060978,-0.540679088957364,-0.624168150046379,0.803746505765558,-0.532866827436593,-0.264659212360570,-0.189502800078895,-0.650937068372892,0.735098375580006
0.2575945461626974,-2.804042131198498,1.5246489362091111,-0.5379426390936635,-2.0343568990545413,0.699286838129507,-0.819221566029311,-0.609985607592447,0.573944586140668,-0.159421406859957,0.737606148052227,0.656141741844206,-0.987201179801431,-0.116205314697124,-0.109225250902918,-0.00431805899161453,-0.665156744829141,0.746691274339567
-0.5151878070139215,-2.5039560454836516,0.7189092163315274,-2.1118158148474073,0.11744657791376545,0.5504194742457358,-1.04957990934701,-0.119046028322382,1.09108590431248,-0.0655234636967995,-0.784760465274654,-0.616325959089087,0.994364957450447,-0.102934979177677,0.0253519517249116,-0.0833367091967589,-0.611191788396735,0.787082963032904
-1.326531579971466,-2.932720366149854,-2.8669837835835104,-1.275770353573556,2.802747227067794,2.3617176527307624,-0.00771116210566226,0.0884826100300018,0.211240302103724,0.786750391093399,0.578728717998817,0.214701870224340,-0.617221507276816,0.733149491225685,0.285533596045114,0.00783792506460296,-0.357162280313816,0.934009460579344
-1.412327466186463,0.5785425643466597,3.1178429644348444,-0.7458850246968725,1.6827653949808195,2.147786527759468,0.0655160757560563,-0.172525572149897,0.0448652508046210,0.0216261744770802,-0.127937266430458,-0.991546450972313,0.830562909120656,-0.549759454396106,0.0890494036764374,-0.556504773178560,-0.825467502788812,0.0943707543102307
2.812380881394895,-1.3840570799808902,1.7332189091454495,1.5603076825289417,-2.4420376952951903,-1.3648424312865166,0.197767056645124,0.925263360366664,0.383794697472173,0.161051769659218,0.832396917804343,0.530261915207442,-0.0514666430854097,0.543627805089730,-0.837746975036521,-0.985603121007210,0.107629832124521,0.130392895119689
2.0723411528761604,-1.5489598363163297,0.8890133812992884,-0.7167969473967606,-2.608845753977215,-1.9306889401323417,0.809774053107379,0.505813449143765,0.887169160553446,0.121217948084310,-0.270393763015715,-0.955088174978850,-0.974828852125159,0.148955885491432,-0.165894102492548,0.187122735461445,0.951156851996381,-0.245531514828059
0.8771988133914466,-1.0642330062432932,2.086193616689256,-0.7415241361693754,1.8503067093807548,-2.640151957917958,0.794260325077315,-0.216382982648952,0.137389435859969,0.695114788904310,-0.164405836473417,-0.699847234173282,-0.658615949045321,-0.535859414540470,-0.528279963193263,-0.288167419930928,0.828145765419241,-0.480764109838215
2.226820623754147,2.0899586254779248,-2.526836556103322,2.8524332873217,0.6537732639871905,1.0621782225547314,0.0525756340174412,0.0808897885543628,0.172228343029371,-0.931660283640558,-0.329571321639817,0.152943976146100,-0.344519726109127,0.935032048582402,-0.0837927589084472,-0.115391829036923,-0.130758602303564,-0.984676045060065
1.7148489863898373,-1.8891531211894461,1.4704367421855284,1.0944123339285392,-2.3354413132019243,0.9756932985135034,0.978328339891165,-0.237389685895825,0.560115874645714,0.312278241886040,-0.475843588540744,-0.822225746914575,-0.0195948772533279,0.862098802012018,-0.506361231093841,0.949788576700094,0.174237007590553,0.259890601515136
-2.551013086826897,-0.6906949306531351,-0.3200429604322941,-1.155548661838258,-1.9118806576829195,-1.0061685065325507,-0.402713724092927,-0.0462113463148635,1.28721828615591,0.973816488438896,-0.152974626463426,0.168167209951622,0.0800866234464728,-0.461463772276950,-0.883536824145361,0.212761790717884,0.873870671515129,-0.437129808954065
0.36176165226457435,1.9269286468534288,-2.5723121588377085,1.865017024906618,-0.6405837681155302,0.692273553555832,0.132449235872607,-0.0647031123849121,0.188975219182234,-0.579951390588779,0.0757981413892408,0.811117147097803,0.0475133006707959,0.997114330905449,-0.0592072407932070,-0.813264330223273,0.00420153125835115,-0.581879262666729
-2.47525614664076,2.1767186788354893,-0.32966062968505794,1.6467440795866146,-0.585746063983597,-1.404791885859185,0.358714282550967,-0.168062568964004,1.41102102754319,0.913980202054166,-0.136743123748630,-0.382022916014854,-0.0593141274259678,0.886362674914781,-0.459176483288953,0.401400080394513,0.442337570895104,0.802007137645232
-1.6890254960509472,-2.7272237732647016,-0.545943346641192,-2.2539890573316095,-0.40135638839068166,2.640545787397196,-0.101090008464794,0.227498562113231,1.40374389177340,-0.580838810949743,-0.785975606703990,-0.211822145586302,0.797073394391267,-0.496335733943640,-0.343983783286673,0.165227962669982,-0.368636928259940,0.914771302279976
-1.4624831789684969,-0.21305594647395232,3.0657520947226136,-0.5774967282745793,-0.0011613372938863442,-1.8982131148854682,-0.0298368087358940,-0.284421766855475,-0.0730477384260071,-0.696345041994270,-0.717669097086044,-0.00739253526889897,-0.715198634537179,0.694734794680951,-0.0763837562297932,0.0599541128376864,-0.0479023188094310,-0.997051088062455
-2.3462268773841566,-2.648419016610611,-0.3602119323951438,-2.055615216661475,2.1259667903777624,-3.05747848488209,0.177110705080652,0.340776847276722,1.26677661795152,0.242394210315760,-0.701061180588225,0.670640192560544,-0.692004683860637,-0.609424018090630,-0.386952043138696,0.679981297037161,-0.370291219510422,-0.632858474252455
-1.7863852867377323,2.47452475531151,-2.0043830097009994,-2.9250233652119446,0.829504531998313,3.101398540286879,-0.188247025540362,-0.175298199838232,0.493072570401064,-0.800393706865222,-0.583166095492348,-0.138878432734381,-0.521208714964175,0.791415878736882,-0.319378118111624,0.296161087004931,-0.183243586385276,-0.937395540096452
1.6572435246545112,-0.5596787280708524,2.806028031259433,0.8383252326810635,-1.0308059759089527,1.980424056279567,0.293626868478691,0.433522107711972,-0.0203796306374673,-0.109306021393864,0.439360870273253,0.891635698791706,0.798324475903662,-0.495631122156917,0.342093294179553,0.592224809392673,0.749207458867172,-0.296577070451522
0.5811246475405274,-0.6816893609493619,-1.7589667240023514,0.240111722381684,0.23313491077271653,0.8148944723728127,-0.323867651777542,0.0382019193061493,0.752464474174348,0.153338041509444,0.0440251257361328,-0.987192601942481,0.854412630461420,0.495989723851263,0.154832976920115,0.496453927302469,-0.867211613239736,0.0384384693775588
-0.4016685747806279,-0.354330060250057,-0.07967494555279453,1.5229817087589383,0.28402873960373354,-0.37287035682644243,0.436049758940676,-0.372665408570426,1.40971504493776,0.910646278026483,-0.386477894442388,0.146144426591960,0.344731199986533,0.905646967897295,0.246908827898643,-0.227780060743603,-0.174466061587390,0.957955028841034
2.590738326790852,-0.81960172013433,-1.3067098472796619,-1.9427624817126143,-0.5113983424345605,0.06965489348318643,-0.00378733233010975,-0.210456169744908,1.06744718825691,0.925877185017338,0.243937355439166,-0.288523837638619,-0.359836714179985,0.336500493170501,-0.870221211660668,-0.115191047362730,0.909539435493237,0.399335745820634
-0.16968327086176904,1.659242376268117,-2.7927002417567386,2.4892508751781115,1.3482497284439328,0.9061396091282621,-0.0515492804474002,0.0964726633936273,0.0990898511554033,0.602449271306445,0.590366453830603,-0.537142742382146,0.709807885836622,-0.0885251428707746,0.698810463776734,0.365003617388210,-0.802266009046368,-0.472378672277161
1.3115557808909912,-1.9808479668094083,1.2294108787130673,-2.2940443514251534,0.5415015478703635,-1.192121082296055,0.885715130538536,-0.749959987602170,0.753294151118760,-0.144577541944063,-0.941643360763323,0.303982097327734,0.595648735226745,-0.328135121833810,-0.733164324037858,0.790126520620711,0.0750674559943643,0.608329646213583
1.9321657135095736,-0.2399250825514918,-2.2544617781435137,-2.419228694881288,2.6930355113710167,1.8788401852312147,0.0398894646081254,-0.0901673319870030,0.458811723497084,0.933839088813528,0.311912820000868,0.175085547441891,-0.259205029352078,0.252792865063820,0.932152627058152,0.246489977407822,-0.915863614350920,0.316917230433373
-1.663855951813793,-1.996582942730469,1.6295806089433267,0.7906962267768578,-1.316303183533833,-1.5569587093343882,-0.900530119778668,0.593451348663424,0.499805677414877,0.372293775226738,-0.923917787676401,0.0881661303594971,0.594425714861859,0.310317863872597,0.741863122733916,-0.712780060354098,-0.223782807598558,0.664729900474558
-2.958468111196893,-0.5803777125747427,0.6121305660514023,0.5452037523607336,-0.8912504575758327,-1.8358913273383919,-0.848767320323478,0.399853809418653,1.16033542466293,0.188803042147465,-0.926671390612926,0.325013146034693,0.908221198125419,0.290647566352021,0.301095080413607,-0.373480476800985,0.238336161740415,0.896497745371038
-2.2643091382046827,-0.12806382819987538,0.18765932196977841,1.4869193854178073,0.3750594453465048,-0.12373334557984661,-0.534844540073596,-0.547334126654384,1.34246993117317,0.525165030939432,0.845171541789655,0.0994321639475072,-0.754025837289355,0.516300721806875,-0.406052461341866,-0.394520882816706,0.138270132749622,0.908424263992838
-1.062039737370832,-3.0981028897711025,3.0336220017176485,-0.4153273859144746,-0.8944822526998881,2.8163434963309113,-0.224428954417853,0.304230555706743,-0.0324217470150582,-0.626666999062847,0.388660647286856,-0.675449016237442,0.00347147179312313,0.868136082016181,0.496314106171872,0.779279424320414,0.308678869299725,-0.545381457769411
-1.6860786725546744,2.4033821711154175,-0.23215174895869595,-2.5366031045710384,-2.978914631499485,2.386441587179016,0.382307839973464,0.345714113438614,1.23614618773717,0.512128125025459,-0.833285497264177,0.208230794089397,-0.843673117943853,-0.442575442431174,0.303879331011090,-0.161060403627972,-0.331303875326026,-0.929675905128853
2.229828047845869,-3.1395772620309974,-0.661575090185258,-1.6451908193412288,0.6627542828154924,2.8865420920869838,0.0428718823625847,-0.155062682610419,1.34934750115767,0.510421000532225,-0.305515182929766,-0.803822664034222,0.552227862018138,0.832997325827523,0.0340564762574331,0.659177359006329,-0.461276411887263,0.593893324772937
-2.098965426004879,2.337487533137992,-2.0941611232407498,-0.32652901415058677,-2.782583084775365,-1.8583683586570303,-0.117229186900149,-0.0169062980759840,0.546325735519488,0.345817540410037,0.169029962960956,0.922951299021877,-0.938300963713271,0.0610002939674849,0.340397217424917,0.00123702849533980,-0.983721421824948,0.179695948766809
1.017616691030451,0.848351164908391,1.5112545129337116,0.047657118792430175,-1.395134769757075,-1.5306654849247576,-0.310380155671041,1.03693159158223,0.607058574570954,0.942160610484664,-0.334976070301193,0.0111542089246502,0.331078635887128,0.935346173775784,0.124557103619659,-0.0521566957377791,-0.113659876511326,0.992149742509238
3.072249357121903,2.697355221923063,0.21459215475408877,-1.4007939443414357,1.7825448251326845,2.3577239839552773,0.624416922336825,-0.462843698456814,1.21890289453011,0.728637209743535,-0.575313736375700,-0.371620668578306,-0.442282737674613,0.0190482155286959,-0.896673377233997,0.522947221555106,0.817710994314375,-0.240572095732633
-2.9156223150841027,0.7456644338887073,-3.0313302811686547,-0.9725455215811971,-2.513935427419169,1.2651783692800693,-0.0747864685791154,-0.195558181241965,0.142643252495492,0.985522480799681,-0.0385072592742157,0.165113993415549,0.133901701744209,0.774147651413716,-0.618680651128377,-0.103998913977246,0.631832734822924,0.768096101472815
-2.793117388189893,2.7160051425461917,-2.6389057269072875,-0.6323670461727069,-2.405177578875965,1.681883518361535,0.0373436236300255,0.0369303926798651,0.253114526924484,-0.477315555783496,-0.181448057591611,0.859794430432836,0.792238136960601,-0.512169014561770,0.331725240022554,0.380169165704280,0.839499555043990,0.388216308942134
-1.6256600916542747,-2.972027009823769,-0.07724548022313815,2.589646341424177,-1.5559483183162646,-0.4894265158643094,-0.0240894417011993,0.667187121494968,1.32160566021178,-0.423566232112018,0.800605047573585,0.423819778696236,0.118846736320363,-0.414704467681712,0.902161658324508,0.898035133099160,0.432494811858508,0.0805055118302337
-2.8558579394777337,-0.04497789353555959,-0.7820316279760728,0.28069561589499825,1.286923194071603,-2.602179084678579,-0.162278561048359,-0.0672259709628658,1.34279391886117,0.491224949927797,-0.783546141569689,-0.380464837533886,0.697341330280377,0.615504003939137,-0.367246361748738,0.521932100613890,-0.0849132802695987,0.848750032213625
2.7647272085774706,2.1438129360538527,0.11373508198132054,-2.9258004947890615,0.03353989279529612,-1.5269409289882234,0.137339381105779,-0.694852399353527,1.37290143035539,0.898210343673557,-0.439479377171379,0.00872098382568190,0.438693887028198,0.895002949222367,-0.0807303806962149,0.0276740311830750,0.0763387052832427,0.996697822849913
0.32961987840904783,-1.7751841735701464,2.640391103506788,-0.6238221866674256,0.3013569875977202,-1.8553827990751801,0.0554991277608220,-0.579662984666037,-0.0739332617803897,-0.527264790885687,-0.837902824042475,-0.141105271885633,-0.794657197754042,0.545059708934302,-0.267263637171515,0.300851754772955,-0.0287883858196276,-0.953236303595249
-0.7725841945566709,-0.12274565465587362,1.7608945329912258,2.5633697090393666,1.6902808810389063,2.5604647731252834,0.676904749841388,-0.758087498017756,0.438461979256472,0.238572663372479,0.861338274147323,0.448530335406952,-0.945935524480978,0.101601266193520,0.308031112442834,0.219747736771640,-0.497768580965879,0.839009756788892
-1.0325960743112845,1.7694584464645873,0.6504045691090701,-1.7753789818909573,-1.1873423978787352,2.736277559119687,0.685699587920377,0.744782833175664,1.06864313687330,-0.285832612824752,-0.899165932791199,-0.331361347705957,0.0870481409049576,-0.368720940952730,0.925455287341276,-0.954317734620271,0.235680913547674,0.183663192770266
2.661388543955474,-1.6230745966434412,2.595455298999693,0.24069920760426378,0.18515959745234856,0.6739187943523746,0.312032996862176,0.538181539702390,-0.0655159801120656,-0.976866937966674,-0.158283073575409,0.143796572028459,-0.103360718798422,0.938137045915430,0.330477601193401,-0.187209901760263,0.307969725298758,-0.932795315694885
1.7692024927974286,-1.6693203322115324,-1.2892839583262639,2.188718622471465,-0.8349890687806134,-1.0457104346662938,-0.165301756470139,-0.0772897639542501,1.09704850519543,-0.291451796593284,-0.837297689691956,-0.462588833737975,0.750211635866756,0.0999604239475594,-0.653598053129254,0.593496715806140,-0.537531852526655,0.599016824343515
-0.26766587023952226,1.0188389792817079,-2.068809776057221,-3.043847331826457,2.264000590697001,-2.0335921620105357,-0.0871920064418075,-0.0916895776376517,0.508037123080819,-0.679680799410101,-0.0828388521554548,0.728815295865018,0.545658828399739,0.606910225929179,0.577855016982649,-0.490194302193193,0.790441460347419,-0.367303476516584
0.40121856951498724,-0.5794876756487968,-1.3357920372529346,-0.11411591320396797,-2.099961500525734,0.6886605383253217,-0.103550972424581,0.0286457415791754,0.916037825576002,-0.590230266076318,0.747781031651664,0.304058812911995,0.792982557554592,0.607573391272085,0.0450914363523287,-0.151019523312906,0.267727665585965,-0.951585519361362
-2.756435845543175,1.3891941824283673,1.309445808192513,1.7927606081300276,-0.6652776779904785,-1.4263445487212423,0.177506549660025,-1.15781844937877,0.646775138010212,0.388019639810632,0.815739838284816,-0.428963023297219,-0.255658353373155,-0.351899237945361,-0.900447518006464,-0.885482673727586,0.459059301799383,0.0720068882795851
2.2071109798100137,-2.0136928040012965,2.966046550576789,-1.5347146223408352,-1.6182283261724317,1.0888244481894445,0.320184656706058,0.164432821887085,0.0200509582181201,-0.785883920754666,-0.595903921413507,-0.165181656194866,-0.0989759392961244,-0.142462184224210,0.984839220130127,-0.610401692772655,0.790318317205208,0.0529785895452503
-0.74491062615951,-0.9951674304653624,2.3100832893408016,-2.0238714707034378,-0.7671698276233787,1.5441476725639918,-0.0721712261484261,-0.792681710510128,0.0267865158311528,-0.349555028987968,0.751127416866611,0.560016861657319,0.654489707950435,0.623466608814879,-0.427706219126901,-0.670413681167214,0.217018412408180,-0.709541052215908
0.267219790629849,-2.2362294375321685,2.4177949769591214,-0.6440849270726225,0.48524159307005066,1.8332035386942156,-0.308106336217712,-0.660159804409391,-0.0254831747026641,0.922965379753123,-0.0777924950821627,-0.376939299471499,-0.152954998366410,-0.972839291788156,-0.173748326115247,-0.353185045340123,0.218018439729327,-0.909795737342226
1.7907329256495057,0.5642660959457646,1.276911459158164,0.8559318570549865,2.363469690294502,1.0791329350155143,-0.769273168810765,0.696058068287538,0.596396546819715,0.175960557303206,-0.984323622966085,0.0120369242112178,-0.635059570937489,-0.122851033979978,-0.762631604912059,0.752155052920764,0.126548918292382,-0.646721074068868
2.986731736543639,1.849723145470442,-0.7543350689208088,0.4459374928483899,-2.8421916595985435,1.4470859597793657,0.0109333256256729,-0.190472017192056,1.17820514045263,0.786693752587559,0.613446213636546,-0.0692580869984911,0.515658017443029,-0.714647975542092,-0.472625729409977,-0.339425615837151,0.336098220805429,-0.878537555990065
0.4003632794037739,0.22542893848199919,3.0301122798461666,1.4469852946445014,-3.0604612880543036,2.5047904850210863,0.240756416482381,0.164069661080993,0.120824505492845,-0.119106138254767,-0.992274862386490,-0.0347033904094311,0.985677337442674,-0.113966823359807,-0.124305066772014,0.119389757860366,-0.0490118419277172,0.991636992587961
-1.9178112205560274,-1.5261136254916692,2.4296741081862425,-3.085630690520575,2.459101341451534,-0.6236015871235518,-0.654916603378412,0.207959648285248,0.162255453930648,0.566213898850420,0.823320620432165,0.0393061918760985,-0.824256149869926,0.565678310598782,0.0246951072018955,-0.00190266923343952,-0.0463810833131559,0.998922006445191
1.674667691215907,-1.6783317614201745,2.18328775514967,-0.7666382019230857,-0.9999026622117757,-2.4580986194524383,0.909759987124326,0.0550376470747435,0.162683744276595,-0.109059152607559,0.599782059162780,0.792696400104717,-0.163775216177974,-0.797396799007050,0.580806356283374,0.980450804374385,-0.0664817752453035,0.185192855590744
2.4397453304667334,1.9653818461169932,1.9927306062817713,-0.7301146834025944,-1.815913454479796,2.3038111097176763,-0.219699191491067,-0.906304243237858,0.305420289302579,0.680053423485809,-0.429557173953797,0.594144742895247,0.670431500074400,0.692334078351963,-0.266824151194244,-0.296730424650424,0.579788028728919,0.758812820680708
0.7886228803004549,2.418863985255369,-0.6724580762061763,2.64939824191267,-2.0924352438316776,-0.8037720909505821,-0.286918272621777,0.0221266538312196,1.29604078049674,-0.0984767570242706,0.345747251816269,-0.933145844006970,-0.478618416718006,0.805671068938837,0.349025127825062,0.872483088377266,0.480991649133797,0.0861411281515300
1.288414817331346,-0.056951372231083486,-2.2236341858339728,0.32237407967583875,-2.9761050634833657,2.113643671104258,-0.0297274766592377,-0.0998966013153040,0.493686186854993,-0.938406584407192,0.0519564701004077,0.341604460679208,0.266366918007424,-0.520954154177757,0.810959576203502,0.220094859850142,0.852001933366141,0.475027323643496
-1.427166075297253,1.8478286131297263,2.794989962905791,0.5052218034540541,-2.8195079208384164,-2.6174643817006356,0.416784169367530,0.169671594308414,0.108150323605610,-0.893396251470145,0.449226302594164,0.00623433369895782,-0.443992823598899,-0.880697622795514,-0.165051718546058,-0.0686550103908721,-0.150224586070012,0.986265209407856
0.6276176293084132,0.487034187571703,-0.7768266544484472,0.573308173019091,0.3555508157751772,-0.2950552014962464,0.0209855112598002,0.0856357674703125,1.34683828718948,0.171652079774128,-0.914196516262833,-0.367124356536196,0.899722528132578,0.297270644904795,-0.319577120658864,0.401291584611413,-0.275453976792470,0.873550325275696
2.4424061721421895,2.2147563101943213,3.0465574247663962,2.824713072618195,-3.012405526989755,-1.6686287616184812,-0.0188614525091047,-0.268456450142820,0.121421990798441,0.986412424888008,-0.161856341535269,-0.0281611919381567,0.164084832244204,0.962090255763444,0.217849736268883,-0.00816675296251997,-0.219510511069171,0.975575952797218
-1.5346702632142168,0.48266639401406364,-0.2202561579240374,0.2408576569915919,0.04148234596108713,0.1322844079646961,0.233715093819982,-0.407342340330075,1.42685616866814,0.771009508858521,0.631758554575216,-0.0801590043025521,-0.615570174934453,0.771597762551515,0.160344169075969,0.163149308858204,-0.0742833867464966,0.983800935897380
2.929901572036174,-0.08028100543383765,0.2684420804685663,1.0782806515726202,-1.8118694740766836,0.39202530145779013,-0.683407635982263,0.294754116409825,1.21354992775997,0.183200513460827,0.657406825318325,0.730926698029680,-0.0407004948138982,-0.737800614657115,0.673790562959654,0.982232682000346,-0.153187855381765,-0.108408668352408
0.33142852444622184,-1.8705457919515245,1.55630121274804,2.4257015464762937,-2.1192534742216176,2.8490646194840314,-0.0239328301450688,-1.01290056939187,0.414019181636117,0.0838618459615326,0.813159727785448,-0.575967401768382,0.828267514154187,0.264476378860963,0.493989038361617,0.554021764724787,-0.518481920738311,-0.651334308998647
2.13189455469577,1.4756618088467333,0.24394899087210353,1.6711417411442975,1.262237910534588,1.9157294297790735,-0.649177320502277,-0.432580793655155,1.26481422268010,0.645072085418878,-0.622511712595195,0.443126587213108,0.544294555042812,-0.0326819237233971,-0.838257316826095,0.536307227215974,0.781927784097442,0.317747538924188
-2.0116149258628213,0.31270060693364865,-2.0271709917461305,-0.020832259067141923,-0.05461019474152806,1.6178779961774294,0.0398344339856133,0.308326971184220,0.522989697434031,0.989692453523762,-0.0885189416123417,0.112575505390588,-0.141451925215874,-0.481467483120806,0.864974228257720,-0.0223651579658663,-0.871982488168855,-0.489025909370879
2.649611967762584,-2.476912230404249,0.5402259974848853,-1.3388964527726668,-2.482252812833166,-1.9465881524311484,0.849590800619452,0.208720379005883,1.04687474981438,-0.737182730591350,-0.264260772368549,-0.621874477611888,-0.632190395830301,0.594645344027984,0.496721469483420,0.238530763504015,0.759317561375357,-0.605425400730076
1.0805860233950613,-1.1584384567993486,3.1266854667163537,1.0466030622543308,-0.46153211606750055,-2.0744317866267146,0.259239458207268,-0.0588930643880719,-0.0521062525865856,-0.606633464383662,-0.767958673753971,0.205512323951431,-0.767608944813526,0.498583280054830,-0.402729711707531,0.206814766716840,-0.402062418357907,-0.891949249684112
-1.5327746279900842,-0.9602527395411289,-0.6071064787435709,1.3149147553045673,2.958105937905092,3.019719917452896,-0.224226209724698,-0.192099860861063,1.22340205987631,0.586540364475611,-0.720143938519869,-0.370625294136691,-0.778741209305586,-0.375701712918411,-0.502404569883123,0.222559047827968,0.583301749288705,-0.781169981186326
1.6085735189500312,1.5472876478262183,2.3068771738633114,-1.9450254308523656,1.852512778833158,1.4457140884441921,-0.766788898969411,0.0784771889548561,0.143492559713478,0.712576987294365,-0.700306850954536,-0.0424776610070397,0.340618452960366,0.292385507655719,0.893582556015836,-0.613362133393784,-0.651215040842155,0.446884620343525
-2.997416612076496,0.18336335414488314,0.7788838728477607,1.4409805323351934,2.820914437272709,-2.856238043750134,-0.890520939928522,-0.335590081804335,0.907464513004309,-0.189933743738305,-0.684033354918296,0.704289388212525,-0.979732599312157,0.178545153247424,-0.0908056281124642,-0.0636333783057076,-0.707262325881334,-0.704081526212930
2.0676052754581224,-0.03143539874468493,1.9347584109782394,-0.23597825699275043,-0.42303108178845017,1.1229390260274394,-0.478405525608940,0.931309064238004,0.263674393838137,-0.680251397488100,-0.504291989319272,-0.531928214822167,-0.392574413701015,-0.362181960061533,0.845404966577138,-0.618985755831902,0.783909317022318,0.0484026524357051
-1.6319369645106137,2.9260929981268884,2.6315909903272523,-1.4586272041090982,0.9637320145296355,1.6042582087658444,0.237698571081573,0.538377352717955,-0.0317387373889406,-0.358426678764750,-0.408826500046596,0.839280173010969,-0.783385101300589,0.620701856688849,-0.0322023005898864,-0.507777607826435,-0.669021747002791,-0.542744694149466
1.0482189867658267,-1.430464461626985,-3.0286398860039063,-1.0329349795923348,-0.5446849558314089,-2.3633381108019966,0.180824922225161,-0.0247347585416016,-0.0214188181264809,0.943057650723155,-0.0862250829020743,0.321259244989236,-0.202981032900947,-0.914321224091829,0.350450281006714,0.263516541596515,-0.395704352078355,-0.879759681987792
0.1912643885065739,-0.6281591487550595,-1.629553099956708,2.647208228290606,2.6207023223132166,3.070729098545873,-0.100093419980341,0.0728039099031031,0.794022065584639,-0.259355971076207,0.329680687474612,0.907769312421049,0.505416775831657,0.847279945310324,-0.163311288595943,-0.822975311279172,0.416446081241260,-0.386373263106737
-0.5012322337302209,2.733689622920222,0.7482923989100772,-1.311453568892583,-1.131909896502414,3.056664623484015,-0.693975235649866,0.748715879298486,1.04255473415633,0.0489955325042549,0.644032428854845,-0.763427579000100,-0.764369951002957,-0.467821604999208,-0.443713335273690,-0.642913692340085,0.605281072295586,0.469357867434162
-2.8210395586584625,-1.2637390737353802,-0.15638636234459335,-1.0482506228579052,0.3053429615403678,-0.7799624914764229,-0.289785896918280,0.443813309239238,1.42000906700537,0.897340125196411,-0.387601028375427,0.211059571009706,0.361397965429312,0.919823760075197,0.152694993318968,-0.253322344644217,-0.0607428448744162,0.965472991077699
-0.24457140565460422,0.2866201954620058,-1.988167989456226,-2.058327422501092,-0.2817313018823091,1.3680100717805797,-0.320831677042997,0.0110859592023226,0.570423145793733,-0.338447751448425,-0.0328231394465593,-0.940412548329921,-0.644563796021369,0.736197465650501,0.206278463316706,0.685558627980151,0.675970364059439,-0.270320984230454
1.2175494863445735,-2.524040266713282,-2.8974356219616153,2.6299411953806073,-2.169603651918655,-2.0215377386473845,-0.0318868618138016,-0.0369902201596636,0.179137286975931,0.838926383100786,-0.0862961648965350,-0.537359745107114,0.364733210504218,0.821969649329245,0.437419227671629,0.403945799449281,-0.562955475597945,0.721047102207319
-1.4444557974585233,-1.8458475323109662,1.2211973878877895,-1.5849621124085669,-1.3860544607011795,-0.20367154146364275,-1.11046288891827,0.0669804539271715,0.702869884736765,-0.798853228972196,-0.508703581717735,-0.321020535960308,0.298669814417717,0.127805393038333,-0.945760077115757,0.522139694446210,-0.851402635336458,0.0498366534365313
2.281461769760373,-1.3733063595087533,2.799705238581403,1.9724842785673538,1.4892909458318426,-2.865297358127725,0.230502271700186,0.444498340624460,0.0148031285004929,0.00725270949585041,-0.876930166704881,-0.480563087354738,0.0654743248504711,-0.479128033028472,0.875299629128017,-0.997827896478318,-0.0378128376245004,0.0539414341711394
1.803545071607064,-2.023689068468091,-3.028193813931185,2.461806686664236,-2.0809378982988536,1.9979091349310298,0.0837422366550576,-0.0749544487659649,0.122873723459781,0.620402998801697,0.301711145535804,-0.723927139798843,-0.733875114176128,0.548907117365465,-0.400160334489203,0.276635926572881,0.779532783893666,0.561961923055428
0.23375336533989932,-2.096435066110267,-2.9227573708004213,-0.6983656687156095,-0.7693343100220877,2.462018554261128,0.00415746376968096,-0.141600863500739,0.0167526208306673,0.764544091736167,-0.557465022520105,0.323581644191971,-0.376726233954817,-0.793802075670189,-0.477446970156812,0.523019766778982,0.243127565957375,-0.816908385457085
1.7074698979818939,1.0876908810014774,1.4884233128718831,2.4847567776942316,-0.2468753544056388,-2.57464459018031,-1.09782379039098,0.412168000287748,0.511205855549730,0.142902463087192,-0.465770631977714,-0.873290675795119,0.0272470660861808,-0.880160609521281,0.473893341203294,-0.989361654519372,-0.0915151344544047,-0.113086235822416
2.8519495012189733,3.086857600192908,-0.09601129221128701,-0.6662544628080918,-1.0126976953185411,-1.2571095626491395,0.485734774736340,-0.118522004588183,1.36259207349202,-0.740632017231752,0.453702512134960,-0.495598875638003,-0.636075768298336,-0.235769968797156,0.734724532595087,0.216499034720498,0.859398948274790,0.463207961578035
2.250228892881962,-0.4094302844380868,-2.421211916511944,2.6546440546816337,3.102081058310021,0.8925592710202341,0.0161869012261436,-0.0654167397822384,0.401248662947379,0.979635895242903,-0.00777859047023238,-0.200631518665268,0.140165949188339,0.741958039741298,0.655630821386077,0.143760284639978,-0.670401193908206,0.727939022011243
0.5898950414084263,0.5217940864532098,1.819979090712164,0.8500059444352455,-1.8529713184059322,-2.0306691343777175,0.498911416390714,0.846424186320649,0.389108362965970,0.181379647932232,0.781815482464623,0.596545031573131,-0.758141710203588,0.497526420728048,-0.421531265657858,-0.626356584195902,-0.375808477892857,0.682968093968010
-3.1099989739762495,-2.9980817219016807,1.276159500733904,-2.285421054762471,-0.7312570848084028,-1.6097930739784962,1.14811172918488,0.254345226288630,0.641302863613462,-0.352819371400910,0.574400168329032,0.738635862782093,0.624845052877651,-0.442955555541721,0.642930039513671,0.696481981862124,0.688371137133382,-0.202627802887715
0.8366379529404435,-2.353454673678786,2.678566192208211,-2.63337518871034,-1.0123389377619758,-1.0774840337279117,0.0676370816605488,-0.486893285939383,-0.0634964700998824,0.687354385026099,-0.613310499080226,0.389094051745020,-0.722944486559579,-0.526102871133034,0.447847114916112,-0.0699658397969995,-0.589123077721067,-0.805008559307265
0.12250581197368193,3.067599663265379,0.14809738656641125,-0.354272859070099,-2.3021751817525007,-1.0917159228855384,-0.639869476814891,-0.0569154690443739,1.20783388050850,0.503638911849955,0.324784462694910,0.800539130375631,0.750811558259267,-0.622933973241050,-0.219625292182868,0.427352138704001,0.711665875094554,-0.557585716971856
1.1072625026324054,-1.6774368245876699,-0.7813876927677477,2.031661233895841,0.28744835255034573,2.4229515895603893,0.0573224196323548,-0.00659139160810164,1.31731466501862,-0.794088293572167,0.335501210667354,-0.506816258275505,-0.606631201607853,-0.489225221368598,0.626623705275071,-0.0377142843953889,0.805045104585815,0.592013523777082
3.0427934436312354,1.201039955468426,-3.1184705382986637,0.6177034431819757,-0.6028420971404129,1.9616226582902279,-0.146620288770835,-0.216962792551328,-0.0386269591358134,0.150835890230258,-0.856817534192753,-0.493064141180735,-0.968600122674748,-0.0283761984980503,-0.246999177555842,0.197641940318620,0.514838328466956,-0.834193717890780
1.5496974721822037,0.8381812893676486,-1.7834796442414291,1.8273612267921369,0.25158419940223364,2.7634479517452464,0.217840265178297,-0.237478952339792,0.705892432208428,0.805013578692768,0.293131349081524,0.515778198750111,0.566969406244475,-0.124207961595592,-0.814320621536170,-0.174639143673605,0.947969616845347,-0.266185602606595
-0.1775671085462669,2.089755830658949,1.771846609952692,-1.7619723940570657,-1.8546298637445762,-1.8438187399771084,-0.415671405080972,0.888391010045455,0.335937063367936,-0.0818099460419525,-0.615291155251515,-0.784043319592655,-0.0948400082271039,0.787916548367238,-0.608434783397975,0.992125246915981,0.0245826580807377,-0.122813628533603
-2.267419294737853,-2.36888398058918,3.0522711796683826,-2.6137974489374898,1.655389883428514,-2.0519714905016726,0.0217625499548643,0.374719523508696,0.0407653819705469,-0.783454423791510,-0.443054748395132,0.435777071179793,0.461232131443987,0.0554043591149035,0.885548009943393,-0.416490200082966,0.894780893244594,0.160944295702762
1.973952820474012,1.3129906155068873,0.7365576387847756,1.7494119346699755,-0.5386198304697283,-0.9210832204365444,-1.06184205495308,-0.104418677698566,1.05981478359815,-0.618466801465050,0.335759947619241,-0.710467503169789,-0.750000678934281,-0.522039039421295,0.406170189598165,-0.234516091310825,0.784053887749315,0.574684003624145
-3.0177808963310175,-0.5726042692088038,-3.1358100527102786,0.4634172477215297,2.2936386831336817,-0.48819009362701404,-0.158394299477496,0.0390705107907887,0.107705745519798,0.00993262909990483,-0.890180682307025,0.455499391576501,0.750757318285824,-0.294249872100210,-0.591422405569224,0.660503438234384,0.347843881096691,0.665386986996401
1.9705628057139242,-1.133498878661091,0.7542995497665439,-1.3175158015201727,2.5937508652375625,-1.8376371388999995,0.679113679031331,0.677882364805720,0.921010453013469,-0.0238564816818459,-0.998622966615877,0.0467230010708694,-0.712830327254658,-0.0157763565597433,-0.701159062638227,0.700930661925829,-0.0500327604775568,-0.711472367735539
-0.6711378613901684,0.4071484118111184,-2.0803294380962836,-0.36999337630059204,0.17080518338864348,-0.8004749872082391,-0.302103220319104,0.0752907977163693,0.503066667305399,-0.318656186977247,-0.223575812035729,-0.921125447902557,-0.864054437763169,0.468050217712227,0.185307642263647,0.389702659835543,0.854951957698268,-0.342328770256024
-1.5689052414476365,-2.460321609320196,2.8513276850495277,0.7068061094272933,0.5479539914193978,-1.909657318496469,-0.281988103104408,0.292870447859327,-0.0840134973025488,0.907817160254456,0.380186177509163,-0.176992864202224,0.312678416059204,-0.894880483057228,-0.318466841561203,-0.279464150971538,0.233767815308764,-0.931263870687317
1.5968766786428814,1.4853065569450061,-1.4337861402688068,2.565236755377497,-0.45407982109378286,2.1887054817475597,0.251757813542732,0.00897225737645139,1.00287944505796,-0.192819285595504,-0.485473062731287,0.852723066689733,0.980321367490936,-0.0578318328386159,0.188747173624477,-0.0423171306109161,0.872336738004786,0.487070709429368
1.9501637727851682,-2.2776415986792498,1.0969570740365127,1.2375295607449086,-2.0771100582842603,-1.361820354114577,0.944554269930276,-0.408154150382528,0.782836132087476,0.404527299212469,0.446674204800803,-0.798022442640203,-0.575806247868026,-0.553529178288225,-0.601708080134967,-0.710496185146698,0.702913652982450,0.0332801343575519
1.106076864678041,1.4867335857497466,-0.8196488273120379,0.659010398842006,2.8288473267188374,-1.775600058346663,-0.173780276327530,0.0841722376576996,1.19898399969817,-0.0571650706130335,0.549945062917522,-0.833242211169387,0.803369566087797,0.520846201868336,0.288646105608985,0.592730541633980,-0.652900958623873,-0.471583336476509
1.4674804785424174,2.656955703402593,1.4743758107451308,-1.9440689531956978,-0.390827645304777,-1.8594207030218242,-0.619266211442461,-0.992952559568891,0.526653482449084,0.597180941945318,-0.770566712555369,-0.222714759454585,-0.176195160455260,0.144858574855023,-0.973638155950719,0.782515295703188,0.620679413862408,-0.0492633453793962
-0.7457422413480095,2.301891316774987,-0.7985575526127904,0.4394008034062069,0.8454479556682974,0.3217135344890836,-0.0300997668677697,0.118428721246462,1.34764497086467,-0.541930932716906,-0.777807896322750,-0.318317044128276,0.820111928472755,-0.572199843747503,0.00193999794651937,-0.183649908634019,-0.260004260029161,0.947982328857139
-2.302253377773744,1.7109095106030754,0.312125889911834,-1.9677626783993865,0.04542625063660077,2.9542566569588384,0.697354902903920,-0.473320961614613,1.30375297709397,0.911355668427262,-0.349490391718550,0.217456459370408,0.391598925410701,0.898916293901307,-0.196468262515664,-0.126811384515285,0.264208180522773,0.956092521726931
-0.7427816151439521,1.4155672462887825,-0.7858400114286592,-1.6980242542272002,-1.9743527548655764,2.4073473166832535,0.0696257747036408,0.172118795454606,1.23726404843924,0.957821656952828,0.0193819569320864,-0.286708934666541,0.284767298188645,-0.197826403941303,0.937961779491036,-0.0385390627088854,-0.980045434482063,-0.195001761521237
-0.13498318516415742,-2.872342945212655,1.1445814407444974,0.20810791845749188,-2.389783374412384,0.6876906846559403,-0.985145994303984,-0.118833995027204,0.778997208204343,-0.128676860801862,0.384750944373707,0.914007098603571,-0.526404803793447,-0.807602188426493,0.265850875100913,0.840440508327247,-0.446928871356817,0.306454459765820
0.17089365231528086,-2.838370856991407,1.6911384164169494,0.9631767267478013,-2.519569449591361,-2.3471909981730907,-0.871274076921573,-0.393328316350283,0.438595951895327,0.485412453877243,-0.741068033482493,0.463888908437423,0.181401302194138,0.604415047521079,0.775742236759327,-0.855259210522251,-0.292404890657600,0.427821297665711
-0.597282875126599,-2.800288220710714,-0.48392527519073036,2.3580763016721775,2.68893807474314,-3.036896257893885,-0.325453866342504,0.0532707488060766,1.22669371278455,0.496621315485825,-0.840249172614246,-0.217597327479460,-0.858985446822468,-0.439814439637365,-0.262120698979831,0.124544253790904,0.317087663915746,-0.940183036562627
0.35629070032705634,-3.0973221870956524,-2.3460551337797586,0.6745596387604835,2.070466668245145,2.13856536186914,0.181333488552411,0.0172545396509799,0.454406294494018,0.420261269626453,0.841120855632139,0.340435267668642,-0.711841597675202,0.538270569372770,-0.451161095359884,-0.562727291919610,-0.0527304501002245,0.824959086598269
-1.3524577636780932,2.406350489814436,1.4888826890019473,1.528467825182453,2.666329257615387,-0.9356167665920627,0.447425248310669,0.879593768131240,0.513013353007983,0.385743275093549,0.393248441065558,-0.834600377018613,-0.456925808849983,-0.704450200684675,-0.543110228187713,-0.801511653643845,0.590851570493664,-0.0920515655395393
-0.016635435765701256,-1.1622253115026797,2.0948428485516493,1.3819679942902185,-1.9222005650462424,2.3185350624564043,0.241132346270768,-0.824832361277841,0.214078286991356,0.257783172045789,-0.253242088446049,-0.932424946496765,0.338495673870694,0.927550754227143,-0.158335962761093,0.904968792269013,-0.274805463868790,0.324828327039105
-1.5755108761378656,2.236468821272001,0.002139671026525125,2.729155919446878,0.09884925015198309,-2.2615340115169165,0.488991068890546,0.385270693342742,1.39910158056911,0.425033815493087,-0.900286000321731,-0.0939753867355077,0.903121698213629,0.428769988756214,-0.0229672583850699,0.0609709267037948,-0.0751093493960324,0.995309565778499
-2.16802241166313,-0.9541512198216706,0.8831601825317392,1.0806491698660654,3.024807997394519,1.413280033276589,-0.970124483804056,-0.0291232558532428,0.848041452764805,0.619969582615622,-0.275874866672143,0.734527585983017,-0.315494552155087,-0.944786363608255,-0.0885545859927697,0.718401631534807,-0.176838302068632,-0.672775825018714
0.42430345561399907,0.17707063307769433,-1.0893879189539293,-3.041504908916991,2.3255902032830145,-0.6670722588981297,-0.00299213373001810,-0.0108800353070921,1.04301322614869,0.220397546652014,0.938667172749479,0.265195890300498,0.963026536773742,-0.252588466877946,0.0936960824678440,0.154934860181128,0.234740293095900,-0.959631274968623
2.1439110710803764,-0.0034236282405188945,-0.3779013698268936,0.46375144524769496,1.6956013228038023,0.5063024751392415,-0.291153427581451,0.372262841620666,1.35051554392419,-0.339357793240467,-0.416579994310160,-0.843384489131444,-0.184046062396230,-0.849856694566829,0.493832608903448,-0.922476739589353,0.322807538698355,0.211735584813008
-0.12073809294228477,0.8148054175061312,-0.16811999644190978,-2.988945930894176,2.9322379276485995,-1.6951130461633517,0.400089311683771,0.328841883935727,1.22470895544463,-0.824054651375453,0.566428278127078,-0.00964039856409411,0.566160709919381,0.822829119349057,-0.0491354342083016,-0.0198992987329672,-0.0459482980016568,-0.998745599149597
-1.933393355989231,2.896878255146773,3.097861045731081,1.1319982349584405,-0.6868255106644514,-2.479753480478998,0.211503387207912,0.203767019475421,-0.0442158373140389,0.485967512000100,-0.590575687512488,0.644248348542381,-0.725894850561416,-0.683277056445292,-0.0787980333756840,0.486736317947255,-0.429363274459529,-0.760746301559554
-1.715875361621264,3.081894043866848,2.938229863854068,1.2724629641584464,-1.537051877951198,2.8389003887760476,0.173003562396389,0.363219612718691,0.0152182651704803,-0.0361975221160222,0.0907606860377543,0.995214668934606,0.105209554915585,-0.989986944474719,0.0941105696724549,0.993791069061865,0.108112661791142,0.0262861829353316
-0.8079682511271544,-2.0747619587885326,-0.6330773854813212,1.4295523974045734,0.9524919620197325,-1.514074578512502,-0.166373034336156,-0.127511585349632,1.34975747149058,-0.828022194958927,-0.336325123961688,0.448625295371935,-0.107526353403307,-0.690022833491431,-0.715755944847295,0.550288404365554,-0.640900850563184,0.535190407021837
-1.9113511542129051,-1.3760190720543406,-1.0998473088530716,-0.976498746697295,2.266286821883062,2.432089258046477,-0.0263138199629206,0.0681557464611860,1.14331352874549,0.154575434339799,0.730189236555484,-0.665529949677083,0.0157294212863364,0.671722065969995,0.740636247691807,0.987855769029396,-0.124952570631905,0.0923462759824097
0.9957766495359763,1.5094378892093117,-2.0282402861036526,0.69114102953385,-0.7424782687279099,-2.1107307765707386,0.240068385306487,-0.123807508803857,0.491912616278517,0.375987862682807,0.703822939444185,0.602715850983995,0.844134149573876,-0.528439203614156,0.0904961082413234,0.382191921210278,0.474747593986303,-0.792807705162994
2.542777481251836,0.9127366674103969,-0.6513630675134001,-0.465619696668627,2.9971907307721954,0.4549540540384629,-0.265764840494378,-0.0794896112894071,1.22136422388503,0.621521423449999,-0.374932342339107,-0.687849444908403,-0.630651338992645,-0.760351001115287,-0.155387398877018,-0.464747252621757,0.530369770793069,-0.709026020262611
2.225288081646033,2.710561308244108,2.2745717196966195,0.5318406415713803,0.7264227588821948,0.5629834609551447,0.210316954795735,-0.773468778441193,0.0178269215930390,0.626956498540606,0.684138967521215,0.372665294945355,0.763597789513646,-0.634462570736071,-0.119898549552738,0.154414911156845,0.359737570256406,-0.920187435123106
1.5195012163373631,-2.9550612101447764,-0.17686765994766063,0.945000579331805,2.0063233837515435,0.8806245544190716,0.150435667864361,-0.560569942889678,1.29317437623021,0.141709162610886,0.571013553386298,0.808617360116189,0.694011658497252,0.525175045523382,-0.492482476266320,-0.705879827663331,0.630979154496142,-0.321867947284782
-2.8377326145889925,-1.9613505575068793,0.7423418907357267,-0.02669112008669705,-1.459632825009824,-2.7393120611554695,0.0785367595887401,0.934267330571695,1.07437098227159,0.326489053212546,0.941521671019060,-0.0833177120056256,-0.732122241236932,0.196150610396228,-0.652320444204686,-0.597831014600771,0.273974234267867,0.753349983034943
1.6739544802285389,-0.007923427047894283,-2.9744323454050923,1.195068086767109,-2.956791242939416,-2.0097529720334757,0.00265994918837036,0.151911587321446,0.177863267675331,0.0358946913096414,0.988293199972995,0.148283923683328,-0.969458737204326,-0.00158668749410823,0.245249341040886,0.242613536295852,-0.152558294792298,0.958052523975637
-1.4693928796032745,1.3836888671566685,1.6018935515237134,1.6597367349227197,-2.929785780944526,1.3842185353685919,0.950400749902657,-0.102669892770923,0.451681942010571,0.0457222588707877,-0.116855032812610,-0.992095951181193,-0.272831816580198,0.953915535536734,-0.124931785079762,0.960974648419667,0.276387504001231,0.0117334021778735
-1.3818486591260761,-1.0320670140170445,1.5360604970928664,2.644688575780087,0.6604733597780026,2.363958518710586,-0.834509983664345,-0.782498888672801,0.548639506620416,-0.919039251756673,-0.101686451882963,-0.380823737750141,0.366552707867462,-0.575735412421886,-0.730867872627079,-0.144934350950925,-0.811288235084705,0.566396886933163
1.537103027719879,2.80928621780372,-2.244904883574891,-0.23061707891397054,-1.8428807411199322,-2.890984741920984,0.0590341897707120,0.0925084177703745,0.376520748390050,-0.497951004532941,-0.863596636441384,-0.0790294034632882,-0.458343415486794,0.339449214577419,-0.821398529462205,0.736183476155594,-0.372793616160339,-0.564852909336195
2.1124811548219435,0.8789283099616769,2.5662162707416547,-2.682979673687703,-2.5402200717834376,-0.8117142272008087,-0.515507492618973,0.0526756609752369,0.0741818595804760,-0.188720417429316,0.529586598822322,0.826996153795838,-0.883450331867606,0.276186639749844,-0.378465918078110,-0.428835767128071,-0.802034272566637,0.415741398540227
-2.4129219238130046,-2.5521315348129407,-0.8030486123291092,2.6946127048734194,1.2192447738495238,0.9828869004512413,-0.0312780010503681,0.0411860118249115,1.21444553620336,0.647903262065729,0.466909270817836,-0.601844743957231,-0.161882864274711,-0.687659604402232,-0.707755753581404,-0.744322041363013,0.555985612491656,-0.369952290766627
-0.6775107110829328,-2.1645159156134297,-1.5234890083591488,0.9381968066990964,-1.1608571627930104,0.6403169258332744,0.200042534385705,0.139200131034467,0.847288568903013,0.895465569774283,-0.404132045061848,0.186597704977704,-0.362900448714771,-0.420051881542678,0.831781029559507,-0.257768651452103,-0.812547664427500,-0.522801697933337
-1.6044654140937777,-0.918426706093781,0.5016419115414479,0.30611545479783286,2.3230616497234102,0.8821351655058987,-0.750133518813643,-0.561067017175505,1.03281846544193,0.994785336291922,0.000302516422258536,-0.101990407305695,-0.0348512354211033,-0.938793261945682,-0.342713587000877,-0.0958515836498814,0.344480942592184,-0.933887227722175
-2.5521326490181937,-0.7096532277181367,1.034570826432561,-0.16794690344879548,2.124985914813279,-1.1019229730525728,-1.06191307759024,0.142570182656840,0.720979780644491,0.623178623121621,0.781006990172706,0.0409449018268614,0.770613366666941,-0.622132044804083,0.138227196825128,0.133429542450251,-0.0545875455507997,-0.989553817168251
0.43582303409358447,-1.6778327995160827,0.6059671020970869,-0.83104096748872,-2.7463908749663597,0.2659455697618003,0.310839680684442,-0.823031243656802,1.01284020242716,0.750703060814290,0.659934122966961,0.0305265102474103,0.385301215245618,-0.474895519391961,0.791212499390455,0.536645029804904,-0.582203743551404,-0.610778939535758
-2.3039057676310617,-1.0724901071956192,-0.2095892981639227,2.267462811521689,-2.3930891138314845,0.14951413243994738,-0.525199375302912,0.179305253110334,1.26524311072579,-0.0458799275108151,0.895727232652279,-0.442230434204491,0.680638319364681,0.352063276377367,0.642481850046253,0.731181585151066,-0.271521958801721,-0.625818915841037
-1.482759378096618,2.215635696566104,-1.2877146754639284,1.956241286541002,-1.0173728262983266,0.40512669517348554,-0.0666250878798997,-0.166032484832693,1.08340183287170,-0.871841770762293,0.438257195751618,0.218683691952550,-0.381887892257661,-0.328688215071967,-0.863785676553973,-0.306681535963727,-0.836597087996804,0.453929232209379
0.7574058250663236,-0.03757421458410448,1.8255790794968965,-1.9601224097435483,2.592992525008209,1.701488276188802,0.717309315112223,0.564750304350731,0.358334329814003,0.199536132881489,0.943297394289964,-0.265283541895205,-0.462361447468535,-0.148059743669510,-0.874242646065336,-0.863948623223338,0.297099879216204,0.406601079929966
0.9993909798667229,2.548539073752849,2.2955634161822847,0.3275555590705519,0.4958326794449768,2.310341088943513,-0.733443906211481,-0.332252480318811,0.0105669781848561,-0.505959168679343,-0.819193105121814,-0.270051802716051,-0.771583696277497,0.569792211330656,-0.282834643468011,0.385569603661990,0.0652647870432589,-0.920367637579752
0.3636641261320821,1.1416279423409224,1.0430584428104615,1.7849771258732048,2.5490862932406158,0.7602637462065309,0.0108333178965075,0.998790947632181,0.782946357498108,0.691422094583392,-0.409279829029758,-0.595336466774283,-0.671070678479970,-0.0586322320033485,-0.739071313104993,0.267581074828447,0.910523082035638,-0.315195313217020
-2.657952401885081,-0.5567004215515245,-0.41740369797308086,-1.2578127324166863,-0.1812610618164907,-2.6599542418231064,-0.312903882638000,0.00570445186075058,1.41465545756764,0.531794858736053,0.726154673598119,0.435767849013106,-0.727500029811112,0.655120343500180,-0.203865254903911,-0.433518090564548,-0.208606628714944,0.876667177216903
-1.5305751561961216,-2.286188945774041,-0.7125404572598111,-1.705172745883869,0.8955078244546986,-2.3310997441637267,-0.0458668529033646,0.135815094739517,1.31794179291070,0.337061540502869,0.373474667070312,0.864237346433578,-0.941158480025942,0.157747707855679,0.298891913810891,-0.0247029024426406,-0.914129276264030,0.404669535408722
1.9165199035801983,1.877008113662784,-1.673692682115376,1.5067661079066106,-1.527771234558698,-2.0060244011372426,0.115050049104479,0.213239677774467,0.797431084547537,-0.305459275357083,0.758133442796841,-0.576132201852434,-0.137388265984488,0.563629082782141,0.814522388527128,0.942241527140521,0.327957222751948,-0.0680070921061018
1.2554217384431574,1.2880930706644804,1.8821931738958764,1.1924431885535967,-3.036257909881201,-3.040300637483915,-0.717574634236660,0.500719581772715,0.320759908853190,-0.298017391850618,0.475858832680700,0.827492601486150,-0.864251675849834,0.233548336811337,-0.445560562845740,-0.405283450125106,-0.847946664438525,0.341660327404676
-2.218755106339513,-2.865463959658139,1.3971108849713278,0.6343304338765643,0.6447325689294239,2.7927218680531407,0.392692407593512,1.10501172517885,0.548014772438025,0.309599801106242,0.950741995926094,-0.0154149387752072,0.326553553200655,-0.0910855479359896,0.940779570276283,0.893034568226226,-0.296298970871767,-0.338668244471384
-0.7948528476938517,-1.678109364391595,-1.1505226009585383,2.9705844133041888,-1.4782377155633877,1.1156087531293037,0.0145880850616854,0.0331196992300277,1.20299402456140,-0.169031447118435,-0.920242021416397,-0.352963159415416,0.985607481123956,-0.156910960719926,-0.0629034463160850,0.00250260614935835,-0.358515791040526,0.933520307511865
-1.3148961685415583,-0.008616306517049477,-0.31169483468307213,-2.9206863547147286,2.9437695286486516,-0.1253639519326737,0.103273541523856,-0.426677450957591,1.23177211478527,0.554344072300497,-0.832188725449391,-0.0128286686845880,-0.826606099735940,-0.548696568976561,-0.125117668906860,0.0970824669270280,0.0799624938847458,-0.992058967091722
1.9842521341666242,-2.5958830037666933,2.5575139486417093,2.245623800029602,-2.079277581789826,-2.369070554917873,0.401457168733668,-0.364866812051949,0.0446762820897486,-0.0991400701783549,-0.147107165209676,-0.984139587878165,0.934655620013637,0.325606454879100,-0.142826147879119,0.341452952047503,-0.933991391012271,0.105213891920259
0.7159629054530141,-0.8318813462384922,0.5877924281274409,-2.2063144386480094,-2.7390780428350743,-2.5452501310336584,0.911625593540241,-0.0744118075332953,0.993899731900928,-0.957937271699550,-0.0707671919426901,-0.278115422142261,-0.169611559954284,0.921355059738559,0.349766740305635,0.231491041335720,0.382226187536519,-0.894603286011516
2.397725271079155,2.5355233043700247,0.8784606485356479,2.6208151514165667,3.0955563422778853,-0.842184425199684,0.213234702463299,-0.939274480614514,0.857507531855981,0.435996664268765,-0.887071869800249,-0.151691814398797,-0.498261420573706,-0.378302590382900,0.780142747756755,-0.749428092290636,-0.264557456743667,-0.606932357488823
2.5576892243929885,-2.179080514166442,0.4458413822045082,1.491266219275679,2.287122642863232,-0.8755176685822699,0.770568846341294,0.387446843331571,1.09034577953404,0.597642869056807,-0.634017557902722,-0.490759347681343,-0.279169921340482,-0.738355139735428,0.613918433218148,-0.751589752514161,-0.229898725306047,-0.618271315862508
2.3554691874661975,0.7225099586251615,-2.099223712373092,-0.05692867362424803,-0.4964650155850827,-1.6597233652513217,0.266149741024667,-0.0196692500434937,0.439690220343360,-0.0412659495482768,0.855107352744082,0.516806091963793,0.994627041919693,0.0843078973278086,-0.0600768335570775,-0.0949429770439088,0.511550186913437,-0.853991942221276
-2.1478163996352837,2.031880308082023,-2.666654040764746,-1.5478497149211679,-2.364273653026523,-3.1296719134195388,0.00619721479456931,0.0698708038863857,0.263839250918281,0.232173159117757,0.877758777905351,0.419088477526387,-0.744687825265621,-0.116768321839442,0.657118864373836,0.625728109554334,-0.464655449580552,0.626545805259803
-1.912340930697025,2.2105080257292364,-2.0204748095910277,2.858739095307672,-2.9482737784964295,-0.8124729551487864,-0.136016472551493,-0.0474112533746693,0.635543668692367,-0.616661167636571,-0.0721688319123541,0.783913684042770,0.342747789252233,-0.921066567568989,0.184825136465222,0.708698072024898,0.382659166631466,0.592721692618977
2.3756173688424678,0.014170117793162351,-1.1758242319729453,1.0486733567149296,1.804865554277181,0.5266166498221918,-0.0324079356150268,-0.0851238875927558,1.13286691196629,-0.468918929932405,0.160433003693811,-0.868548380043870,0.333197245906710,-0.878576232961677,-0.342174514239521,-0.817982048990827,-0.449850035234688,0.358525192041114
0.6745010197870576,1.6046398461316134,0.15620189041216204,3.1403236628638105,-2.3670898097626933,-1.0540591520860878,-0.509684522307382,0.595107512340794,1.17972998584216,-0.922562057188844,-0.0847160784743333,-0.376433841044371,-0.258780134095294,0.859499429150122,0.440787447062909,0.286202887534542,0.504067373808845,-0.814864399656989
-2.785497568383348,3.04035681174741,-2.7940720251902156,2.1656349941794257,-1.8220858007147198,2.9156662747167648,0.00554860314552431,-0.0814548441720713,0.187638979139121,0.584513116867704,-0.783831844081966,-0.209647457443837,0.229970778174868,0.407829927111741,-0.883622199663226,0.778111725522272,0.468275977127908,0.418640360989784
-1.8310328360820654,-1.4395097722343557,1.4028894605641922,-1.966394054617805,0.663174947122922,-0.16140125619895374,-1.14137337308157,0.205284400280007,0.614657275630333,0.752684353025936,0.0178120029749619,-0.658140560412401,0.563689582037653,0.499062896881473,0.658171922873111,0.340176894882861,-0.866382685368476,0.365596393146271
2.397267896965433,0.31334720173613073,0.4670557205028536,-1.3448232418550357,-2.6982646032221482,1.2241695906632621,-0.783367664860076,0.314184459371373,1.06614306897208,-0.960413598916339,0.0561232618969787,0.272866081605258,-0.119519810731648,0.801753515986988,-0.585582030500574,-0.251636113980556,-0.595013847802340,-0.763307138093322
2.586059913853977,0.49090058511284473,-0.9772895774969683,-1.6179493892152654,-2.2700050851438816,2.380315696002918,-0.0797472561589062,-0.0714486296808245,1.15513313892758,-0.798524973442203,0.00494430480209546,-0.601941376413977,0.550669444420679,0.409912631424145,-0.727141525138231,0.243148164234381,-0.912111390373433,-0.330048150700006
-0.8590361965240341,-1.1737370251957493,-2.4637572801814445,-0.7238762255861393,1.8784896889775542,1.8726537662107603,0.0136948167359818,0.169115961291145,0.373064375433313,0.909155198699469,-0.109631516342480,-0.401768285585332,0.354743252238780,0.709238100752194,0.609211409473324,0.218160605217306,-0.696392308304644,0.683698547069795
-0.40991227823810306,-3.0400172093157893,0.8928308288700579,-1.7796392043953817,-2.6702274545655285,2.661513988028468,-0.949771317478985,0.255874758632212,0.846158119768429,0.390465019775628,0.791538402127103,0.470110653239948,0.787459413179185,-0.0226270867448257,-0.615951043136494,-0.476911669942256,0.610700395368723,-0.632139451521082
0.45360313502936966,-1.0371643304279305,-1.0055730194993804,2.3008618157763934,3.132501780840192,0.975164990348107,0.0748312474368987,-0.0485971290151712,1.12225436793463,-0.639392181086814,-0.305212056042601,0.705707616234440,-0.740308028055914,0.492266222839660,-0.457840572085019,-0.207657560327119,-0.815180695734033,-0.540702109244607
-0.3717148530793435,0.9600614211254932,1.5615957791366597,-1.9477507270728898,2.8784308706800363,0.3906586544414101,0.816311089296788,0.515537148684789,0.484491267794227,-0.577783248164575,0.466571951867778,-0.669684352415887,0.443956782629254,-0.508846837512993,-0.737548148333726,-0.684886044023292,-0.723453875297740,0.0868653959802588
1.350776941646604,-0.04405261539699401,2.035430377527451,-1.894647629106165,-0.8210464794957906,-2.416862723924411,0.182050661489595,0.939113710789794,0.157546630225713,-0.743887172831014,0.396482271610780,-0.537990411063094,-0.0899259550539832,0.738302502501349,0.668448006510509,0.662227450884596,0.545629199272364,-0.513559714343219
1.8638171649449262,0.7998082760158192,1.3231773679164123,-2.362707330024866,-0.6595437156421955,1.9714626349908357,-1.06499208954338,0.503219498614199,0.607600611837347,0.219062842577287,0.0698190741373005,-0.973209519008404,0.380704637803067,-0.924493800415957,0.0193698670025209,-0.898373780648787,-0.374748595566508,-0.229102685195385
-1.5580753460840537,-1.2248316804045365,1.6184557248729599,2.5686796749877336,-1.2185027973145672,-1.5638687689134225,-1.02956369722953,-0.331649502852986,0.359787143163041,0.313449299086590,-0.827318088878477,-0.466148384869657,-0.781288591161367,-0.503701298380414,0.368609738518900,-0.539757051110231,0.248655950711720,-0.804259003028526
2.7381985952063586,2.96619091691288,-0.9161014129943412,1.703051090335018,1.3403073163156476,0.8740960249141176,0.0746447615200583,0.0665056999709807,1.21599184989269,0.0416105793749684,-0.949577995400042,0.310757446147502,0.0255822536800266,0.311937427500184,0.949758174285022,-0.998806341580154,-0.0315701120778094,0.0372722422543149
-0.008228201881719244,-2.3677637341292614,-1.6625186752806986,-1.410226290425868,-0.8376618399877391,-0.5638876186581645,0.253581892186595,0.141993521316032,0.793495225690874,-0.0240944921947033,0.192977419338401,0.980907320327140,0.869775500443669,0.487776406110904,-0.0745972953229200,-0.492859040978091,0.851371771476493,-0.179599756289185
-1.0484008653066552,1.1451627979833932,-0.8099888714706371,2.366426465435075,1.7238151064643858,3.0446482932401864,0.0669403765950254,0.0759883886880622,1.18760425172484,-0.833556939842454,0.332151175709605,-0.441427711539738,-0.0437050326010249,0.756905785207759,0.652060965281905,0.550702004868174,0.562822555334942,-0.616407392103972
-2.2333427861154247,-2.594889817515778,2.89190342832135,0.4918565005098152,-1.572039115181217,3.096743071182998,0.102073522709474,0.468601055648096,0.0320176739127231,-0.0661209522665112,0.820516724714869,0.567785456078749,-0.221237745033636,-0.566922964561968,0.793506277495460,0.972975785846596,-0.0731481832683024,0.219014756216893
-1.395232390427005,1.3838511349260898,-2.2641401207766676,2.734624518264706,-0.21429923774023285,0.3422662908199947,-0.270075654838412,-0.00534437637709977,0.373752735032029,0.471662369107674,0.0893946444483733,-0.877236118221135,0.0507629045867357,-0.995950648133358,-0.0741986118513123,-0.880316839033342,-0.00953436031900717,-0.474290374019601
1.9517571366010937,-0.5615562376322103,1.2709482408366428,0.5976756623959627,0.00428010078425034,-2.598101236871293,0.212895906537498,1.16735242238024,0.694209234213094,0.872861048374830,0.457614622923379,0.169417965743561,-0.280879072362057,0.187266630325542,0.941295998013137,0.399024481628662,-0.869206572716297,0.291992118057606
-3.050151318043713,-0.5542034731529908,-0.9302495800055497,2.855072135144275,1.230734878466981,-2.0783025159610347,0.0206546508239363,-0.0400793124060279,1.15429283659939,-0.240329965081363,-0.759919135330133,0.603957296208179,-0.765770865021193,-0.233930513671421,-0.599058842734267,0.596520318320076,-0.606464691909206,-0.525703421425795
-1.5805660065402491,-1.1551690788445559,2.2917620039513773,0.706934926797274,1.6824727631254737,0.5084276455186325,-0.629562158496673,-0.340785446647070,0.0544935255495047,0.483616536969453,-0.376811656258584,0.790017734533432,-0.126236458115055,-0.923179386075803,-0.363048450991421,0.866128975275761,0.0758471939650147,-0.494032186558117
0.2696017565416371,-0.5147166349836771,-3.0115663337806153,0.2319277833271025,0.6016213033809183,-3.1101123483313633,0.0853206598059574,-0.00793239820691310,-0.00335374725621707,0.639899049898028,-0.477649243765872,-0.601980403227124,-0.386881569886799,-0.877084957349360,0.284683382854350,-0.663966758822704,0.0507264972313430,-0.746039520171091
-1.2525095765243206,0.8873435908513185,-0.7557782015805885,2.959625551788272,0.046115856396538035,1.9281257065786628,0.0672206208500877,-0.0248061432126889,1.33523287601326,-0.243588721158906,0.703362409522155,-0.667791775776969,-0.960971662646097,-0.0819308079859228,0.264236269830564,0.131141139675410,0.706093948121610,0.695868764862076
1.2528652436261218,-1.6905705897426933,-1.1817837153261244,2.314234530604147,1.187167473692445,-2.642299028175249,-0.0938010500741461,0.119266060127736,1.05012258557198,-0.449956674097788,0.860216198187127,-0.239931414807111,0.301296342691473,0.399137457167573,0.865973327629983,0.840689898426048,0.317360020579608,-0.438774557172714
-1.6972531215350277,3.066199012082686,0.2929569209893552,-1.365763106444145,2.1623320293767616,-0.42823323790418755,0.240705526775563,0.770883575512447,1.15713303865421,-0.545322232220603,-0.261622720991377,0.796352443900944,-0.609237348561266,0.776226518192599,-0.162179670651511,-0.575719998058064,-0.573607831462980,-0.582683910469785
1.6772872993718781,-2.540743762913122,2.828992230941598,-1.5994832251171658,-1.4389408434372557,1.445656145633781,0.357842577372407,-0.266079961485590,-0.00435982430775454,-0.622316369487429,-0.179624164226716,0.761877612148985,0.658891125506400,0.405259031534644,0.633740958190736,-0.422592973198674,0.896381769663717,-0.133846561471144
0.4124221065920062,0.3199340579115959,-1.1978370757938155,-2.8672490135373696,-2.2995954089221646,1.4690452801262106,-0.0102638554039131,0.0179490491700436,1.12841043353846,0.666233088823352,0.533946250220036,0.520610097129183,-0.664117953961454,0.107238555725780,0.739896773470395,0.339235632832029,-0.838690225316720,0.426049165443663
-2.540921988114779,-2.97823127121718,3.0769919337344183,-0.09320869347487548,-2.730878895276544,2.590566626798876,0.217538616162565,0.213582391333712,0.122461614345780,-0.921716624713306,0.320807139230262,0.217993676848680,-0.261882651900891,-0.929323301368441,0.260337623418166,0.286104771649247,0.182868753352118,0.940586560975105
-1.3839038918537168,0.8263714490337355,-2.8747677090531276,-2.480036919936557,-1.8127366000690477,-0.5474285191486494,0.0344325572383690,0.0488203690467277,0.158337349735296,0.227919915411550,-0.938914755566166,-0.257859639996101,0.489977929389443,-0.118255268493622,0.863676629407521,-0.841411992349780,-0.323194636795891,0.433094777013468
-1.0397279874620131,1.8422672413060068,-2.405712779690617,3.1024626659881376,0.3054312118257876,1.2022352985036386,-0.127921937378289,-0.130691423674284,0.246404037569634,0.906823723776513,-0.297566696011211,-0.298537762135830,-0.383623424940880,-0.876102532390258,-0.292022979534156,-0.174653376241993,0.379339444514209,-0.908624115904329
1.0273215597238865,-0.4916324965715817,-2.262738498148712,-1.4506517338858174,-2.991211504507216,-0.6485806262240157,-0.0982568966276562,-0.0410273599407134,0.483740983404748,-0.0605513796466101,-0.806151519337023,0.588602801805684,0.789565202496684,0.322082661379454,0.522350026557958,-0.610672024436410,0.496369305164348,0.617006638101568
0.19848854102187685,1.4857005802299401,-2.46884907386673,-1.7280773759685026,1.4903448053205297,3.0021166892369813,0.110463526342452,-0.0999372529800515,0.285880138495003,0.0263902313947950,-0.241709800908200,0.969989653466390,-0.733954675361445,0.654091776636904,0.182960329719462,-0.678685560625836,-0.716756806651249,-0.160142405118377
-0.40785822756441714,0.880942598551103,2.1395991724152887,-0.2870815300044609,-1.4917333866848517,-2.712088476824296,0.798286403455872,0.440314433667854,0.238457694420186,-0.417495453977671,0.821189857790808,0.389030542977657,-0.639509628822091,-0.569684541582340,0.516223747735369,0.645542392528801,-0.0332677102252649,0.762999527460246
0.09768817049754919,2.8137811274363473,0.798217462036007,0.44029987926234027,0.3801607541479397,0.12589244533433197,-1.08500462778975,0.237944213188427,1.00728430267276,-0.388786291164656,0.133173557242932,-0.911652358881221,-0.428858171679290,-0.901923152642569,0.0511399580678865,-0.815429879503032,0.410852078464442,0.407767925706669
-1.961635674055254,1.1060299370958049,1.4041499143187224,-2.6780564961228355,-2.743663954588462,-2.8913249755882426,0.668374870736174,-0.743068721316449,0.527799440236730,-0.475972026203445,0.768489076755574,-0.427639064140721,0.276830805354210,0.592452395679353,0.756547991908468,0.834754655859269,0.241712014101825,-0.494732217224745
2.489187648692009,1.6319031240413713,2.4216315566171103,2.038276725159206,-3.14071728754076,-0.6385209047900222,-0.350729009711311,-0.522215237305080,0.139632244841620,0.00224482689929900,-0.930191784098672,0.367067031409144,0.807447573880169,0.218232858347125,0.548090170476240,-0.589935060991650,0.295157016404783,0.751570994304467
1.8473599667787637,2.0319480310617877,-3.0092945248363874,-2.299432789747122,-2.654141350342182,2.6824874300753203,-0.0722407917836669,-0.112882409731424,0.163582659571233,-0.781237482898925,-0.497108342272356,0.377559652713292,0.487208529995258,-0.863697250805518,-0.129053892815560,0.390251000784894,0.0831285450024272,0.916948090892919
1.0228683098753377,-1.5688967048165543,-1.7191179613963952,1.9464067858743288,1.254390082465127,2.743692923345489,-0.166250377833065,0.204475874273960,0.735625266687639,-0.920654972323954,-0.307768780214409,0.240151618484063,0.0808593497940980,0.451494186487167,0.888602703754139,-0.381911229850676,0.837515001354379,-0.390784384309709
2.053252795765763,-1.1908634491187569,-2.1110139059633166,-1.7924701367555904,-1.6510490746931783,0.820897867024529,-0.215384846149389,-0.101938922398251,0.540413948202041,-0.540268616257471,0.346066535476660,-0.767038314108506,-0.795949013472507,0.0856482346178489,0.599274184208688,0.273084218217347,0.934292423671533,0.229178264306615
-0.8337028835997211,-2.2586120642946517,-0.6308722645748075,-1.6267273473375732,1.3409068653720606,1.257960012219626,-0.206604697463378,0.0871458004452545,1.31189343336527,-0.945635462551900,0.298003448653736,0.130259420214948,0.0767211209465516,-0.184812166669343,0.979774633602895,0.316049745396130,0.936503287576431,0.151901780086930
-0.38835485298156946,-1.6568936819498894,2.717607508090838,2.930821133616857,3.123871421405835,0.9656059232578675,-0.213172503912792,-0.415883452532890,0.105347306261783,-0.659358193202345,-0.728965637113958,0.183999654793101,0.736944050935158,-0.578191704219092,0.350153993213701,-0.148863154770475,0.366474355281871,0.918442327025774
-2.8333118970615483,-0.5393512076029814,1.1121659776778952,-0.12066177322367055,-0.6776560193034462,-1.2666176876788087,-1.09754637642907,0.250469961993618,0.859880813233415,0.00911553745726135,-0.903246358571774,-0.429025550175855,0.999725423487624,-0.00103000615006277,0.0234097569364153,-0.0215866766630826,-0.429121142352787,0.902988959277179
2.23775623507603,2.6234958287476067,-2.455483109307258,0.055150249511070726,2.675504267383536,-0.6831831636716776,-0.0126768347025050,0.101229925487948,0.406810918708636,-0.552962290723045,0.831258018629611,0.0569456890580513,-0.820215934483396,-0.531046871915763,-0.212685308961414,-0.146555538475525,-0.164314717211992,0.975459967322951
2.305254680113735,1.6596165886816294,1.8332622573501647,-2.4540064297093114,-2.1280583339605794,1.752848135849348,-0.584870298404222,-0.710182486400093,0.263769653712433,-0.404013345335736,0.317346316666172,0.857942033058785,0.771504632830135,0.622126374406282,0.133189248026012,-0.491481249197024,0.715716486862297,-0.496181511265005
-1.424364602555567,-0.4365539563240963,-0.19116344258985762,-0.15820599994068463,0.5217765406697592,2.574592809592626,-0.161574696024983,-0.513756003649991,1.42099015902624,0.820530529602543,-0.546858445337046,-0.166359522582026,0.491606687501388,0.823639748340715,-0.282737386557131,0.291637642964834,0.150211203699300,0.944660827752016
-2.1548173209493386,-0.99621558691359,-1.141565184294079,-1.3131712668954667,2.43833281121314,1.0753570499409735,-0.0160051126932416,0.0626903590814142,1.09728484646712,-0.600563643563963,0.259828842889476,-0.756182704398807,-0.569157646638261,0.525322388471281,0.632531391666868,0.561589603983526,0.810262525712219,-0.167605954918320
-0.5642153835756689,-1.805447509504627,-1.8810652861144201,-2.8095344303514835,-1.3062016088168915,1.2116601002996479,0.225268103280081,0.175370314333608,0.747007842725726,-0.359010266061794,-0.716972235253450,0.597547021361425,0.927487388824078,-0.345605054192691,0.142563284504672,0.104301353943908,0.605399009242779,0.789058468792604
2.404226767378514,-3.075707995191525,1.9447069698069246,1.4908489417181423,0.4641280249404831,-2.638170297515011,0.830513274560317,-0.602987411085910,0.217715985558600,-0.343579951420388,-0.192915814808988,0.919095373385454,-0.773459326165433,0.613207860166054,-0.160426902352079,-0.532647620617682,-0.766002355497131,-0.359898462935268
1.6191333984786338,-0.367149009152127,0.8066976111332895,1.4785109959260234,-1.6257333221309525,3.0369193593278467,0.411899292642568,0.930704834338138,0.964331738620604,-0.306976756213430,0.272871590899167,0.911760037523491,-0.725828857246780,0.552528670917158,-0.409737156970601,-0.615579191601303,-0.787561529465905,0.0284446158843862
2.4214649331832314,2.505974974243993,0.39881679877284304,2.7691186779760173,-0.2613703609619451,0.6847501545354819,0.186848915056666,-0.899490939857757,1.25256846434319,-0.475236327753162,-0.879141252201465,0.0355118495903638,0.691153776185450,-0.397983878082546,-0.603253918719946,0.544478549116751,-0.262144028091462,0.796758192984359
-2.239961983245268,0.7526259058791918,1.1028340934091023,-0.4356335788964367,-1.1055934903174451,1.1480886957408671,0.128113047004881,-1.07904718294695,0.868225159881860,0.794561870063509,0.474583903051909,0.378736786707069,-0.511610476690237,0.859211047923052,-0.00333095598273859,-0.326995649484773,-0.191119057372588,0.925498433886868
-2.1661231105013083,-0.7228270392080085,0.12490430391502771,2.8044807258203246,0.4247035434851507,-0.8875248725464742,-0.654712018855309,-0.183095500108173,1.36542673249274,0.536985776016928,0.789301872477968,0.297739534590673,-0.813736160127702,0.577711721919058,-0.0638954463004981,-0.222440414619555,-0.207970479780403,0.952506452200608
-1.3844033255395451,-1.3616589782854462,2.3038868968845696,-2.7060592457778254,-1.2298401254652425,-1.4735810341260007,-0.660161086309626,-0.318727502231235,0.0139296725165656,0.00221285429722348,-0.892255921787659,0.451524609861650,-0.962099899793401,-0.125025672725371,-0.242347609802732,0.272688258077586,-0.433875501952374,-0.858715996539128
-1.2823593280110155,0.6645038319491618,-1.1453742801994202,-2.94116678039027,1.3237577316710967,-0.08282399721145595,-0.111274798327497,0.0553977359668123,1.03571612783452,0.650437579656293,-0.448445336319628,-0.613047906206391,-0.422309743376377,-0.884371106158267,0.198852274922317,-0.631336230245218,0.129555111537827,-0.764611036707017
-1.3186265585229002,1.4613460609290065,-2.0665231535333355,0.7970814749642492,2.8382278638019702,1.2944937564409704,-0.146843321046609,0.000487587559180346,0.610009357150512,0.411500757698796,-0.580971182257246,0.702238999059390,0.550187559562580,0.772615897990808,0.316793818554637,-0.726609094159912,0.256002264752627,0.637575144375655
0.9946471732592395,1.807973686042069,1.5496916288563432,-2.7713615960643767,0.9837177187130841,-0.20398070997838946,-1.04419877490720,0.400106345136593,0.562106313682951,0.782731373254733,0.471110437129689,-0.406677456161799,-0.268097172148048,0.844944593644381,0.462809399167034,0.561654256290272,-0.253226360591871,0.787668018071330
0.8383279725617121,0.18558161231859271,-0.41062452176972464,0.6489024015038809,-1.3529570321068294,0.055764827127243954,0.197013398562907,0.210132827217330,1.31622797271592,-0.285763402855561,-0.954232968296123,0.0881970510004814,-0.133214147965700,-0.0515856851295498,-0.989743859729116,0.948995926424441,-0.294581668313705,-0.112376030911094
-2.2766816897699442,1.4495705141911497,-1.787980643522534,-1.3784188916435476,-2.726456140451947,3.000368734799708,-0.0638024479346393,0.127834727954162,0.741736491993127,-0.416100549381111,-0.0566557811871852,0.907551902241854,-0.821392043496454,-0.404746836259253,-0.401864541131517,0.390096710682693,-0.912671967903143,0.121878773042512
0.7420546056045376,0.41722261084374956,0.38732753349614546,-2.2511400898418135,0.6788878210974874,-0.21094988604183085,0.383125860943568,0.755815891718967,1.26476946018351,0.0911127104821890,0.903560432984538,0.418660982100533,-0.940892485623254,0.215827248278479,-0.261036260696161,-0.326220484467612,-0.370131250835880,0.869817827288211
0.3588030267627884,-1.5887963288412117,3.084286869268297,-3.0944036606756495,2.9094046762135015,-0.8336152042944152,0.0938303664190171,-0.267826196721177,0.128052514413804,0.516735798644868,-0.854807250972755,0.0478401304685967,0.847834352924115,0.503153488339414,-0.167372271220851,0.119000102523475,0.127047750299960,0.984732372141346
0.08654596633513867,-2.9825380391213248,0.31734382628328106,0.01461408973088174,-2.1820698175032405,2.533051170684641,-0.699556223684383,-0.174117631505068,1.17715948441983,-0.0821743842391050,-0.369973624067534,0.925400933687263,-0.616986268846690,0.748094755955140,0.244299365875270,-0.782671907397706,-0.550884519302144,-0.289742871808233
1.3572463740422132,0.07688717466511319,-2.927631372391895,0.33839820928381625,2.879177637993574,-0.07543409992747252,0.00473591306675203,0.0976504617150655,0.196402344574701,0.512234132391142,-0.854121803283190,-0.0899563158970298,0.856366970379153,0.515898496220830,-0.0220080358214208,0.0652058713393566,-0.0657623505765907,0.995702519625976
2.1226167491690298,-3.0757107527749,-1.6409108521074076,1.7301462743684688,2.7899415176167635,-1.268961713368145,-0.0408667022149100,0.116242530154226,0.826497471010006,-0.0820089333218040,-0.563778870793196,0.821844218634267,-0.0987413474236438,-0.815968499995910,-0.569601223070481,0.991728128654413,-0.127862394243084,0.0112484209577565
-2.866589431554444,1.5706190592398235,3.0093628354463435,-0.46911766383003206,1.7191821153265172,0.003270016535974918,0.0181371487727503,-0.229087517005694,0.0221549303355930,0.0668278000669377,0.736660142804429,-0.672953103226050,0.0200298520055273,0.673334447980257,0.739066658828390,0.997563456711828,-0.0628693499766014,0.0302422662290631
2.7361947804604556,-2.0608728900214768,-2.998379786124249,-1.5703026159917055,1.5300354484808336,-0.682207496405244,0.172905320602014,0.0104734523389284,0.0709681546782778,0.593424923301808,-0.513622295702325,0.619708800778008,0.434382873767239,-0.443814766050389,-0.783798425880885,0.677612263305468,0.734316410543242,-0.0402620146655591
-1.8320908415070274,-2.2120654666520587,-1.5899861620429743,0.16051680122969758,-2.928037026611109,-0.7472467253147177,0.0680946690403822,-0.0807963307495184,0.838832288765977,0.705714231062842,-0.405022218915374,-0.581312675124368,0.373689653637989,-0.484293683346892,0.791085122495816,-0.601933108276411,-0.775510561149987,-0.190420331649567
0.01774878197530061,0.3348872820761435,-0.7551897852915239,1.4608370009611287,-0.6804331488897093,-0.39535414755415754,0.101839833970931,-0.0291542969041724,1.31768081586035,-0.289747651325848,-0.897970413582802,-0.331203011582152,0.608090851775423,0.0945113925045986,-0.788221487066854,0.739102032562619,-0.429786846025764,0.518663139662952
1.8835143820383493,-2.644921578325553,1.9705260529765747,-0.8069856142536413,1.6820954586837313,-0.32736087638828426,0.598715318356694,-0.669808903307708,0.181591661783275,-0.642614579706416,0.0709030512992785,-0.762901867388722,0.410179851802747,0.872841705734440,-0.264385789908744,0.647146808014861,-0.482825138168101,-0.589983808955069
1.9177137825253547,2.3950522793515567,1.2607367212634824,0.5933020526487685,-1.03086218884666,3.120995886839446,-0.479252678071070,-1.01147284760503,0.755169224286432,0.120705887873022,-0.827833915130534,-0.547833092823386,0.980493168642456,0.185661968540099,-0.0645196069678959,0.155123289283917,-0.529358708625320,0.834095991312913
2.231162449483424,-1.2782196237389067,-0.09903108951900119,3.057851908904029,2.2708967678250067,1.8608917121608295,0.282845540061961,0.409039064467531,1.24503855071987,0.601167440960495,-0.657252736009292,-0.454550931070776,-0.775812301690736,-0.343633098300332,-0.529180088720123,0.191606316373790,0.670772043812810,-0.716485788250440
0.31708467204125057,-2.069914896791751,0.030913169572839294,0.12283429182964456,-2.702444645321687,0.5506880503155767,-0.114538506600333,-0.593473468182602,1.20435339370888,0.565892373129963,0.823926457453191,0.0301830207562884,0.727592449250320,-0.516276484813209,0.451738662306910,0.387782219586276,-0.233674525649571,-0.891639594362649
