iKASRA-H/PUMA560-Inverse-Kinematics/puma560_forward_kinematics_data_1000.csv
q1,q2,q3,q4,q5,q6,X,Y,Z,R11,R12,R13,R21,R22,R23,R31,R32,R33
0.7076183700958927,-2.525953815648756,-1.6233947896633305,-0.1307991292609758,1.2204420192938423,2.5960910344009847,0.0490874527059880,0.244232276372504,0.927791161056261,0.729423937421896,-0.683682132498845,-0.0227916918584451,0.630586640159236,0.659115049549669,0.409789995863519,-0.265143751140064,-0.313282768691432,0.911895113525896
1.0698988071216533,-0.6888543084763641,-1.2988967660814608,-2.120535665419362,-1.1367157250500353,-2.7421573886973376,-0.168869389738259,0.0156821456809457,1.08880104997269,0.516758129750477,-0.659770485826099,-0.545585869840470,0.781817062461626,0.103969381469148,0.614778373530491,-0.348888400753971,-0.744240064595904,0.569546846246752
0.7541620831193105,0.41063148165850194,-2.8481721700289375,2.9282688930921195,-2.7450075710260013,2.7174937097091183,0.0260254225211389,0.0398339181178008,0.223986813669964,0.589739003410257,-0.806710294023158,0.0377678351742170,0.804180505971090,0.582308699919454,-0.119206928549465,0.0741729173806661,0.100673132042194,0.992150844787251
0.0323230513450814,-2.077759732064365,1.867015418163108,-2.351804798039482,-1.474182691394415,-1.063477497096991,-0.377212124452141,-0.888811140560251,0.224974478550804,0.219113865571688,-0.699644029414506,0.680064221981179,-0.847124262827163,-0.482249713286847,-0.223194304058793,0.484117338301127,-0.527193935985030,-0.698353031508308
-2.7498079512599793,-2.6102766708018628,0.3258447998602114,-1.8144599232341772,-0.692406689704494,-2.2252541330246416,0.469701509690882,0.723508632026573,1.27081869900915,-0.965802891713181,0.0314267905422368,-0.257365753733226,-0.205667066691217,-0.697289297438397,0.686650342864909,-0.157879169104374,0.716100546371863,0.679907475652997
1.3553551096545293,1.7252466264213533,0.2186799734676561,2.4470295026018203,1.960133737667717,2.3402511484496413,-0.686622020400629,-0.0173954976209338,1.21997539228948,0.529620951467230,-0.416900538477122,0.738712114957127,0.351228239981853,-0.684931894537994,-0.638362767776948,0.772101270045709,0.597546852440945,-0.216327039298658
-2.0105230127995917,-2.3379973309111675,1.2845638253743177,2.239440584444112,0.29468376388373807,2.935741184786334,-0.440377906275873,1.09234053519390,0.700300610509434,0.665984236972630,-0.533311519664368,-0.521578200366222,0.672448953797928,0.126531505446120,0.729247682660432,-0.322920114951138,-0.836402176660739,0.442892761554219
-0.9020593916764619,0.0845380870260719,3.0515993820316307,-2.1529676342852726,0.6500798082566646,-1.2102223212179433,0.187298287629712,-0.273642371347313,-0.0517155487427532,0.828692155029209,-0.551904130780420,-0.0931189702507206,-0.474534584944679,-0.604576938582215,-0.639768437034790,0.296793261184325,0.574359256704430,-0.762905763743798
-2.6968531715789776,-1.6091367137871175,-2.084080546447815,2.9747136865663384,0.5070327976076725,-3.1327617729039434,0.0991908542325927,-0.250889319464337,0.450231799669496,0.460198356580192,-0.877645012960449,0.134002626192715,-0.724053458908030,-0.458357810312567,-0.515417021807377,0.513774329101998,0.140169001391617,-0.846397418358934
-2.9591939823893125,-2.370029960068744,0.5828630365336211,2.9956804819732517,-1.1597111886370755,1.8444541704147666,0.613308420030565,0.841819346314858,1.06934025700580,0.694940754181026,-0.250674578434313,0.673958161835797,-0.693894021676532,0.0120425395796202,0.719976432893495,-0.188595956637133,-0.967996504625535,-0.165572739824139
1.1336691642286274,3.0559915490552294,1.9989533220134765,-2.9603075248629884,-2.356356060636854,0.7522702810522004,-0.401772702233320,-0.722823610529677,0.192580761573904,-0.605314292534937,-0.549592616237745,0.575797328432392,0.109208056881079,0.659194185431876,0.744000420836618,-0.788459388659421,0.513235795779830,-0.338999720302328
2.1864266026862476,0.5920507599731049,1.688544586647791,-1.5331433154351053,-0.6356997780207165,2.688430279943991,-1.06085889603311,0.339617272134961,0.390141555735116,0.277975131051276,0.0281767937889728,-0.960174929275286,-0.896605051980226,-0.351094285515245,-0.269874384560812,-0.344716125646253,0.935916059788651,-0.0723320243676562
-2.496119162674781,-1.8877887877227244,2.3310570380719096,0.09033646104235604,-2.7766689208887785,2.9936760958182917,-0.224554167231570,0.668827603677027,0.181058435258542,0.0663047307095692,0.983237917507154,0.169843693617768,-0.907886748903632,0.130064858067948,-0.398528272348348,-0.413938804475644,-0.127774529042213,0.901292591713321
-1.9811263954183547,2.9751081827108745,-2.323656497486143,-0.868983412598257,-2.9404994314897155,-0.3891858582116914,-0.0597733725079726,-0.0639006293667240,0.442783053121129,-0.122240177084304,-0.942788172865018,0.310173822577341,0.632428830357826,0.166863953536675,0.756432545269135,-0.764912487568761,0.288629316106233,0.575848942210905
-0.13814762275817527,-0.8065413304169584,1.9392083296680935,-3.1411900147007525,1.1790422296462415,1.646547602307658,0.594522992608402,-0.822170791708530,0.329007367880262,-0.775926616049696,0.484919625439195,0.403473472944106,-0.628633033129166,-0.541140099251124,-0.558558772772668,-0.0525204356845296,-0.687037371506379,0.724721500984422
-0.9844489365689042,2.1013422497949295,-1.582328187801575,0.17777453293522827,1.7938886709326187,-2.165975751021822,-0.0949725335275397,-0.155333559837765,0.958955360504511,0.471673778122720,0.879530900760011,-0.0628429919698453,-0.841888631637526,0.470385773560001,0.264500956428994,0.262197213850439,-0.0718513649184357,0.962335701513991
-0.044726718911501706,-1.3592299243435724,2.362826690506333,2.744586169518594,1.86047065293784,2.3084795138622907,0.164910170666858,-0.756113519857012,0.163507304577727,-0.469794224438747,0.767277000872360,0.436553995075422,-0.872646020969439,-0.328940785113817,-0.360952742024371,-0.133350323472432,-0.550530620239258,0.824095702821448
0.02556542223234226,0.5495783338330722,-0.11829190315329319,-2.590069446175579,-0.135150958950363,-1.8999078809094627,0.460990267274286,0.307250614603262,1.41895060788720,-0.711296388925718,-0.701700950498052,-0.0409050506828219,0.699440572917029,-0.712364109215765,0.0576217047537467,-0.0695724949871163,0.0123754584302909,0.997500133318241
-1.0426049530738628,-1.1767178726174707,2.598714752788828,0.1724622390541719,-0.03606890813312624,2.6035707492882123,-0.386386528371436,-0.508799615974514,-0.0564740884349683,-0.188078679428009,-0.923206348219559,-0.335136463178393,-0.840150897097457,0.327964228337376,-0.431955941083587,0.508697238493541,0.200323497219312,-0.837315720628050
-1.8104493240047546,-1.646809875215698,2.696446487091083,1.408425361312509,-1.326042013058046,3.039953389416773,-0.488681988563282,0.260317331683328,0.000160003404264355,0.344487289197680,0.936641612235775,0.0634901394675037,0.120501933467771,-0.111186923474541,0.986466802319670,0.931025129420126,-0.332174590052634,-0.151169607102756
0.5104331936744173,-0.29868262949261926,-0.47784098148591436,0.6074419211796727,0.6054184007666041,-2.217111311448393,0.307557718321919,0.0993415761579106,1.41591179172021,0.0856428695720778,0.995803355539793,-0.0322641594830737,-0.941170541547697,0.0914844272040334,0.325313097341568,0.326899542083306,0.00250532928755318,0.945055772275312
2.442001556131258,0.5295721206580297,-2.5825352868216793,-3.1143312474663802,-1.1202430664181091,-0.7841667489712485,0.170167951560816,-0.0317034965864953,0.252802921559142,-0.0584559257405194,0.212760435337393,0.975354244313758,-0.697738992205010,0.690046969256753,-0.192342088416204,-0.713963026705554,-0.691786222307595,0.108113917341069
2.0389111078647346,0.3481475988529814,0.2071591972507778,-2.1695534534617873,2.775561121942583,-1.878701871347441,-0.501679881813792,0.512208093030873,1.15816397980039,0.450962675975443,-0.748449666558310,0.486267170911035,-0.840304980301779,-0.539675692948216,-0.0513584123673126,0.300865759030661,-0.385451998398785,-0.872299576964982
2.8257125077442495,-3.1123522275909634,0.3025431151618636,0.4718511190426904,2.9763338059644706,-2.897811731111668,0.762972897874070,-0.217096018887803,1.11327327767501,0.988991085532861,-0.0766295301345236,-0.126588103105683,-0.0620617166285617,-0.991393784195117,0.115267983362254,-0.134331589976628,-0.106142733009127,-0.985235375006249
-2.0375344264151316,-1.9152442711804136,0.30496027157656913,1.1005549234421768,-1.1318956210975788,0.5855538218417697,-0.481082423397648,0.623739933390650,1.26372891741478,-0.348271244140189,0.539350023480028,0.766686828292451,-0.455376521019739,-0.812244609175459,0.364542067489288,0.819353015866180,-0.222171661193543,0.528488777887948
-1.1145275128671317,2.4003895571491425,-1.6938949015008304,-2.133288337570763,-2.0638203004101543,1.9582576072102489,-0.121713761718487,-0.150440339508922,0.843564501096988,0.688141787426289,0.408995369026940,-0.599319337675892,0.0546319306976479,0.794439828420071,0.604880741277267,0.723516573788051,-0.448985687003947,0.524343036875283
2.798906045313217,2.5720335834549672,2.482928507569963,1.4385776999368716,-1.9930005226011416,-2.6326729648785037,0.321289972659280,-0.562974900035482,0.0891428280518436,-0.325205311931119,-0.487297348228731,-0.810421371572240,0.894949630432020,0.118232340461860,-0.430216541590978,0.305461395402716,-0.865195011588808,0.397656796547560
0.06516024607565507,-0.40241749223780454,3.0717778352437675,-2.5414703582176026,-0.5112987085238174,-1.4344767245799992,0.235846161176069,-0.0534172617274490,-0.0622323407974394,0.871549570540896,0.432328746269268,-0.231285972854435,0.489879437478950,-0.787523096658685,0.373932492522947,-0.0204812798742532,-0.439202945548364,-0.898154379712282
0.7567664103133582,-1.0135010568374017,-1.8055377447732783,-2.870765499489343,-0.17550169621431966,1.668041803598853,-0.316950215838577,0.0880377398221379,0.711442777146916,-0.301694809849107,0.0472131595156231,-0.952234823601124,-0.885848471079164,0.355387288476823,0.298282351934872,0.352495004215406,0.933526000043729,-0.0653947952480734
-0.9625743197616679,2.6905034459326096,-0.6385208430206286,-2.980878787676128,-1.518142892149051,-1.6463486065714934,-0.0613407983676198,0.285039481856769,1.35805520126018,-0.960271107391412,0.0356042180472523,-0.276788258361000,-0.233197956313772,-0.647181434260868,0.725792604205310,-0.153290943895430,0.761504123958163,0.629772463445615
-2.5066219225934336,1.8884132061752723,0.9546014585679794,-2.3437870519839215,0.8073872861228395,-2.121242186909691,0.855830324464181,-0.672136628210365,0.952010450720847,0.577886456294889,-0.812425220480616,-0.0775403427768881,0.636973426674407,0.508393442313566,-0.579483357416956,0.510207896196834,0.285484446055447,0.811286961388395
0.9615804185855987,-2.7675510868382034,-1.37296920698138,2.4599411881513635,-2.306920684435444,2.845993538606497,-0.0288032736286498,0.0801803856545531,1.03314752608894,0.0428494350606538,0.772281267009473,-0.633834024442697,-0.587151622071213,-0.493831503760434,-0.641391782448802,-0.808342067824090,0.399639951105932,0.432285797668536
-2.7204582793158147,-0.006100798447979727,-0.7070839202593175,1.8733302066235966,0.05191676079653318,-2.153098836422895,-0.0956821985070238,-0.0475735706968399,1.35380648846699,-0.762604132019855,0.169001494245680,0.624398456731734,-0.0350471996838009,-0.974644881644328,0.220995584749643,0.645915344004589,0.146648728692887,0.749191243109657
2.895995941323549,-2.0858174020519504,0.23410026496083658,2.125943542373153,-2.6311212475470196,-0.9411135041917844,0.564680439634884,0.533152596944275,1.14557705495188,0.695906834546195,0.635763476916007,0.333943826191719,0.715807793448099,-0.651476469923794,-0.251391352227152,0.0577311048816753,0.413984553522595,-0.908451379532135
-2.793648917447987,2.006461658123251,1.500533480549584,-2.5914903042531545,0.2663947090542145,2.8922389861631377,0.814069903748436,-0.836485773929416,0.543881884785842,0.422696214492278,0.704046836743579,0.570653977402469,-0.0298369735001703,0.640141964779815,-0.767677028404647,-0.905780141792835,0.307467586257801,0.291592212060874
1.171026865464989,-1.4771207757973908,2.4340008276593688,-2.585158188272136,-0.8674548893195659,-3.05277879106888,0.660857494725151,-0.166602325498673,-0.0300028592360405,-0.708057319104454,0.704165388757545,0.0529711066388863,0.659592100734942,0.632717397594870,0.405717827349060,0.252176710880841,0.322210800651857,-0.912462112327197
-1.1081582039628732,-1.9689147039498465,-0.7292305901396601,-1.9662768879957593,2.235016295242123,-1.6857126397360165,-0.182139147857430,0.0610455799048081,1.20686282485705,0.782933095876734,-0.577629250602717,-0.230998303519781,-0.267560014240647,-0.647875661391939,0.713210183715504,-0.561629242615106,-0.496589947767876,-0.661793787833854
-0.911128829673868,2.8341436351270914,-0.19601365052715458,-0.1156202494411267,-2.0304497884016914,2.845993011649428,-0.156249863706078,0.395148635519285,1.26603587097062,-0.437271398195114,0.882261558666801,0.174379661713508,0.492833389396464,0.397270062822164,-0.774139359212065,-0.752269216847588,-0.252568880276452,-0.608522790123275
2.9191093780401207,2.4074233123291027,3.0186074933756286,-0.16836320971865248,1.2965447385326643,1.6367050256265312,0.112403120383798,-0.187405411515877,-0.0182967871957701,0.725317752288180,0.210524493532608,-0.655433898908548,0.683599626087125,-0.332664558833218,0.649635161078773,-0.0812755155576655,-0.919246283059736,-0.385201975139921
-2.111635161001057,2.1853006692056214,1.8280183987082594,0.09520557490664494,0.05790760381075488,2.213264117847774,1.08049757498354,0.0802913626024727,0.285342439955415,0.149352891651396,0.281592753060262,0.947839245431053,0.753165704094068,-0.653487762930519,0.0754663227973412,0.640652117714328,0.702608899120989,-0.309686291178895
0.6431033113381441,-0.8684272959615753,0.16228727424005118,-2.2608001553572032,-1.6142660338435895,0.11706691497980914,0.788435326434058,-0.101672530255786,1.24484308023595,0.260167730868401,0.573188666871055,0.777024776944320,-0.101761508769850,-0.783978535252824,0.612390603778112,0.960186100267896,-0.238395487443492,-0.145637373015683
1.8531195728941032,-1.6643436487843457,0.2785018268042303,-0.03633006932049554,-2.738380931401535,-2.3344224973306535,0.719222296536130,0.138858946947919,1.14308545333794,0.642064088020771,-0.449071654944290,-0.621360085296483,-0.635767453037375,-0.764814846968437,-0.104201705912212,-0.428431386026309,0.461944692124764,-0.776565289518745
1.415515230267692,2.4427452897993467,-3.0817455517316104,-0.6247333192835449,1.9243684488407355,1.2668162507591596,-0.125610086620861,-0.0366580279701747,0.0922046109063767,0.892287814787978,0.406373323851225,0.196680393641569,-0.329478295066716,0.288307470151213,0.899067770379373,0.308652731497431,-0.867029136948185,0.391144432431372
0.3119849759747986,-2.2913507713385055,-0.339366101515691,2.414581014329454,-1.4630644580649534,-0.011234211506367942,-0.249490880895524,-0.409962006505558,1.36551359084166,0.232060122329902,-0.434086397394341,-0.870469470585519,0.335028254435428,0.875811273510592,-0.347434428233163,0.913183534868091,-0.211006191352190,0.348672079261964
1.3554460724763713,-1.5054766569839013,-2.552822367977946,-0.0033547566309266585,3.0253772516990702,-1.161139836018499,-0.0402208823828265,0.00604070846158780,0.346185295147224,0.216287222682096,0.866445064830168,0.449991985412976,-0.959026687326858,0.274930735456594,-0.0684171301368910,-0.182996312256115,-0.416756572033054,0.890407945476634
0.5845466547035927,-0.1917628854207689,2.3057357831797107,2.7145874574224393,-1.8372672350724513,-2.6026396880791083,0.647994331626038,0.225226007346196,0.0516987720608400,-0.786336866595366,-0.234630575530648,-0.571509252120330,0.281185052423579,0.687781648391758,-0.669246868075649,0.550099353323134,-0.686953344239383,-0.474853455617411
-0.5114969363935371,0.8317379537024201,1.6432471742246921,0.23490038018621684,-0.14423081738333154,1.0352479407041173,1.08649647319313,0.356819590121130,0.431698719079750,-0.250843534437363,-0.145864029329533,0.956975029025693,0.921812503133672,0.265814305666780,0.282142630542288,-0.295532113817443,0.952925201603274,0.0677814860559512
-0.1635133746710049,-0.635839910731749,-0.3407571200645054,-1.6761722334084859,-0.4263948031770197,-1.1074789641710483,0.295544638868594,-0.244915478739677,1.41788147999257,-0.878377142885737,-0.464825967114227,0.111312241699699,0.457793694454580,-0.751222699102061,0.475488579959016,-0.137399156378472,0.468616342704924,0.872651244871825
2.541035615830044,-0.37324812448627087,-1.3920389765974084,-1.3034846430513831,0.6726191396499783,2.93577206940461,0.178119790968219,-0.155151815830675,1.00893395668634,-0.317496770266903,0.255359633437906,0.913229028492055,-0.942606257504963,-0.189992286530873,-0.274584002394999,0.103388801050073,-0.947994930719162,0.301025525741921
-0.9462887211657658,-2.879151909049266,2.301495073633972,-2.91206665946962,1.9730042572287712,-2.791415062244193,-0.604053184371640,0.519339922945130,0.193458389311510,-0.882768471153326,-0.457850973276721,-0.105320048457922,0.396446813521403,-0.846252288785308,0.355931155947824,-0.252090758232715,0.272451004760834,0.928558398604238
-1.513723193907382,-1.608583785760625,0.9047763119421104,0.15660243058347767,-1.0613660767297772,0.6193967259659776,-1.03406839330646,-0.00632671476777476,0.999931810998079,-0.732929636954769,0.664299892288738,0.146696286178356,-0.649625159011775,-0.747437104599066,0.139014126791098,0.201993316850526,0.00658997524553216,0.979364728879893
-1.0403942574026823,-0.7282588916672301,1.6428617396858467,-0.08393765260186026,0.25766203400808907,2.7260627439473177,-0.225904308120775,-1.11595010214952,0.392868160019775,0.409424310775021,-0.888565076167594,-0.206939216103851,-0.381493534738872,0.0393026958805547,-0.923535587321334,0.828754738567955,0.457063894342791,-0.322890352580194
-1.5981228611358904,3.0665776935455975,2.6930369177156726,-2.928337408971785,-0.7143906739827952,-0.6760697916934957,0.0370898734225975,0.496870200779080,-0.0802535106164877,-0.396432631594238,0.903404274039342,-0.163407118127447,0.905176532898391,0.354907825971960,-0.233871501799398,-0.153286049258620,-0.240626583550752,-0.958437392003973
1.9389286795342286,-0.15923107176488616,0.8485453216073275,-2.6957285117151772,-1.8188281470750112,1.0741760820832589,-0.263692410072662,1.04228991320627,0.854559357012996,0.588337659543153,0.642736964989148,-0.490660771001538,0.806508953194846,-0.510198047848405,0.298732757474355,-0.0583275816388714,-0.571478036155560,-0.818541842187646
-0.4356440092276306,-1.2125914793134442,1.3608098818220737,-1.5436845272127677,-0.5023323773527033,0.5108173570748238,-0.0427833678765465,-1.17350655994869,0.625260716966627,-0.788786516210679,0.454564930045727,0.413746971247820,-0.457322078145451,0.0157479574466673,-0.889161694337416,-0.410697393082726,-0.890574379941833,0.195460801968763
2.255108500743246,1.5558747524187426,1.613770364707741,0.031003748113679563,-0.8567234759559188,-0.09672187750221317,-0.879367337194289,-0.692823396457977,0.515769783963592,-0.614610770282447,0.562440800892154,-0.553094880237206,-0.388999057219518,-0.826076525946068,-0.407771145084104,-0.686245826606722,-0.0354671506138817,0.726504471212799
-0.8730617994462966,2.741709948558542,-2.5558743622210893,2.1634407910583384,-2.690730339421742,-2.181585423550976,0.0508251964333513,-0.0424033355700989,0.344029722018044,-0.791622272824005,0.553390979298876,0.259022395169969,-0.439484605169166,-0.810209874248488,0.387831460159631,0.424484933758854,0.193179666892974,0.884586998158384
-2.9029403661946787,1.7530635147381748,2.7832219644113083,1.206683441779596,-0.8219579279296725,3.010844955292982,0.146725255430319,-0.495262110185359,-0.0447300243091269,-0.498782452858859,-0.754056494346208,-0.427334609006112,-0.315837621216673,0.617272914790461,-0.720569736868182,0.807132369406836,-0.224439194438927,-0.546044307959814
0.44224054823168757,1.5849826603366486,-1.1369194589068576,0.3786687550251724,-2.198601525010749,1.265820186690152,0.0426641051606193,-0.0190076685841250,1.02339195233625,-0.544145882264392,-0.820959814079530,0.173003590948886,-0.754716391990695,0.569040919486262,0.326489815477874,-0.366481140681555,0.0470894427311688,-0.929233102029848
-2.0797661468053588,2.721484435617244,-2.8246110682981946,-2.7874366518114453,2.434451490820712,-2.4066681424665526,0.113769974135498,0.0568857388000184,0.186967793775484,0.199925966191781,-0.581646030732857,0.788490648628755,0.690322027539219,0.654705667665220,0.307922046987837,-0.695330932963883,0.482750850501322,0.532415730424850
-1.9133833575654344,3.0559854661245422,-0.4075733223485254,2.316078132153492,0.25511765369207895,-0.3981984419642597,0.111778131973248,0.289556730217266,1.40972348471355,-0.919197923511675,-0.0212959346325801,-0.393219608590352,0.198044671844077,-0.888072032719257,-0.414857050869404,-0.340372568468725,-0.459210788059266,0.820531514790255
-3.005920219011373,-0.0374511617267137,-2.0652236494775744,1.7430427810518525,2.6780064577458527,2.772516749796452,0.140746108444289,-0.0303986427447520,0.582793786168001,0.204501900778377,0.595966605209039,-0.776532535090220,-0.743576442614706,-0.421345594737344,-0.519193570630351,-0.636610592565416,0.683587372082784,0.356980753210118
-0.876784127638397,0.061358881113443786,1.1340186128423335,-2.6215603451047715,2.0161752283847907,0.06917011395345707,0.662026781013132,-0.768439092353588,0.808018573810461,-0.329331498907009,-0.466021703472395,-0.821197013949972,0.573746315071505,-0.789503952653354,0.217941906678361,-0.749903947028906,-0.399383625900484,0.527386755230970
-1.9444714429063341,2.1140595265366597,0.29838541507998295,0.3042105950555758,-2.4947407263162305,-0.9366063326408378,0.720553564457342,0.105067056017941,1.15399776863013,0.0594208133262928,-0.667241076416156,-0.742467853099817,-0.913266936272631,0.263940641599894,-0.310288318863340,0.403004553392196,0.696508925753896,-0.593685646020106
-2.181373733698262,-0.9412931216973539,-1.2929852342608186,-1.4424367865312173,-1.860968533821181,-2.445844317869849,0.0986245590397267,-0.0931814266659500,1.01546783443852,-0.546235341002315,0.807269028300183,-0.223480800489357,0.289571623883331,-0.0683607990304441,-0.954712038154694,-0.785986785437042,-0.586211154024894,-0.196421119066018
-0.6151366522991908,-2.350198793078173,0.7250140500099729,-1.0859119623262985,-0.7256340622009776,1.772561359659405,-0.997777967858284,-0.237345082583786,1.08542447215129,-0.397082879155165,0.904163916321958,-0.157520790701371,-0.669280327266999,-0.402711538791494,-0.624409529121366,-0.628004005254126,-0.142516767243463,0.765048979111304
-2.766097738630794,-2.4046617287864334,2.9422023072577534,-2.365629035253258,-1.3005889190990363,1.423922233721684,0.0707160020848373,0.295862360937854,-0.0269211077906229,0.381660026427201,-0.281938874143641,-0.880253426846044,-0.884001851771694,-0.389487108052858,-0.258535333610007,-0.269956200691528,0.876818261618243,-0.397886146781913
-1.1723812142848125,-1.4247081769168657,0.6262597804084469,-2.4574056652482974,0.31102038655029984,0.08177172342211536,-0.863594568867795,-0.500352328211052,1.15425349733449,0.283300608971506,-0.865482595029400,-0.413135138492902,0.946653720942191,0.321353473647565,-0.0240557186745129,0.153582217664277,-0.384280916356537,0.910351953774749
1.0705873560817354,0.49542999326104775,0.6775715125954505,0.524785469584907,0.6106032050607388,-1.9634125282157497,-0.0236094042867014,1.07091486226131,1.06817519961313,0.957998981562170,-0.0465726251126783,-0.282964559469838,0.282238649131939,0.327870097752246,0.901577808032180,0.0507867725104039,-0.943574156910863,0.327243814529671
-0.10633686410793342,-2.752814357142965,-2.2295597500283337,-0.9095553471523519,-2.329417091885803,0.5355623208513465,0.120568427036101,-0.0246555683475054,0.449368523948228,0.714670901560754,0.314439642793921,-0.624798538332134,-0.605092785737976,-0.170149187054059,-0.777760872500475,-0.350867814297914,0.933904152032999,0.0686644864928738
-0.35594051745577904,-3.140555613113011,-1.6414443479303609,-1.026863542760037,0.3998609422969004,-1.712519395780742,0.298365051231502,-0.0750480112919901,0.838623489098841,0.130248049964625,-0.0406855784518908,0.990646318918335,0.379368040671889,0.925169555858439,-0.0118820296865250,-0.916032387635494,0.377367164203160,0.135936338718096
0.17618243452874482,-0.18978120642406848,0.05205439440907078,0.7036982812248267,0.18051742402251847,0.7548285993883428,0.681392535336646,0.00235130149695030,1.38627006228319,0.109465513315852,-0.975768979901648,0.189452366721015,0.984648735814673,0.132518546373091,0.113603265471244,-0.135956494707183,0.174108393619778,0.975295903209932
-1.4005631191859598,-3.036561762800869,-1.8293891540227485,-1.820167988452284,-1.841808573476454,-2.8499267727735,-0.0326684733778621,-0.227854456684262,0.732080196850634,-0.0954250631384537,-0.289653116042797,-0.952362919107899,0.990933029492833,-0.118545582673952,-0.0632350843175682,-0.0945821779468994,-0.949762084521798,0.298339059493775
2.6882202398895183,-0.07726494598667033,-1.5419009560161254,0.04703349497895637,1.264904313699379,1.6774877640641153,0.188606316637929,-0.115867379421942,0.984200762305030,-0.412377745821749,0.885714909516962,0.213198719063536,-0.907852766875180,-0.380059964528242,-0.177081272414314,-0.0758152255688389,-0.266577422941537,0.960827002716824
2.5877197840231396,3.002302762962321,1.6923588637607176,-0.9523976016431352,0.9270984805932745,1.278926644051702,0.793005107498861,-0.743451045664891,0.341772854840722,0.00698753913161509,0.999974529123411,-0.00145444191941078,0.533050491957191,-0.00495539549363655,-0.846068919816641,-0.846054577034532,0.00513664870459693,-0.533071540713819
-0.969969020420772,-3.1244215847217696,2.2736522407984037,2.17973652036528,-2.906642008428468,1.2991547132851151,-0.389208211382860,0.580449536215349,0.162872577700781,0.355901586595302,-0.685233706655711,0.635443803905446,0.819787342606875,-0.0975144965714099,-0.564304559488920,0.448645487618572,0.721765675424718,0.527040355398137
2.8871955314535365,1.5782078629511274,-1.241069061587168,-0.24242662042296725,-2.017778359554308,-1.3297233148991918,0.0426890424996823,0.0807671907143371,0.966392172124271,-0.813875217740219,0.552710053180678,0.179216983183302,0.526565363025633,0.832003668260984,-0.174639097747181,-0.245633972426444,-0.0477649778946682,-0.968185136467570
2.7241365113005447,-2.351928922222293,-2.802424116039703,0.9674571647111962,-1.3030308758690536,1.534670851432029,0.0983605577009713,-0.0468468724872184,0.0992755255031398,0.498260453766481,0.528324009875132,0.687466552496834,0.811675604320803,-0.00546710559323408,-0.584082891469090,-0.304826563086094,0.849025235988833,-0.431551752506261
-2.2870208410724064,-3.060001860570323,0.3538141085322808,-0.37879409351522053,-2.413460618994809,2.1498898945977674,0.426048331923396,0.620192502635397,1.14308531718364,-0.196166338214692,0.691350504388606,-0.695379930565342,0.790372402430697,-0.308249959944724,-0.529427452697727,-0.580370772202880,-0.653464951069066,-0.485956093178115
2.79052203047116,-0.8917761064577201,-1.5397079216227798,-0.16407035885282806,-1.3276893202505877,0.2135477322543431,0.0560203236416334,-0.213869571186721,0.794524380716157,0.141149585416848,-0.987981849596141,-0.0629972968089940,-0.944681738988276,-0.115386631192329,-0.307021721323055,0.296062842245929,0.102848384579797,-0.949615186920780
0.5539654434424639,-1.4547261846077981,1.4363902845987324,1.675245883101483,-1.2513895728775917,0.6040550980179424,0.617527379743967,-0.931448512826856,0.550623199603920,0.586684065190890,-0.604721763623654,-0.538621756199087,-0.421942309789967,0.339434762046901,-0.840683489503197,0.691206550070382,0.720482915074369,-0.0560167316588492
3.105277769462843,1.6757880830491194,2.7804963598758814,-2.0549227171511717,1.1058451230702326,0.5596061554354548,-0.0432257360669284,-0.524440484583968,-0.0172794619163261,-0.619194723633034,-0.227097551197530,-0.751681180065788,0.500408052840273,0.623588279985364,-0.600607557159833,0.605136079636322,-0.748040346040894,-0.272481129286787
-0.25698553974579896,-1.675116602532688,-1.5573869042426172,0.4526798987693774,-0.15708689284640975,2.915473831811414,0.0983084506592106,0.279504302502651,0.865686903313338,-0.254536693715609,-0.923875005692019,0.285772716349722,-0.0529658498179170,0.308380537829791,0.949787377596099,-0.965611562847811,0.226619544049892,-0.127427987307447
1.8364591659837126,1.6862676286749583,-1.7324890869683407,0.2125420384184742,1.274589107237773,-1.3324729601529932,0.256125849841932,0.0809013449809265,0.853542228222239,-0.514078027151095,-0.709386444559962,0.482176994759201,0.801632080791947,-0.597330377321874,-0.0241335321426623,0.305138966776798,0.374122029026739,0.875741353569251
3.0787112321452854,-2.389654118586349,1.651201140925437,-0.6475437819393801,-2.150612779167396,-2.5633038534646806,0.734087265555727,0.670086833150616,0.490952107002797,-0.0880638579775505,0.707706098529332,-0.700997029253692,-0.995910200905283,-0.0482899389660894,0.0763606805067270,0.0201898155243898,0.704854708361264,0.709064321095095
-2.5947612627291146,3.0995379131004395,2.1549945006576072,0.31856443522302724,-0.6368874424642086,1.1783230012582226,0.834768757402530,0.439947170879186,0.158475305685049,-0.306133200542290,-0.0659530213581478,0.949701354373819,0.943392629522056,0.112741367331148,0.311929047470356,-0.127643292378387,0.991433095607583,0.0277057186293889
0.14337441697232567,0.9560952401863183,0.11239802335316007,2.501004381108851,2.3112905918914057,2.912802717546887,0.248131753142270,0.584037259873094,1.21319048450425,-0.450126985411295,-0.561374895812166,-0.694437847007506,-0.418818668423605,0.819557120759855,-0.391046095481972,0.788654943549090,0.114823134270482,-0.604019062490485
-2.134971294101774,-0.5966440384171263,2.61753465581711,1.0726831452188366,1.3903236404704273,-0.3480421840604633,-0.461151925186672,-0.294649302140651,-0.0145905453720003,0.720460565918300,-0.278079931215860,0.635301601455297,0.329162918763930,-0.669198105927146,-0.666202422642196,0.610400152250548,0.689090303863364,-0.390597244299041
2.341662547817469,-1.448084538138224,2.496611166794696,2.2543418139399423,-1.6220800440805536,2.616118271528168,0.433463679097509,0.415517086524885,0.0125021553490661,0.103404130181112,-0.957768885661539,0.268302716199710,-0.322090458631875,-0.287457446956231,-0.902012168791372,0.941044803566651,0.00685403881370744,-0.338212506912657
1.0112113493918056,0.7984413816753873,2.143769245385304,-2.2805603242925407,-0.43254631335107874,0.8820266170209345,-0.246768576480309,0.879011787481108,0.0882238887124020,0.887999431434729,0.0706167187571720,-0.454390018380211,0.329724107494717,-0.786550029512846,0.522131270860264,-0.320529285258634,-0.613475614923130,-0.721740013568790
-0.10878490629485871,-2.8500634143339076,-1.8994457650703478,-2.063371811021275,1.5764671225527662,-1.175028333933873,0.195442103552916,0.125721270446167,0.611378907272133,-0.536869095745105,-0.782455975217429,-0.315490444990614,-0.544906521334931,0.0361056798509639,0.837719083517359,-0.644087305448957,0.621658287750628,-0.445749387246309
2.138578861043653,-2.805878037161169,-1.8611171354881972,-0.3907536317238285,2.7499160980779296,2.4898071336277843,-0.128733366595616,0.0829144153308101,0.741564299141929,-0.259223163878311,-0.809834822599203,0.526280259381478,0.561980605910268,-0.569636492113139,-0.599743332963165,0.785481476477738,0.140291934760181,0.602774438037645
-1.6132474181446634,2.6771153194651376,-2.4928473199771495,2.4729478342359066,3.080824702333068,-3.0395523883693576,-0.0255765161746749,-0.0383015490602170,0.365484694459214,-0.348754533720743,-0.894938052827370,0.278309462309103,0.804527522693540,-0.133555385700275,0.578704090342419,-0.480734584191550,0.425733297443371,0.766580340871178
-0.010941834785914928,0.8769810611336171,-2.318202688426247,-0.07094174994728286,-2.733839567391045,2.510705014583027,-0.0499555152222362,-0.0544011807055472,0.421844641475832,-0.600061604681380,0.541314468037020,0.588986177495708,0.121517154665184,-0.666049558563672,0.735942638158176,0.790670381201475,0.513182844833044,0.333891772974086
-1.453042502676844,-1.8339908029583634,0.2238088047683,-0.2036797252839282,-0.6943865296372964,-1.8095384964284065,-0.715052820641253,0.0916553548906038,1.32873534237827,0.527118980963097,-0.740390885074366,0.417093415444577,0.847345177258612,0.495152005538464,-0.191913110515693,-0.0644339234021817,0.454583137291775,0.888370666335268
-2.935473761369396,-0.6997265083814197,1.7550739902521508,2.9117596063536064,2.4172805213825166,-1.1847517781846912,-0.844525956651027,0.437239522885176,0.435098096025815,-0.102599105455915,0.875202953102663,0.472750689518296,-0.896164791378172,0.124928859499552,-0.425771589890939,-0.431696757288913,-0.467346307297404,0.771508482650526
-2.761981110711304,-1.7811395936923908,-1.682191181936387,1.446936334356109,2.202725964717996,1.2114993599409658,-0.0518493004936338,-0.171923849895437,0.815200026608824,0.0237860992211810,-0.462517297721113,-0.886291132073767,0.397770042156346,-0.808967268021400,0.432840562832241,-0.917176763250563,-0.362835649542257,0.164733349308722
-0.9795535400872155,-0.7032681240403327,-0.06506651867622715,1.0105321450593197,-0.6233401698167347,2.198979560395606,-0.110891497742440,-0.543388538581589,1.39067548858199,0.127848715789116,-0.883372429772344,-0.450896724527002,0.906056143198752,-0.0808773528607702,0.415356616855970,-0.403381917347415,-0.461640557265433,0.790044951027968
-2.715093090674341,-2.4883787452604667,-0.7170035037560241,0.27446683253762894,3.0707821462551967,-0.6458891393143533,0.110284093814368,0.210289662625555,1.20559238018961,0.504236072972501,-0.803510858455147,0.316411572256678,-0.743515881758277,-0.217583806191524,0.632330151784985,-0.439238108873174,-0.554100701703113,-0.707136688403052
2.1934930247702527,0.4294480295912151,2.0373382854791533,-1.063425614323477,-0.32255758545191426,1.0524467119208794,-0.877312008209986,0.468844389750047,0.179095602656612,0.258322955998917,-0.249895595535061,-0.933178140408442,-0.160516772778283,-0.963639707211089,0.213618539324125,-0.952629842100712,0.0946081709912234,-0.289042692211494
0.36563655353653157,0.6052880566242682,-3.012879757631777,-0.7676033839593894,-2.1030368214793,-2.325872193243935,0.0741282901604193,0.214373529416004,0.113251014874346,0.817661090341372,0.565097844521954,-0.109976213148118,-0.160511303711541,0.407229723520540,0.899110712683486,0.552871108598180,-0.717515420320724,0.423680491502021
0.47035864271125627,-1.1023859507932219,-1.9736825343228797,-2.1418469154626933,2.049165742459131,2.9622204141608686,-0.178714179442238,0.0382879820212572,0.580885602255092,-0.900483957427344,0.431743171783398,0.0522156684760541,0.0675180307837049,0.257402583430784,-0.963942542666444,-0.429616058749066,-0.864489296441297,-0.260937345742900
1.7286280447830604,0.05456919617567246,-2.1886500637217243,0.34506733358366937,-1.5034583659323357,0.923326831327814,0.0647131396387094,-0.139983360245790,0.387642464449411,-0.672020951354839,-0.704942563202424,0.226812309026062,-0.509493268503310,0.662406237374865,0.549212696536312,-0.537405294251882,0.253523094160018,-0.804314360457140
-1.7583602745480833,2.558481896018307,-2.1231802122036947,1.70015801799914,2.2493836674657164,-1.2287947341871317,-0.161648455257731,-0.0556654365371082,0.534070361021473,-0.134009756185193,0.980330239384939,-0.144893088153486,-0.263223878526355,0.105746570308334,0.958921713510319,0.955381900090601,0.166644185663628,0.243875255743134
-1.9067191659693874,-0.7942775268232967,2.2676312905947373,1.560546060168357,2.9622721518803816,-0.36120307254795403,-0.633862144789729,-0.318589874070078,0.175304557410470,-0.0786898113672925,-0.645564729700776,0.759640765989651,0.984509622926048,0.0694382441538224,0.160994200562770,-0.156680298547683,0.760542247357238,0.630100606277927
-1.128607592410018,2.5485858767757863,-0.35816042991869823,2.3290579330108585,0.1674897191858964,-0.9767301559031654,0.0407945670443386,0.348992205436177,1.41845775385269,-0.923356601749461,-0.334920922004613,-0.187724697387603,0.383825276979387,-0.817343831549437,-0.429682694298691,-0.00952589929529843,-0.468803836408860,0.883250938414984
2.0038613300967203,0.08691655601623083,-1.2113268216790374,2.1123569310456904,-2.0274361133423233,-2.70650546556159,0.0825587317637021,0.0105940426036015,1.10663422269802,-0.891561869325855,-0.244073233823310,0.381504508092919,0.430336195051541,-0.193976506594214,0.881580327660541,-0.141167249717313,0.950158603297648,0.277975603581885
-1.7536481093336738,-1.465032975069903,-1.7924966004124052,0.7677119123386458,-1.399316178787253,2.7947696610270425,0.234203991449179,0.0505440529481069,0.653663245394181,-0.988618792665965,-0.136503449416440,0.0632431109695272,-0.0571488486272261,0.729622314549152,0.681458206504640,-0.139164980825900,0.670088118391419,-0.729119346679523
-0.4525007467273441,0.9400757897615639,-1.3024091045064459,2.6150648514220665,2.3143317500992806,0.6180380287877822,-0.0844908360665109,-0.00293401682825323,0.950591578322941,0.919130281397699,-0.300948559998448,0.254223307453600,-0.393443815784933,-0.734053702047141,0.553504404979291,0.0200372063516682,-0.608765247649492,-0.793097335524381
1.0322564711035307,2.8193191633811594,2.3007413996746173,-0.7799307608847359,2.62373141813275,-2.7470932344145313,-0.536790974864682,-0.415468459284897,0.132567964670725,-0.652355978148184,-0.615601375953421,0.442116074915379,0.543434060456117,0.0266974089877302,0.839027216656003,-0.528309662707870,0.787605354398761,0.317122541002527
0.2340877603953122,0.3464391634004156,-1.7678193976372263,-0.2921182536780127,0.21778973143189662,2.1467981477408076,-0.269816363600325,-0.184420042394072,0.743986544295532,-0.577156613213435,0.162181158204454,-0.800367113109640,0.765055831980938,-0.235406160389620,-0.599394288930559,-0.285621808999158,-0.958269905388914,0.0117885813383115
-1.774872669323819,-0.8242112889707736,0.49913853195756364,-1.487898644521413,2.6517149795898414,-1.7566784438665417,-0.767872699942760,-0.408156450384976,1.04806477027399,0.564718386861767,0.820323747696924,0.0903442997909554,0.625222078385685,-0.496706202670539,0.601980316063322,0.538693322994937,-0.283464102124215,-0.793383644000546
0.6240122838654303,-2.351989925625362,-1.5156546499579844,2.3782956909253734,-2.3193918593293446,1.4408106595411523,-0.0316867571805789,0.123628614488214,0.953524196412164,-0.747661914023853,0.259722462762922,-0.611184018651135,0.249194152781515,-0.743366170356813,-0.620732640505192,-0.615551733437322,-0.616401637818563,0.491065254683022
-0.3666072414082926,-0.17727152119658518,-1.5141026886828002,-0.9180884221388763,1.6386224419739763,-2.469057492193479,-0.192864396788111,0.0240010234410444,0.965489490504634,-0.906774606536199,0.271143510107701,-0.322863763633513,0.0569649089232648,-0.679965293417613,-0.731028179278244,-0.417749700290121,-0.681269694521909,0.601129596038607
0.9350403653957162,-0.5201287224099751,2.4114111813587513,0.13155803439282865,1.8457221980610328,2.4362738863186593,0.554990187142017,0.258259659095619,0.0238009478772765,0.0955809828809376,0.488762247165708,-0.867165348395011,0.773990862325617,-0.584290508055919,-0.244013825903787,-0.625941227870446,-0.647854974466727,-0.434144574203980
2.4911915928410453,-1.3854103280930408,2.668386148497155,0.9483643738624652,-0.0009773358653908382,-0.4966115053875546,0.262280901094622,0.522596337407391,-0.0709039567305542,-0.749128828697961,-0.629805010963649,0.205308660749367,-0.519671516435746,0.750951867653404,0.407446692799483,-0.410788891060837,0.198537000664719,-0.889851418130052
-1.0509461632158827,0.7065683890077139,2.125753732174651,-1.9430321511021755,-3.0336788347037507,-1.1581756444464995,0.731479329712788,-0.251701106722110,0.217118836829993,0.623732095665025,-0.0334379738057337,-0.780922643252892,0.524784203782002,0.758340224623997,0.386680285478994,0.579275247441323,-0.651000772368968,0.490548857991537
-1.385519742534001,2.262229224115738,-0.751100749433697,2.6612286840316743,0.4464483010896152,-0.7506798197131532,0.0209373986943587,0.0563484862845811,1.30677857222494,-0.687519365215892,-0.00464632570562068,-0.726151178550703,0.596020465190302,-0.574847522408572,-0.560633508680192,-0.414821320001123,-0.818247357244839,0.397988108910759
-1.8230443392311049,2.746271428010629,-0.3465776235581579,2.321898252260704,-2.9152358347865843,-2.7671616147643245,0.285520515016387,0.350291639458233,1.24402460598061,-0.884501620059023,0.208371506920497,0.417418494099919,0.343313735360451,0.896533807673094,0.279933582858571,-0.315899609410675,0.390907209965311,-0.864522405708099
0.9836563575979627,-1.556850045860871,1.3781452182898457,2.9136088472200763,-2.181648766971673,-2.6269544031080403,0.868461258230662,-0.582613599327328,0.505019155271084,-0.327116793927914,0.833635411429417,-0.445024273429248,0.916152954724326,0.395207345536430,0.0668948247918786,0.231642756589128,-0.385827882409963,-0.893016505152527
-2.5635822634450864,-1.6866533477211039,0.25761660298409605,-2.1658970771396517,1.0523102881815243,-3.015598925435153,-0.269782217908368,0.702898923503889,1.28858129132845,-0.599318500982826,-0.0699845858428175,0.797445604492311,0.132057105370275,-0.991166270477779,0.0122615328729686,0.789543067413629,0.112656921720683,0.603266245274421
0.13469154472700362,2.585629366927421,-2.2740151347669686,-1.6768702799422794,-2.4510753956079565,-2.823488748502945,0.0885689492192200,-0.109091227569857,0.470144004576477,-0.366196680592556,-0.542813739101461,-0.755812963480836,0.925689095471266,-0.129696091038356,-0.355357035240558,0.0948666940953569,-0.829778385240337,0.549971037182284
-2.243180342004446,2.6767601574540345,0.6541032821176067,0.5832273711968678,1.4759172700963177,3.099987322576956,0.924134291592074,0.488252763742379,1.00523471607132,0.483108146264088,0.768037615672488,0.420386417389282,0.204474031699946,-0.565824965045601,0.798769352999672,0.851350039275060,-0.299933875784754,-0.430398397746890
2.4332062960819023,0.1685065967576196,-3.0628270106605022,1.0330918985814401,-0.5932100457196268,-3.098784946208912,-0.149504572431097,0.145568329144778,-0.0272207091117022,0.00793139041720056,0.998288597576722,0.0579393561782657,0.850268006111689,-0.0372275253616956,0.525031836309282,0.526290234403891,0.0450997483778603,-0.849108121423503
-2.622894670766321,1.310520406202916,0.3608954687881427,-2.4165981694946863,0.6938716907302585,2.573996162595284,0.169050551268978,-0.805483501324447,1.27762162307947,0.276454463946346,0.846449667435598,-0.455077894279983,-0.938405883747057,0.339900145048991,0.0621473148621888,0.207285616271471,0.409866870939626,0.888280260612109
0.9074064239760649,-1.296994612320509,-1.6691044899313625,2.4165037088881194,-0.9335553790904152,1.6842164090951401,-0.280839153044467,0.0576830368345709,0.861224905044587,-0.160403669988987,0.571447552244450,-0.804809516399931,-0.786287887121812,-0.566868463407885,-0.245787517500582,-0.596675809145620,0.593386754341053,0.540250070386863
-0.18604696144042743,1.5692522636988748,3.0956971823068873,1.3593631237005734,-2.289548238057737,2.9613984856657387,0.122997929662716,0.253378791142324,0.0979874277417659,-0.658216443311275,-0.0954799448963109,0.746749418397666,0.130310842450053,-0.991401773546169,-0.0118999054394859,0.741464900109649,0.0894768323763680,0.664999021332572
-2.162424900302832,-3.0566229416379795,-0.1438286400017863,-0.8877767596943027,-1.8028820464363795,2.543246022547274,0.166990168774968,0.456454987266970,1.29059452213326,0.141413397636327,0.313444727712685,-0.939017919764086,0.683632773033629,-0.716971942819055,-0.136372522322573,-0.715994750402055,-0.622658522690721,-0.315670526842954
2.041073352456242,0.12438334820675889,-1.1627256766051632,-0.36947681167003665,-2.421874466705843,-1.4173010150332626,-0.00612117993536195,-0.0334402339063904,1.01732270995831,0.883968233192101,0.136367449682534,-0.447218158591886,0.263833723290238,-0.935166520454949,0.236337355225521,-0.385994726857824,-0.326905946240299,-0.862635828812303
-2.0959395271576033,2.426075171663973,-0.7599249487134587,-1.080713648532416,2.5659832583016158,0.8297603417139809,0.221182732058867,0.0250251793825547,1.22129504678853,0.228515008350896,0.420482852825514,0.878051855779661,0.973539109554989,-0.0972352298705167,-0.206801625329461,-0.00157896335251584,0.902075096957978,-0.431576211488755
2.3015548947959443,2.1836912214234747,2.8977798659543295,1.268524708898629,-2.479127249131106,-2.949703913378413,-0.144299922933706,-0.363577238451783,0.0912875484192133,0.787584150902436,-0.235949817707588,-0.569244138108637,0.378394612440097,0.914285995142851,0.144563606630286,0.486342186658322,-0.329254920402722,0.809359298993345
-0.8816425003583914,0.774045024064089,0.568005661215897,-1.0851550043359213,-2.675087193981625,-2.3342201753594676,0.870990576434071,-0.0540719789820105,1.02948800732268,-0.555099364387303,-0.564476491190434,-0.610926334798353,-0.828531829942899,0.310349865832436,0.466066484044133,-0.0734826675365238,0.764885123185910,-0.639961753467027
1.026238821547107,1.2503181396289937,1.2627642729535173,-1.3687340152158483,2.9912039558668013,2.050951540416877,-0.635935588629951,0.768871043015579,0.637577998214468,-0.0266064720483881,0.696660412881546,0.716907500845717,0.446592033217234,0.649898454661466,-0.614969555746896,-0.894342021551059,0.303803008135786,-0.328414495318968
-2.6493559990987317,0.12120707604721837,0.012751935201718467,-0.8734507533469675,-1.501024751700899,-0.18230035063574412,-0.425361044557623,-0.392998401585264,1.30518628704629,-0.0298825661792552,-0.266876192870421,0.963267423884734,0.185618407174629,-0.948417082186218,-0.257003589732389,0.982167419107606,0.171120238126208,0.0778782700574024
1.1882469864231604,-1.1450249347073562,0.8618649290005003,-2.463502904700126,0.9332132449110517,1.56563918921833,1.04405927305187,-0.00529900050750243,1.01458512310025,0.437039091792844,0.897004529291377,0.0661793523362146,-0.762516089994346,0.408526059020279,-0.501672873096695,-0.477038829388782,0.168787835853518,0.862522244190413
2.067640085828473,-0.13524794821955055,2.1862072727822994,0.5194077436013953,1.3905786694828661,-1.8399258501401734,-0.326669030083069,0.725651438359551,0.0629132086106536,0.818583461292404,0.467220946101732,-0.334104331642603,0.268175311750298,-0.825261305272642,-0.497016881189488,-0.507940074286503,0.317251265629467,-0.800842378617867
-2.197829932126453,2.1185625448047887,-1.4369799412029576,-1.9707371484626244,-2.6610575785471346,-0.026531318032100515,-0.0737864534509066,0.0485727073994213,0.958271757909051,-0.348397291910819,0.0824578615596887,0.933713033033282,0.857089740657514,-0.375267104708107,0.352947271676140,0.379495063800365,0.923241734970315,0.0600682558441513
-0.039989445350498976,0.7388340277899479,3.0369188881217726,-1.884108214032919,-2.07555485574259,3.1397117809991997,0.149338925856558,0.234255555405746,0.0678278797995161,0.338448692942015,0.526684539400169,-0.779779377902925,-0.317269613493362,0.844031826138767,0.432377461043740,0.885885136233595,0.101062715289515,0.452762468606549
2.2159052719106356,0.05559641415374639,2.6878041175184046,2.192452313496304,2.102072563270765,-0.12462235426263701,-0.407761701913011,0.374717281324640,0.0836327743526053,0.727048238528876,0.0649548169700226,-0.683506935300915,-0.340407745266957,0.898645434862721,-0.276692879132546,0.596257851784214,0.433840125106913,0.675469703267951
2.0083233497597766,-0.7186445936984183,-1.2870092592424762,-1.4648630349022125,0.39212544473281463,1.4224918931820518,-0.0207478438467713,-0.208826096577572,1.06814936913876,0.122536833497369,-0.984922658589172,0.122115031974264,0.311865473612472,-0.0785970636836103,-0.946869805173226,0.942191408793832,0.154109889942054,0.297532336086586
-1.225550182048881,1.6948403635208606,1.487948477103786,2.149650244709073,-3.054490215120344,-2.1901778523186284,0.873335481864124,0.434680320854064,0.509833780245958,-0.438327704533659,0.295029203701347,-0.849015071951966,0.819967917509498,-0.255625790157301,-0.512160199216605,-0.368132364365577,-0.920659124958746,-0.129866615944227
1.6899147708760935,0.5354493695135862,-1.163150849055345,2.485484256300616,-2.3726019423681697,2.714934610994363,0.0222500213401820,0.0406879179768055,1.12547192691235,-0.224255652655231,-0.954181887094841,-0.198106861547762,0.175308341083476,-0.239467236964398,0.954946295855006,-0.958632561411689,0.179422319572467,0.220977925233493
-1.778944455823501,1.7756812015502446,2.793871190278243,-1.5003784151262687,-2.3602911867274097,-0.7740976721287569,0.437337789978420,0.0688191058428713,0.0779921078540328,0.862259725290970,-0.468226142720791,-0.193060729859676,0.454429306034985,0.546950505535649,0.703092561695016,-0.223611654342306,-0.693980852594009,0.684389073754973
-1.8575377621417777,-2.765298192339201,-1.8684825488951124,2.6510387400386612,-2.854320049172619,0.4945295005604491,0.0264058402297391,-0.144818169712839,0.728441003993237,0.848042914151161,0.526797765919398,0.0575093868889106,-0.316655604459484,0.416733341401381,0.852093040887460,0.424914631334820,-0.740822135189528,0.520221222261090
-2.4729845840172926,2.821123671612402,2.5281307497129726,-2.138827711817676,-2.9355045023446795,-2.0120829548309707,0.524098785417939,0.208557077471210,0.113431965883156,0.665685777343530,-0.322023592913197,-0.673174012755852,0.384169089566598,0.921258430911849,-0.0608030763646796,0.639747259833219,-0.218136904445609,0.736980145224262
0.17955118718354068,-2.0573143423011286,0.5645805682532159,-0.9830968870125538,1.2186603083905991,-0.4720894673968479,-0.376170624265156,-0.928194048786478,1.09651185849289,-0.295746597701926,0.203896511336283,-0.933252464562847,0.747435661734514,-0.558987475572043,-0.358988765452463,-0.594872996122050,-0.803715879411679,0.0129191201824271
-0.3599085833219391,1.0830707321471769,-0.22649693397923176,-1.7981747893045898,2.4858669309576173,-0.9160130079004265,0.405038789629179,0.278283565786794,1.24849945783651,-0.852072891776903,0.303936423383205,0.426138988640997,0.113640431288397,0.902139406101578,-0.416209495729349,-0.510937999639422,-0.306214210153149,-0.803227998780389
-1.5032112889508955,2.143043172166318,-0.22325162117374076,1.3846540911454008,2.3874842727371606,1.7256277211404525,0.372195670659504,0.360890030672392,1.26037138382948,-0.937184230356774,-0.302836901099295,-0.173134426683881,-0.331887295446234,0.621257596937000,0.709851971448589,-0.107408293404023,0.722723190150032,-0.682740542905865
2.120319905498598,-3.0530634891900355,-0.4523563769865686,2.4382964098431943,0.4353902604320643,1.6546684724902798,0.180322324167037,-0.197383827921070,1.39154204860477,-0.973377352453959,-0.129259182323533,-0.189284424913340,-0.0458101221778058,-0.699446896242022,0.713214884900376,-0.224583976355788,0.702898359026719,0.674904389111353
1.5299233388662152,-0.9344193206131033,-1.5500696984531608,-0.8534970236740747,-0.42566584299767696,-2.0463834056594328,-0.255332833718821,-0.135414826221224,0.857763431659366,0.291824245423714,0.210451266408418,-0.933032086398947,-0.128599632626601,-0.958002890879804,-0.256305668205448,-0.947787288515299,0.194783791761611,-0.252504515198810
2.335961174354088,0.8555251662702159,-0.5556664251942109,-1.5393600069055722,-1.2320236457695457,-2.463722186367183,-0.242520058834707,-0.106497454212529,1.33738709791430,0.163633502396125,0.955032907841488,0.247257399956824,-0.231142247297970,0.280774687642709,-0.931525005726193,-0.959060654185971,0.0952770681694736,0.266692598085151
1.4784675884717187,-3.0252314444486674,2.508771663934363,-0.6727713888583118,3.0164355271840204,0.7319139257337954,0.00603519520039432,-0.574792179724719,0.117938830803760,0.984121586256897,0.150711461270963,-0.0937590470556346,-0.0511070067742638,0.746464912953576,0.663459273495959,0.169978755501342,-0.648132848396671,0.742314645893123
-1.9675519467064364,-1.9783587652220425,-1.9031867025931757,1.6213110231360002,2.437884329507031,-2.1092216083219832,0.0627882972107629,-0.158379525213627,0.675272418621952,0.0946197252864946,0.211454083188421,-0.972797141386452,-0.723731802981721,0.685587066789260,0.0786298366024339,0.683563738754137,0.696604295532437,0.217906104793376
-2.603745567906212,0.14264545155126918,-1.4866472299244293,-2.418213993089438,-1.3992156738001185,-2.9177308325165296,0.190088134134720,0.0699618294252367,0.997274122134833,-0.568620475246878,0.657494250970749,0.494340029807853,-0.816147960751367,-0.375807166204866,-0.438943595454420,-0.102826364767993,-0.653046923099315,0.750304241584117
0.7053827600479394,0.8480728630382051,0.13993614414403677,2.9970971301537768,1.8741437398699095,-0.7534220057252634,-0.00301973019813269,0.618379662873626,1.24953849646246,-0.641830242429818,0.751155299272704,-0.154336179416930,0.225117762597225,-0.00783109096857959,-0.974300090822874,-0.733059296964236,-0.660079078890383,-0.164072169320467
-2.7592480283407266,3.042597642242078,-2.0315483216787986,-2.5834548258369123,0.572289937629785,-1.6690363196398235,-0.258993926171535,-0.105287531123319,0.490507331826904,-0.0987538776478983,0.889225534496647,-0.446682908167143,0.895938256627961,-0.115895099833727,-0.428792451128726,-0.433061556779119,-0.442545223263886,-0.785246084617022
-2.449672252424717,-2.2409260914203966,-2.996208106603826,-1.520046245493986,0.31565208349389673,2.56949203868822,0.0282615783520787,0.126156025874802,-0.0182075022634785,-0.813859222276491,-0.489361028753369,0.313303287331860,-0.550558612709200,0.821840244862403,-0.146505378386687,-0.185791227691802,-0.291726576543773,-0.938284191623638
1.6389723355910535,-2.3566727675910757,-1.043361819974765,-2.1775154792930156,2.086929754884383,-1.3466602012193292,-0.0440025139260698,-0.0564331403516664,1.09222002514645,0.270714385384260,0.901869074371015,-0.336668819820295,0.621238298435283,-0.430826221367738,-0.654562253371848,-0.735375209062188,-0.0319521466440788,-0.676906464898644
1.6656770106706595,-0.4018525895273757,-1.9161890637078804,-1.046644061057378,-2.436158162972233,-2.3503008345651293,-0.0981947061904691,-0.124009280036124,0.640134903095349,0.946165490249503,-0.152671749209802,-0.285415840580261,0.273517476585944,-0.0944096204859495,0.957222551741107,-0.173086842547245,-0.983757165439174,-0.0475687332615308
-0.6390474873513696,-1.3029297599107954,-0.7305228345039718,-1.1394781764867075,-1.1204849028547645,-0.32848866706435365,0.0393949155106378,-0.124266827732437,1.27999511359838,-0.235554501467023,0.0720391178744656,0.969187516600627,0.798432784822163,-0.554222973685478,0.235248769519313,0.554093101346468,0.829244994519168,0.0730313227674119
-1.4234670554028377,2.0576449781155386,2.8454330336071463,1.3188997600999048,1.6603051413004737,-0.5350998552182986,0.262026428120924,0.312467680106511,0.0103624323969809,-0.447727397968902,0.430339370167221,-0.783803676689562,-0.579532677137839,0.527882877762256,0.620871599845643,0.680942033683812,0.732221068974062,0.0130480999779906
-0.10122953578129179,0.03398361980390607,2.1699216425760985,-0.929428382033362,-0.41143120221314033,2.0350378013766752,0.926731391547196,-0.0302955833665482,0.117637862692914,-0.354472968164352,0.209220346953836,0.911359293177653,0.889627924158965,0.375590114187522,0.259796502442228,-0.287942826612098,0.902861513492031,-0.319264805541599
-3.066931256582588,2.6892910910902055,-0.4495974727933758,0.012364257358111086,-1.2388770514421774,1.62348097619493,0.219890372911814,-0.0884834099292094,1.31257500377660,0.363521817442620,0.0886491172643302,-0.927358195225270,0.929799464664328,-0.0961413352776268,0.355288332430103,-0.0576614581253630,-0.991412213793682,-0.117375374706823
-1.7531873145754848,-1.65760221580223,1.2139773760318686,1.9755275964513475,-0.1531979313336178,-2.14193503736967,-1.13847552355348,0.328649335308299,0.731543511070126,-0.214205310506532,-0.432915810124982,-0.875614062412563,0.224889602200340,-0.894196756279341,0.387087623002438,-0.950547606263344,-0.114000273698512,0.288899958157995
0.07820597167664056,-0.3803543440040431,-2.9601104569387875,-2.5027338526889724,0.265564503958009,-1.0244517713788324,0.112660852466894,-0.0515076363372225,-0.0122686213450362,0.994991614337900,0.0988272102161292,-0.0149956633116462,0.0952001283272608,-0.982637824258957,-0.159247737510132,-0.0304733156012327,0.157022574353243,-0.987124758163702
-1.4785298766134498,-1.2830404580408021,-2.190184916562144,0.16172582309855787,-2.3341547967139387,-0.9489687587947149,0.0898361542911016,0.0484119283184060,0.449181513161215,-0.147104205070714,0.274191006167419,-0.950357640568755,0.874908713958897,-0.412129504053674,-0.254330521422934,-0.461405564649260,-0.868889270290162,-0.179266117505029
-2.4385007653987203,-0.9170458083520576,3.053492080001293,-1.669893846056756,-2.863599941808018,0.27103442173671555,-0.274568827076997,0.0317130404247237,0.120395018242425,0.135692118463026,0.989431023395929,0.0511263036870560,-0.945847959706928,0.144729012943929,-0.290560062518093,-0.294888599483361,-0.00893099960592939,0.955489901119201
-1.3908650918006633,2.6225362452667618,2.6852906950909388,-0.5636010632530608,1.793881754765085,0.4944060357696851,0.196936482675629,0.401670665824141,-0.000134541471123139,-0.628759764291537,-0.747941456483555,0.212708101588325,-0.263899846311961,-0.0520614792830984,-0.963144056458523,0.731449266815255,-0.661719865236124,-0.164647471973645
2.951221793644949,-2.3613961595715502,0.23166292743928185,-0.39788930543137546,1.6961409027342293,-2.7372157584423484,0.732297311259231,0.443869431017351,1.20408318844879,0.362947454615387,0.0615239068176724,0.929776292490888,-0.247121014595652,-0.955732538803186,0.159707602881113,0.898443292219062,-0.287732728695758,-0.331676841977047
-1.4131961165094065,0.9901664250881543,0.45736429339584017,0.8497004770288119,-1.8615198136141573,0.9999518919297046,0.716567185246613,-0.401519382262710,1.14914333392043,-0.211968473895234,-0.305529803612487,-0.928289235733691,0.577084787582463,0.727449898252697,-0.371200476121791,0.788696718653900,-0.614384394851185,0.0221201570499561
-0.350715610906017,0.18146833050569322,0.38577729075837386,2.3148617636647737,0.2789424405247596,0.0015327935158815365,0.862216571673792,-0.126786394459838,1.27452942710759,-0.578827053667712,-0.785106535097789,0.220379151666170,0.815392857166567,-0.554040388519204,0.167850339204997,-0.00968144741756684,0.276851903436177,0.960863826533014
3.0313671579333787,1.2439194397653903,1.3027502879225699,-1.1759718335645488,-2.198869429162157,-0.4502435404082292,-0.366471265230358,-0.960764793434295,0.658446583226374,0.0612300634840690,0.301708143909576,0.951432118032798,-0.627100363453837,-0.729965773464139,0.271836538616441,0.776528179451205,-0.613287995536795,0.144505436052271
-2.159331325628959,1.4086128254848749,1.7741592971049283,-0.004553393196073063,0.9895654258534003,0.9302388882304307,0.762760251337218,-0.712129578485963,0.253939524089583,0.139203420041276,0.953541159977219,0.267173471883177,0.964581131762820,-0.0695173678684441,-0.254461344435263,-0.224066169012571,0.293132379299767,-0.929444866632813
0.9898451169303639,-0.7936780793737093,0.7667187009653333,2.8357084834507083,-0.10248950169391735,1.7724819103134992,1.06690654050114,0.208877318193874,1.04983782178596,0.105667752558943,0.650847352263244,0.751819160517386,-0.992703030491898,0.0248725861232055,0.117991727302156,0.0580949164845302,-0.758801079672050,0.648726369255318
-1.3341631858930885,-0.3180739761441145,-2.7140730984524235,-0.017682864101071782,-2.735546040797673,-0.22043499795239807,-0.00425174769716913,-0.0606761746872641,0.246851429786271,-0.255736532264363,0.965278229514525,-0.0532612963670864,-0.640683179921490,-0.210482106839065,-0.738391729142653,-0.723964010867312,-0.154710123540423,0.672265489701071
1.1608806411949057,-2.2422758706221906,-1.2752974402383686,1.6499637951639121,-3.126658033414005,1.2415752031493419,-0.0101334904604572,0.0158589212928112,1.01579271905078,-0.478295605372620,0.761926441851457,0.436693726871384,0.0532988550205761,0.521528938654890,-0.851567259938403,-0.876580028254543,-0.384025602470828,-0.290054806393865
-2.4582063503923983,-0.908443644904799,-1.35799681941512,-0.8588820462865976,1.757635920773831,2.4607499525805334,0.125617966333499,0.0475598127630266,1.05736331481541,0.542574278211794,0.827725900764766,-0.143118782226889,-0.433953408939004,0.422080542686098,0.795947519850414,0.719234031100564,-0.369753767646749,0.588204522099130
-3.1005052115756215,-0.06531193748550157,1.2936867846839784,-2.2461162431098995,-2.9432802323327762,2.4233083797821715,-0.999829724419678,0.00884342938562571,0.611315280901456,0.152289447149063,0.396506715924908,0.905312293362615,0.984159049784298,0.0232864915288354,-0.175751825139725,-0.0907683260542999,0.917736434679762,-0.386679385856783
-0.3261178432150733,0.8692347603012687,-0.9293736859356514,1.6932339190549914,2.6734243684246843,-2.176458661747167,0.0736683152793703,0.0967872090242290,1.14938957752871,-0.102522461397328,0.930200862930926,0.352442193148883,0.644394414874815,-0.207807613814048,0.735915643072666,0.757789537396221,0.302559663939978,-0.578111292719100
0.12167768729554052,0.7772253645446416,-2.1089927693105484,-0.7320927886757529,-0.588150917833445,-1.1087942707264622,-0.193195261824457,-0.183330097705975,0.440717773339032,0.685817823895636,-0.407120853152739,-0.603246652170769,-0.605541433034324,-0.779007161113299,-0.162688093642207,-0.403699746477244,0.476865236584074,-0.780785540870106
0.38198748964517293,2.3453745965830812,-2.3302148412757093,-0.02634413961808857,-2.6270049402120677,-0.7086682452913893,0.0613544964779372,-0.0283919665558258,0.405543996581489,0.0757218073815333,-0.443163224639727,-0.893237126531243,0.658394349728641,-0.650540905143416,0.378567577825391,-0.748854517334491,-0.616768098285006,0.242516029997243
-2.480926340762915,-2.667146489177825,0.6339404990517439,-1.0117110343007822,3.1306857874823404,0.9863262536854069,0.383004282398273,0.820557000521013,0.978218140624262,-0.685669217931762,0.687344557747087,-0.239614654218616,0.683527667772580,0.494785769051894,-0.536634857359362,-0.250295127739680,-0.531737248722701,-0.809078393822620
-1.0075984143502223,-0.40299211549841774,1.9971094747305695,1.3246754289505116,-0.2583561895000619,2.184032002778051,0.136895756944955,-1.00251125839341,0.193073618025801,-0.296134153172526,-0.949887673342468,-0.100089816449144,-0.301256772664167,0.192328888067154,-0.933945370853576,0.906393358453581,-0.246420386427107,-0.343115247263006
0.8619622014662882,-2.661634572428172,-2.2784869315632985,1.7224567954763366,0.8680507502053638,2.9559564299395173,0.123457304368523,0.197487742075296,0.361646442160632,-0.522165099857784,0.199998366014586,0.829062278771629,0.649042071946617,0.723813880827240,0.234174838027172,-0.553252200478003,0.660374226869361,-0.507757701224651
0.30514101882977673,-0.7906695475130028,-0.9942521945017675,-3.103434560663599,0.08525538962232782,1.754204772346399,-0.0685220404078280,0.0357889192424801,1.22828364453550,-0.361162038283343,0.509036138767563,-0.781309280331183,-0.912492214878564,-0.0202763516731822,0.408591271748233,0.192145621571333,0.860506292243953,0.471814562216482
-1.0837901080820571,2.5157183194610093,2.5415887237340247,-0.802393495328042,2.528390993525748,1.227168168941878,0.115932436219477,0.530532659800652,0.0820239465648415,-0.914879046629463,0.269964016099490,0.300192871417360,-0.387264667460733,-0.376644071256053,-0.841525591366177,-0.114115763043032,-0.886148223266909,0.449131293750511
-0.8510128075539765,-0.03446952889700894,0.75526880350129,2.8172252001844624,1.108260879219812,2.1705888428255733,0.639998250085344,-0.737819094004306,1.08223335560225,-0.459956411943701,0.887629791501778,0.0235255680141057,-0.800383381857709,-0.425927723374266,0.421867297271585,0.384482172743930,0.175211094682171,0.906352321750423
0.18051694951911568,-0.7844694451504215,0.21326886421902724,1.100040495330468,1.5703855319815423,-2.7595042425572966,0.711682717708702,-0.382751998580710,1.23383600693977,0.332598502305699,0.361419631761773,0.871064914941011,-0.435351189839080,-0.760501307459382,0.481774950426305,0.836568931869755,-0.539456774106837,-0.0955971291438260
-0.8210378015905557,-1.4812699085669134,1.780293359231118,0.3003432785858613,2.9129222335730587,-1.1915213644834024,-0.599452266498898,-0.677846506015098,0.342428397606664,-0.694563625578801,0.0663073039652637,0.716369116771298,0.714323667663391,-0.0548808649324035,0.697660224235403,0.0855749252921217,0.996288829659918,-0.00924662403898783
-2.7831503928416663,0.5855234704942642,0.23698851006461208,0.6072172368182716,-0.9345452268257248,-0.5259509625478218,-0.460715879886016,-0.557869823455937,1.30870156547739,-0.596199495951828,0.799146470919870,-0.0768835420821858,-0.620163709662448,-0.397611036535067,0.676241404265682,0.509846186849031,0.450855167034633,0.732657139536411
0.24798567269058447,3.059394609587774,-0.47526310135245176,2.8679864199652956,-2.7573140784397996,0.2867149861568463,-0.390346630435537,-0.0550435796310618,1.25577651698802,-0.606116469302879,0.260103615567257,-0.751644154376692,0.418264504782185,0.908032457782673,-0.0230620825701410,0.676518757817642,-0.328364378064977,-0.659165537280944
1.8452736601676882,0.39734505309951507,0.5207303549949303,-1.368978586174346,3.0838450520516583,-0.2722982571649615,-0.535991021421870,0.683096689800006,1.02981796180745,-0.431584595691001,-0.832597992087456,0.347153165525207,-0.884183039187420,0.314183658388919,-0.345700711620112,0.178759866792107,-0.456146042812268,-0.871765850243732
1.3415695632555513,-0.664880458519046,-0.8912112349630856,-1.4370348109639526,1.5375242205879047,-1.2568666594556723,0.117732415547080,-0.0324838639893071,1.23396137527032,-0.188234567291114,0.722351649300437,0.665414038347303,-0.326943054853792,0.592794333897994,-0.736004834618160,-0.926107977807986,-0.356094050008383,0.124583469967046
1.4340961817435414,1.6696429122178742,-2.0474584359960826,-1.073113352103749,-0.19626170149676003,2.568199847279458,0.303547506213136,-0.0286429702338396,0.505379842708187,-0.144442677299102,-0.551338160611982,0.821682752421921,-0.978198909648016,-0.0456540527002654,-0.202589734773198,0.149208599410694,-0.833031776179659,-0.532723993956403
-1.3159422935940883,2.8684093986961683,-1.39783589452474,0.8226330522740164,-0.25684621089724313,0.5471321547764925,0.0139525869308001,-0.254729439427826,0.975060143019811,-0.962513735835633,-0.212820546116392,0.168150894967748,-0.165012814484636,-0.0325547409992652,-0.985754005771384,0.215262814679157,-0.976548823146693,-0.00378373191645897
-2.442680312655039,-0.17600574448522677,-0.350571364431977,-1.5033994980916248,0.4172986960595577,0.9770886615859649,-0.343037866850884,-0.151062289693147,1.41716389027327,-0.995342563128965,0.0836838028686757,0.0478560671315486,-0.0492002131200454,-0.867881964572952,0.494328063736963,0.0829006697970816,0.489671233284568,0.867957120047279
1.127968611134623,0.43955537051100757,-2.631717853805628,-1.0340797200280423,0.32615049805295193,-0.47964761361411634,0.0271662895759602,-0.112666057505100,0.143062476876626,0.958533741537313,-0.0805240555726581,0.273365950346071,0.106683216407539,-0.788106149876769,-0.606223876025481,0.264256991717194,0.610249598935179,-0.746835771323275
-2.7268062628786653,-0.448209814464299,1.9632537205519336,1.1089779071735002,2.0617818389248157,3.0916188647095,-0.879165521483693,-0.0495971852850064,0.225981958874121,-0.765071050336495,0.319274737148690,0.559222612342927,-0.418501261486246,0.413496860584951,-0.808626638456099,-0.489410852016415,-0.852692200330825,-0.182737597181156
-0.29609445597901685,-0.1912382890190063,3.088421127197231,-2.706000397129401,-1.6217280743169864,-3.071073341466763,0.172661950388236,-0.0438130167870929,0.0305327255970367,0.0399539908523729,0.796006579944832,-0.603967882672166,0.0268724976156583,0.603375879555721,0.797004025612328,0.998840101060658,-0.0480736170356613,0.00271658945069590
0.3781077514249436,-1.7511167819783506,2.720337338341972,-1.7656550814126644,0.3739173280275727,0.3963247681023745,0.0728629518966381,-0.545941417650713,-0.0687644251888545,-0.964528005175781,0.00710748418641582,-0.263884844013763,0.144952608384416,0.849711239770416,-0.506931504574708,0.220622910311196,-0.527200429321110,-0.820600535443071
-1.2013750684186448,-0.6830753818875412,-3.1232327098255293,-2.738154933777069,3.0533652946920116,1.9699256549329833,-0.0737597925141639,-0.216188584762103,0.143223444046930,-0.948687338853359,-0.309764898512579,-0.0635455800888163,0.314368188653516,-0.945595617411212,-0.0837948106711589,-0.0341317310144056,-0.0994717848548009,0.994454819967082
1.1764691199290542,-0.6280643822296037,-2.5434711993782386,-0.5400722603407884,0.22599761104518556,-1.9890082648316698,-0.131200879474555,-0.0936543104762978,0.192273211602741,0.829523596789128,0.127329860585458,-0.543762548336419,-0.173177581361638,-0.867019347816216,-0.467211917470090,-0.530942678340857,0.481730793198475,-0.697162330594966
-2.3688953868749674,-2.6669485227019964,2.5747472983019755,-1.0108896219557097,-1.232214589342494,2.6107180641316816,0.133896512940071,0.650863097377025,0.0300176597901909,-0.698120926881310,0.437524749864070,-0.566744443913448,-0.472962561067319,0.312459859840798,0.823817486957464,0.537525429425458,0.843173131239755,-0.0112019407392131
-1.5613626314066464,-1.4224273846204851,2.6460565733725243,-0.7945673719335886,0.2620330300911009,-2.0768714857637667,-0.579239756972446,-0.0734549442259471,-0.0729186311015377,-0.929964130146357,0.171985790543986,-0.324942463356346,0.134211833743226,0.981650120661477,0.135462999703197,0.342277519455209,0.0823646068179037,-0.935981928895703
-1.1167754889651782,0.7674618693803259,2.719042289577926,-0.2832612417797833,-1.7315998200588865,-2.305422389013998,0.559883637711610,-0.174576617948808,0.0668628993115210,-0.419647758595818,0.331654028785555,0.844926839374757,-0.637371226284483,-0.770426947195690,-0.0141505808836562,0.646261308303476,-0.544470315283616,0.534694676581728
-1.879988508494693,-0.364077164404351,1.6383296044407842,0.7202450674617511,1.4770164499042568,-2.872362226646136,-0.602986056829879,-0.861323036242917,0.352646805480236,-0.795399072900443,-0.361320746844262,0.486608294965283,-0.581136036581267,0.682648681123550,-0.443025603263394,-0.172108168939571,-0.635167770010556,-0.752954634838040
2.345441915882814,-0.16764786521735742,-2.9522857898599106,1.8483196219821894,-2.6619663539515597,-0.07943254212160733,-0.0315970278327594,0.123301706870808,0.178401498656359,0.908602898007526,-0.242412948161264,0.340112828773173,0.144630551374802,0.946561135220114,0.288277680197114,-0.391819827652131,-0.212739229702877,0.895108508955244
2.0728862827397663,-0.8833555120647469,-2.18797816760216,-2.872224049723786,1.5573697678663496,-1.2316025948594704,-0.0291928616062700,-0.144335385959243,0.389116432304897,-0.686714073320749,0.570519220269838,0.450479301195872,0.726759619482627,0.552156473931089,0.408587424898827,-0.0156280834619141,0.607972900381820,-0.793803952754472
1.2802514646393872,-0.32730016556373087,2.286530458428346,-3.0411992416785067,0.9772522750980404,0.8668735896518456,0.511033780041453,0.704754290679969,0.131229323698388,0.521156538922163,0.580405143156721,0.625720170472311,-0.638622810635036,-0.221166427846740,0.737052451953129,0.566177328824882,-0.783718878802048,0.255397633767391
1.7839399341813031,-2.312464591848415,0.03985801889309171,-2.235240603049897,-3.00191911347339,-1.8107331435122183,0.575105722957652,-0.323133435507226,1.19224056933941,-0.577577452063173,0.810758052044996,0.0952662999828211,0.816329635818410,0.573169755468440,0.0712906522682357,0.00319570849647533,0.118944577263753,-0.992895752325869
2.1611312259821016,0.8708427038574991,-1.0302955541035095,0.2832698169586183,-1.2221507454391607,2.048751670633009,0.0853826846850447,0.0170295137121071,1.10587057250369,-0.252803498765750,-0.570457672230426,0.781452772216747,-0.785690423488685,0.592379700235775,0.178260621525745,-0.564606898160098,-0.568915050725517,-0.597958790894503
2.3411475464136746,1.3222546996145645,2.5288362977774543,-1.487375065478885,-1.9455744726627273,2.2810295474541427,-0.486068725280796,-0.386444688141260,0.0739997750999582,0.765408319174496,-0.257546811758607,0.589762447678257,0.641570076659174,0.233636747697965,-0.730617346400056,0.0503779879909290,0.937594533835439,0.344061838116191
-1.5010188357164667,1.3761070513506493,0.8104395361794761,-0.7017004545527126,2.5347511971529473,-2.0445147290622896,0.982485692562044,-0.160467690824794,0.871093249632961,-0.124861729159364,-0.932604558924552,-0.338612293433767,-0.913103461787020,0.241521763840068,-0.328495518484106,0.388138656492616,0.268171538878988,-0.881721276295056
-2.0239405292644435,-2.676652004275895,-0.4091385209830207,-1.34478127575315,-0.3781020085414144,-1.5329402595807688,-0.0397291245831757,0.317858351559355,1.40954110373706,0.268716413975760,0.895617416994888,-0.354486856223772,-0.888707962416210,0.0885993104619470,-0.449831434788295,-0.371469576678948,0.435912381747838,0.819750418750055
-3.036107300442548,-2.0841580053001305,-1.4628890456139312,-2.466089504729745,3.137588668125429,-1.5440214131760244,-0.0296832304197042,-0.0693250799518272,0.925606103274644,-0.757250846656256,-0.518986321050798,0.396515263010822,0.256447589201639,0.322081404641883,0.911316741191875,-0.600671115695644,0.791780757120347,-0.110803625495197
-0.14514915852909693,0.5386808743233837,0.2500278511185261,2.23045652267277,-1.4957586368336162,2.4229452794663997,0.806679934401701,0.249605490554557,1.22306682359928,-0.434297260511851,0.247350604719006,0.866142925767476,-0.665468849369135,0.559936393639221,-0.493581245184238,-0.607072565704645,-0.790752118823241,-0.0785747195052828
-0.2367898310264267,2.4039154070031064,-1.21270343545172,0.178555471641348,-0.7350272208333277,1.4073504585634327,0.112374010266760,-0.144349563160959,1.04231266722189,-0.752626587148100,-0.225493980992191,0.618632107842858,-0.658285107944523,0.278553716670767,-0.699334357505314,-0.0146265845730094,-0.933573934653917,-0.358086262733622
1.8218163800174514,0.0010186392395543642,-2.5044313675556893,-1.8236063541698495,-0.8458041285133544,2.2621863754277083,-0.0302675223495601,-0.173069936094598,0.240433398765999,-0.109941872832644,-0.817106416408816,-0.565906254481777,-0.441986140975893,0.550158479636528,-0.708501163350677,0.890258971189445,0.172228776769642,-0.421635165361173
-0.66168418596523,-0.07053404914671235,-0.3597275085262801,1.0311984692913887,-1.556887761656028,-2.968356664370483,0.200602908764662,-0.295673619725127,1.31329639961255,0.288825536788442,0.207021145262774,-0.934731006607226,-0.394520011125998,-0.863853320945538,-0.313227394575424,-0.872315178201096,0.459238157501590,-0.167828914596186
-0.27040071802894294,1.1119609707035902,0.3900590002794724,-1.2589722827316714,2.6652505831439237,-1.0414916884779521,0.588070775511843,0.592635043162427,1.08908824638128,-0.770770194430339,-0.609061152657818,0.186970103762467,-0.619060114757594,0.646589417023219,-0.445742863218121,0.150591771668081,-0.459311047239999,-0.875417317734327
0.8713397377516374,2.766585857240985,1.9705021767628983,2.638945463411643,-0.13208220916156677,1.5586381321817084,-0.899358124059858,-0.479832696141515,0.191395083352145,-0.584255138235056,0.169429599393972,-0.793687308891312,0.673480545782472,0.646912639456592,-0.357670227114096,0.452846428602986,-0.743503629957852,-0.492069572663274
0.8961799110811803,-0.9755019531683993,2.487757953726291,-0.9042469690116426,0.3302070422522858,-0.8747884504980195,0.691853508314770,-0.0805588794813832,-0.0389947298006350,-0.0208882796572175,-0.918551635291938,0.394748746768713,-0.952511887029534,-0.101686953614069,-0.287020676140460,0.303784108933299,-0.381998241837836,-0.872807285941406
1.941618681336334,-0.5585569753089419,-1.1842565654175452,1.588008266476856,0.024118773581345287,-1.0763936535237963,-0.0342331833129858,-0.167281620954707,1.13039399335808,-0.417520370461098,-0.887159485358711,-0.196531900179321,0.424700227828547,0.000683046595448433,-0.905333778188867,0.803309689181207,-0.461462437242096,0.376491649684527
-2.7461130102199838,2.0203096023559244,2.394098753517942,1.500422669048362,-3.100022061260608,-0.15781070076981818,0.478856250589526,-0.430473855118453,0.145475448868601,-0.687703186093734,0.491903450957840,-0.533943183093758,-0.720453435272906,-0.553079046279484,0.418390267776444,-0.0895051699065203,0.672409520680920,0.734747753353258
0.3633582469386454,0.09462287230124566,0.45329957328609005,-1.1010823266529446,-1.1681525232115129,-2.834524276012581,0.739965943294794,0.456220859975137,1.20225238959642,-0.784925919217922,-0.295470260151725,-0.544599510379667,-0.168115992356904,-0.744428926780597,0.646190827918613,-0.596345801069945,0.598767816718769,0.534648283648311
-2.1284984195502976,-2.8031947910587762,2.024703455897244,0.8445710629349694,0.2602308132204607,-2.2024006055756264,0.196133493837392,0.968391620255318,0.156281361214670,0.947773267739202,-0.318585565378662,-0.0151350748697736,-0.172241015366541,-0.551191988730805,0.816407021150898,-0.268437824429528,-0.771161869578196,-0.577278533573008
-1.0991298434673236,0.24048081093236817,0.22589793826853688,2.5682367155937627,-0.6790031313453562,-1.9302064519035118,0.519771018046754,-0.654229391285375,1.30322328127498,0.920391692026761,0.340596196271432,0.192024384736806,-0.0899329541393135,0.662355892824822,-0.743771964381563,-0.380514384758175,0.667292216593049,0.640257683020237
2.3587422582689594,1.7703686580650997,-2.938694722520605,-2.564791957879233,2.018995584663501,-0.2482013910478318,-0.145599169333023,-0.131414027236297,0.120448117847254,0.383792550076239,-0.320982015758636,-0.865837065541491,-0.208181444379436,0.883427210892427,-0.419781906793181,0.899646466520082,0.341360379385701,0.272230282414688
-3.0800625138279445,2.5691212841855426,-2.039986432435147,-1.8507107141076131,1.7945092330402863,0.9269379438109127,-0.211893850470051,0.0113527474578280,0.549527206669402,0.0922531759216164,-0.979441427682210,-0.179398554264546,-0.158297032755813,0.163449656219668,-0.973769099582841,0.983072429149084,0.118231550871610,-0.139963921870651
-0.3951460864782339,1.6119120967202667,1.232854100868236,0.8891605996200207,3.1200352222770924,-0.06368445848020299,0.344002941469301,0.935565723747149,0.655758186941952,0.690738217147473,-0.637578896250018,-0.341136140607441,-0.481671337678021,-0.0538253436830063,-0.874697407585545,0.539326837670253,0.768502429035859,-0.344282701764972
-1.9302144990591519,-2.6116740308584427,2.7748246658407725,1.4017697144240575,-1.137901948518428,2.9939624898151287,0.00359806334336375,0.506472462845585,-0.0235034565194920,0.399316700558471,0.384840507874569,0.832132174689779,-0.0545024004840996,-0.896065961168378,0.440562460471681,0.915191597970921,-0.221277149146120,-0.336839371613827
3.0879545414263605,-1.8565947152879376,-2.2241225609263107,-1.4873251171591504,-1.8948073689768214,1.5292601123407126,-0.142929848812484,-0.121061320223537,0.458955361485806,-0.302658320593763,0.532311982743902,-0.790595910691814,-0.567381192802733,0.565877776004075,0.598214781394133,0.765817552050821,0.629623931924398,0.130756190365696
-1.544488430610061,-1.8279737368807418,-0.6719126487092382,2.7860205672875296,1.0602688629191066,-1.0401007987005984,-0.104231100286325,-0.00670080441490853,1.27488401306428,-0.524409543607476,0.0542489867279523,0.849736240260700,-0.795718362142221,0.323944555267191,-0.511754055443085,-0.303029567407375,-0.944519440007315,-0.126712701514753
-2.2132676995715777,2.4853844131441276,1.4521893007084872,2.066589067715692,1.224023801918615,1.5479026123731892,1.04470103707970,0.377395150933885,0.594400829818713,0.00475097425558832,0.998649873679620,0.0517286965165609,-0.485342815072230,-0.0429252008864401,0.873269591241229,0.874311031670873,-0.0292550325335399,0.484483604438866
1.9542448241774624,-2.6212822789492383,-1.1943582965926738,0.4250988722692859,0.609798269006022,-1.638962634325953,-0.0949261973001508,0.104811528197910,1.16624568014030,-0.500895252500213,0.811053585704487,-0.302152324397220,-0.791725717089146,-0.288324472336997,0.538553049895059,0.349677472712249,0.508980431615487,0.786552341112838
-0.16574205847657764,2.217422988610589,-0.486498710925491,2.804965978316045,-1.625348535685348,-2.685824502492744,-0.154910426666077,0.368214832185147,1.35965491291121,-0.617119120408341,-0.779865642791578,-0.104754810962143,0.249715638692071,-0.320348247035832,0.913793795346456,-0.746194405647112,0.537760708693326,0.392437675518808
2.7189727756389113,1.996783113267008,1.0687770006521369,2.4823383836256854,1.383793638554808,0.9947741655293578,0.0637447904483641,-1.05722116814369,0.874861272814219,-0.603408909855480,-0.523959516252441,0.601135685877597,0.752834897314938,-0.622867692717882,0.212780296910004,0.262939736235943,0.580949449347196,0.770298924062186
-0.21598949247847843,1.5055032657461522,1.6590555294794687,2.957483576464835,2.069482449391403,-1.4197883732672194,0.262111291616849,0.965055527824053,0.505463959153722,-0.963751465867896,-0.0255289625126144,-0.265577454070393,0.118391563010475,-0.932962437862133,-0.339947830330308,-0.239095273573985,-0.359067349687181,0.902166330863220
-0.1661092945792655,-1.2773507853907435,0.6140243912787295,-2.293899714229061,0.6013724478356623,-3.0200082480879527,0.0815331442096405,-0.970863614189803,1.15865401933825,0.776160334336087,0.488001851232797,-0.399286023542845,-0.598189340021634,0.770110257263506,-0.221584532722881,0.199360600138982,0.410833767904854,0.889646540071575
-1.5756817845130537,-0.08942304222541964,0.04346403380835184,-0.6572567650550805,0.34684057299017246,1.528831484403102,-0.0854784201629546,-0.683143176176517,1.38350197268291,0.703154465915232,0.670756966328068,-0.235921362292252,-0.709788072947353,0.642497421339763,-0.288787041041384,-0.0421270526520423,0.370516066715226,0.927870225700087
-0.18877725919385124,-0.944802364163539,-2.5201114790007577,1.0310004504582961,-2.2625078856490357,-0.31959464526839687,-0.0725930599675160,-0.000709656020129387,0.303059328958263,-0.782769784941932,0.542450706036744,-0.304989664254709,0.0666130665282972,-0.414239724333913,-0.907726913863118,-0.618735939759166,-0.730857497946078,0.288120034961715
0.6283049912615271,-2.177488815503994,0.1413577792369356,-2.7476546801229094,-1.3601381130480534,2.948629945009011,0.0550110004200202,-0.808108605437722,1.27351841480419,-0.0955786747919887,0.913604228307476,0.395211375018115,-0.127364287262519,0.382541563614621,-0.915117637485690,-0.987240120363389,-0.137801546166880,0.0797977356752641
1.2970162106352703,-0.6806588212569498,2.5459149904772085,2.7619322887547497,1.3601551822748537,-1.6999627947253173,0.554187708337411,0.437013938089592,0.0699441561949816,-0.734128180653277,-0.459721262568062,0.499712092222648,0.596450299989471,-0.0848921468174233,0.798148083410089,-0.324504012322158,0.883996427680314,0.336522602265085
-1.3216372892634292,-1.8832612503896757,1.8462917338318476,-2.955622326657372,0.487669148304708,2.137877652722537,-1.07666582192050,0.0769317052527374,0.326448029240442,-0.0258861741572041,-0.249833210946669,-0.967942804454675,0.744312336314945,-0.651187063529131,0.148170693126865,-0.667329792529070,-0.716616197835623,0.202810682664213
-1.1809834775450456,-0.169849633623532,-2.249279981231215,-1.812875843671189,1.3860665407320116,-1.6165951526301205,-0.133608839437055,0.160211934811034,0.400435231272783,0.366556265460183,0.0157791165277081,-0.930262072608299,-0.504548818261781,-0.836696215805899,-0.213002188830839,-0.781707742217335,0.547439916280950,-0.298734905593208
0.4226173723306781,2.910229173507034,2.6937529004684633,-2.7649805244350123,-2.8829656665767933,1.640994924089699,-0.449064702085481,-0.0965286825495623,0.0923659922100744,0.0954101690347372,-0.762988801547906,0.639331673200423,0.988727951576745,0.147085199554164,0.0279818127176555,-0.115386036484564,0.629455346140297,0.768421778582428
2.28752897628192,-1.4559072704187515,1.412400761292755,1.2447600101640113,0.8995967816595041,-1.4140567475560333,0.719254130097991,0.899137047436154,0.556918795179784,0.187251556228217,-0.976374492492087,-0.107841110439991,-0.127677337673078,-0.133042838391481,0.982852023754061,-0.973979133315917,-0.170271705117314,-0.149573374307117
-0.3146916563008322,1.9413679632163277,-2.7407441027405515,-2.6422306538955955,-1.0841772503078384,2.9492512947365235,-0.0372538254053917,-0.0918903093581606,0.155201679574875,-0.0453898743701500,-0.926912456569582,-0.372522559264275,-0.119481633835301,0.375267271506020,-0.919183667235485,0.991798315425424,0.00278797284249102,-0.127782349042113
-2.189676317039506,0.551904698753142,0.09271300515098835,-1.8887655656999982,1.3413714943129333,-0.48382564536896444,-0.136411933363607,-0.651589624259880,1.30424089196450,-0.00671194780881185,-0.427414782681165,-0.904030725861806,0.584187612268564,-0.735412146920163,0.343356677282138,-0.811590896590496,-0.525818959060901,0.254626469290891
-0.615829741753938,-2.1235814099942996,-0.37607119995737737,-0.7816143261592292,2.294853293888453,-1.170590045495421,-0.442505106733514,-0.130881132264839,1.28734069568185,0.428715034070872,0.179014507873514,-0.885526524465764,0.695165498083097,-0.691390108074735,0.196785794028140,-0.577016767378982,-0.699952515837474,-0.420854043269516
-2.571692755804408,1.6215709777096476,1.8290399377405473,-2.6884238589332656,-0.06580558241398471,-0.8460907201802432,0.632196104659473,-0.879329327298362,0.284541796064877,0.473514361343391,-0.666580493948854,0.575720934731804,-0.00288861385796751,-0.654816184998291,-0.755782653792917,0.880781360787988,0.356210905154777,-0.311990361289053
0.6757468744317037,-0.6512659220874046,0.0429053166459199,1.979405077708006,0.04719390628931874,-1.6722424254836659,0.658946176112600,0.0204654079345845,1.39071891620875,0.944789093634607,-0.326867356097736,0.0230499472184632,0.325683402175505,0.944460560127018,0.0438699431495783,-0.0361094183903086,-0.0339408585960169,0.998771309170062
2.528988574294404,2.5748843366127936,0.21116185838996593,2.4026909557538128,-0.3536154136057039,1.8361380633056124,0.284566790825908,-0.750495678444712,1.33045089854235,-0.994404992480258,-0.0955485741659364,-0.0450464305488663,0.105223948124466,-0.858385104225917,-0.502098529757021,0.00930761362740223,-0.504029247978646,0.863636431324342
-1.4523040524228092,-0.9816757943707515,1.8724132802379865,0.08772542142611162,-2.7232190004858707,-1.5067905670583535,-0.683897129635445,-0.580312191854008,0.357666435505597,-0.661785761651387,-0.511033869665170,0.548528932446171,0.748846625442221,-0.415844326536795,0.516044792291288,-0.0356137226261505,0.752275135932461,0.657885843151003
0.1917420190542054,-1.54665416047008,3.0732890562757014,0.1203443216297142,-1.4680840470430299,2.2287604590050494,0.0681688386752029,-0.366594293944985,0.0243296317178911,0.784639871998271,-0.612489939433833,0.0958975774609404,0.0539770691797631,-0.0866044885715707,-0.994779442168976,0.617597560935355,0.785719884342758,-0.0348929229945441
0.7021930156998515,2.5030909365713896,-0.5193819378875308,0.06528336477923169,-2.0550509392424607,-0.1526250546014154,-0.237254695001879,-0.00934617591204360,1.23193873807173,0.810926836815241,0.246181335191085,0.530841233832076,0.233815444772731,-0.967946150084877,0.0917092597374726,0.536402836605621,0.0497493792865761,-0.842494508078268
2.563914336988284,-0.30333012176074803,-0.5539733755058336,0.11135581402014338,2.0172443267484095,0.0025517189815218444,-0.241669879389896,0.277189633561818,1.32142984266600,-0.0345333915296023,-0.706376438520869,-0.706993473783200,0.113270743396204,-0.705623526394257,0.699474929993495,-0.992963837992066,-0.0559264347290814,0.104379357818294
-2.419951980475942,3.0816559554613745,-0.6213178942221558,-1.505449701171666,2.8096785049767083,1.9236086828538657,0.242982180069774,0.148029781514905,1.22304737653904,0.725329113597244,0.233386843136293,0.647632811413312,0.229398982636820,-0.968950074133924,0.0922597452904336,0.649056071332383,0.0816476287882198,-0.756346402767828
1.6451400900225899,2.3004613670615406,1.4472978009841304,-2.279103457201058,0.8724093031720894,0.11136150968156189,-0.831120886061881,-0.778813034800639,0.606495068493387,0.150841507849879,-0.553591327361726,-0.819013725025080,0.960215530863830,0.279012911776697,-0.0117443326665312,0.235016964914169,-0.784658165911610,0.573653718606234
2.02296160846515,0.5074680842184542,-1.7951922113721075,1.8364609201684887,0.8466484431572416,-1.9008353001467646,0.195146097792297,-0.224983617403699,0.690884381145493,0.346807877583097,-0.934655428021285,0.0783806539693037,-0.293310885048760,-0.187450096992497,-0.937459964931526,0.890894505964775,0.302128601770590,-0.339153781099264
2.83972460287511,-0.8783437148330306,0.947696962469621,2.4937789142622373,2.65753771982318,1.8174473361753973,-0.393289041413107,0.881431392723377,0.853708745627426,0.727616548719724,-0.679172444484283,0.0964310566282501,-0.0786762980176169,-0.222268226262242,-0.971805986668368,0.681457407443371,0.699515279495366,-0.215160813330586
3.040576462420935,2.396688417914417,-2.1961103901804098,2.1673228210696855,1.061145333464311,-2.5433223385302437,-0.0843261119580614,0.204120420686625,0.395067481896813,-0.669300873898122,0.576549431719545,0.468643887171358,0.729839270321818,0.392018312971439,0.560050249344773,0.139179666960825,0.716876833967242,-0.683166616006503
-0.21711593974211763,-1.4872211535149482,-1.777977126145319,-2.0409751811593235,-1.7820907475686405,-0.7594008580007365,0.115183188705753,0.202724490249695,0.783794607056272,0.521003095728813,-0.0908546163591657,0.848705610283814,0.517109765007980,0.824671159731798,-0.229161447979373,-0.679082664463160,0.558267782513769,0.476638036493916
-1.1924817133137116,2.820979331547999,2.028862447146924,0.7354446715463556,0.10914071657975422,-0.6479861701405913,-0.0645149428203851,0.990122783408847,0.160820305693842,-0.0542172172813164,-0.991009477229038,-0.122313978728925,-0.520854555985354,-0.0764412653227277,0.850216010473315,-0.851921959371614,0.109804139257542,-0.512027368548147
-0.3818494761005793,1.7083553013409318,2.613864599738263,-1.5047083474169043,2.9820069729526946,-1.432164545559532,0.142084482707670,0.504447361406237,0.109764074209854,0.137086079197404,-0.990060977183228,0.0314112774218793,0.842376897259356,0.0998362621955241,-0.529560085084334,0.521160790787242,0.0990554501772507,0.847690655803282
3.1086660567649567,2.357866951448683,-3.0146278673217757,-3.0405056729835525,2.9910740792058785,1.8523626252948713,0.121557850697291,-0.131614173754427,0.166580271049715,-0.600614549584527,0.779925819770706,0.176005336516732,-0.797000081942831,-0.566492884685370,-0.209467613210181,-0.0636634291449810,-0.266085563786989,0.961844811044725
0.6122187327498736,-2.6531297745331823,0.84325787518274,2.8601479450321357,2.430326106956789,2.334233880712528,-0.407480198729480,-0.841977541755908,0.936063026451700,-0.429717580626631,0.668654107069909,0.606831513683113,0.365274231221641,-0.485876624038701,0.794039446260823,0.825782984146461,0.562872624410974,-0.0354523875482073
1.2446748458840302,2.0621160490385497,0.3804440288140629,-0.06060435538960407,0.9332291004309665,-0.41361185247284293,-0.934133562994221,-0.150802480358132,1.20617306228968,-0.277876316792999,-0.00328603438224456,-0.960611240067279,0.393859373149407,-0.912466893262109,-0.110810481827989,-0.876161826803652,-0.409137349405592,0.254847174937164
0.9273400880036942,1.3388080315183188,-0.9062323035929549,1.1880255454396815,-1.5425147729776538,0.004589859292462695,0.0505907951479799,0.0841032062381345,1.18832314735846,0.480160064400484,0.0775293724693871,0.873747966498020,-0.619093834451228,-0.675709525529152,0.400174288596412,0.621425085347702,-0.733079691107093,-0.276450772809428
-0.4870113603483963,1.9278068133209763,1.9889393549206034,-1.142262601145365,-2.7597447392433136,-2.6398493264439575,0.0760623984936775,0.843249354080955,0.283242861160586,0.898482790872801,0.0316874475353040,-0.437863654776370,-0.377866559582158,0.563559363227450,-0.734586759524166,0.223484983063664,0.825467594631896,0.518322016277203
1.8708850123595386,-2.2507663258810324,2.809289010890046,-1.3915099727829354,-2.1248845680784063,0.31063586645648344,0.443031636448422,-0.0867932849688680,0.0639062365896004,0.262699143024118,-0.922136483668590,0.283995538242632,0.484599791974687,0.380611718310523,0.787589843448226,-0.834357358613492,-0.0692749981742288,0.546853520383180
-2.0941414685126505,-1.7273400595518102,-0.662565741308335,1.8974099052579332,-0.6035356783761086,0.22405965654925186,-0.0936234352215722,0.144818388399681,1.36584512080257,0.118445280608817,0.775473434182652,0.620170676812813,-0.981808350396624,-0.00188055058097480,0.189865285455170,0.148401747270574,-0.631377396179556,0.761143550850012
2.6086632141389643,2.870015819853905,-2.7198984434618105,1.541718065491784,3.0953720234877204,0.24408877069649426,0.0244240235310559,-0.0187157562162191,0.268248604920972,-0.509624489861503,0.800281285749947,0.315963198825140,-0.857584982866406,-0.442802508616329,-0.261675248208754,-0.0695045070152264,-0.404321409328641,0.911972215291163
2.3421896064912957,2.1222198373621852,-0.9741198179710784,-2.187037607218968,0.6681083921073254,-0.8870520897957435,-0.0333450875559467,0.0742722688703882,1.20392624389743,0.0893762234431569,-0.955442223979787,-0.281321963805883,0.176243280991117,-0.262823862968393,0.948610522269207,-0.980280672352834,-0.134364331914875,0.144900068048791
2.207188039614082,-1.832224008998298,2.6439131879653504,-0.6572751008816362,-2.7515936644550165,2.8931838878295935,0.491469766330305,0.218397518152795,0.116585527368951,-0.737515191319829,0.627416609246860,-0.249839430462143,-0.669739978738839,-0.727020971376134,0.151290674062226,-0.0867162236918538,0.278906625271748,0.956394997335384
-1.9617552998617442,2.342590178826743,2.2298966340009247,1.5704923214370705,1.339841897566739,0.712585790882208,0.728446621048029,0.396513644829556,0.112033830459298,-0.233365522615231,0.952840440904676,-0.193999038737575,0.0933538916694227,0.220539850025432,0.970900213956580,0.967897506849095,0.208464070590937,-0.140417760657130
1.473087962545704,-2.6582214116434986,0.23753710106684567,-1.5575128781409855,-2.7054077992006453,-2.4097069664345665,0.321556253207851,-0.679721040821956,1.14728806185124,-0.901759542342935,0.302099231473249,0.309137157483102,0.405250855944403,0.839661913239581,0.361579334601931,-0.150337858005855,0.451335712965547,-0.879599114740399
-3.063514439950972,-1.9857478107889266,2.239119394562856,-0.775582141093313,-1.6104832625430396,3.00452474115078,0.212163006217403,0.817443655122618,0.181089793629598,-0.348240670847312,0.776989215857529,-0.524419863858070,-0.782431403041945,0.0671765153658810,0.619102911733672,0.516264984965694,0.625919383167193,0.584547167535668
0.578159742251827,1.5174861608066683,-0.33698245410667305,-1.102549516515694,-1.5954211395959776,-0.3660157444213272,-0.261941068218894,0.274355011871893,1.31345307951318,0.432626920457540,-0.704394196380770,-0.562727966072876,-0.465759801731229,0.359803404813591,-0.808461079444047,0.771946730536967,0.611858093016377,-0.172417862252294
-1.7327091092643354,2.9757475667195257,-1.9948126044997518,1.9476454286217635,-0.7860730854279989,2.718921959094174,-0.0348047104979882,-0.306737046106180,0.587751653065006,0.918688246763072,-0.103850758382243,0.381086506246057,0.371555047817281,-0.100125362449779,-0.922996077042475,0.134010267147302,0.989540262838119,-0.0533977201889293
0.7351021734760836,-0.5091058316875325,2.157239041490617,-0.3731194308454384,0.22834291923592165,-1.739065960863507,0.892139570777275,0.196657671370498,0.0833134812179609,0.498909122931962,-0.517118930093386,0.695469409244096,-0.766269249885862,-0.638099312275546,0.0752376524941699,0.404871737386815,-0.570453573757364,-0.714605902895319
-0.1094905591992581,3.083367450801619,1.1822771986483698,-2.159952360410934,2.7990408259467694,1.280395759706205,-0.975953009192670,0.193558684730990,0.705153540542145,-0.214302827313685,-0.0434723849156780,0.975799390220707,0.348830591190038,0.929723807169826,0.118029068587587,-0.912354929210869,0.365682641277089,-0.184077942766760
2.4408375708785197,-1.5071373924797886,-2.594146402483205,2.991318027525618,2.6412527543203783,-2.6581773944715574,0.00462443218081052,0.0183221288755747,0.286402479852586,-0.239612875297259,-0.857719547902521,0.454865746278697,0.644292820899044,0.209998121755349,0.735382587363325,-0.726272972738028,0.469273871001915,0.502304293297545
-2.170242813570299,-0.5652960212317129,-1.3871626109256592,-0.02164045041010354,-0.7715051100080501,-2.856688111184564,0.217494379538621,0.0918689611217305,0.926234416892640,-0.593074929224306,-0.234004581221659,0.770392097761173,0.0346760077340765,0.948522405276781,0.314806005621837,-0.804400213086254,0.213417671843795,-0.554430513708943
-1.3633619722958252,0.6651719234191331,2.1521560860700317,-1.842563211777932,-1.8074083684474918,2.902838449596744,0.682769695829326,-0.450727739286828,0.147949826143143,-0.856635320464264,0.386145881083430,0.342150969975813,0.349590276287419,-0.0532754712256512,0.935386745090484,0.379423992992502,0.920897976264465,-0.0893551948889346
-2.5769792245152483,-1.4119220667119978,1.102236980634168,-1.2371934442554366,0.6438573303374255,1.2247605383777547,-0.727169157542822,0.908959060513072,0.794645623282941,-0.210806141552104,-0.971758293224016,-0.106049942170009,0.160526708801607,-0.141428719823873,0.976846504303672,-0.964257199322483,0.188901394275766,0.185807203292642
1.0700184184967565,1.1772570547669723,-0.054456066253219415,-1.5858824908853488,1.3848922796325533,-2.8068229376383274,-0.294576769873001,0.523872902586187,1.32832735482980,0.0953657567660334,0.616161800704566,0.781824793536856,-0.405518059982877,-0.693232063553949,0.595805680644669,0.909098716017224,-0.373863533141760,0.183754137701971
1.3773534684845936,1.7860789051483863,0.17312058073095882,2.2057631747075455,-1.868754270358778,2.5149688322467387,-0.787822591112702,0.0597715368691390,1.21744605842748,0.733789927652507,-0.431611297222856,-0.524656106593007,0.172451137857513,-0.628633292011459,0.758340813372514,-0.657124757658223,-0.646940393146416,-0.386852918546807
2.0699883428585855,2.7459395221931473,-0.4966121715276759,-0.21671242925455259,2.061262761748809,0.7403533364705002,0.0228750223778204,-0.403658611176512,1.31881854408130,0.744000073309193,0.662467870643140,-0.0871791906446680,-0.0626489684877767,-0.0607362849398152,-0.996185831278044,-0.665236046575449,0.746624017867932,-0.00368487169566389
2.8225743851268437,-1.9534735200268083,-1.877570486145854,1.1296378557562923,2.50867244575797,1.0491463013875348,-0.145259277530233,-0.0890060357671493,0.718838384954403,0.362402773611166,-0.931228537602763,0.0384400888806612,0.439433046405734,0.207093480182078,0.874077163751949,-0.821926290737503,-0.299876143132951,0.484263844793513
2.544710792554512,1.0420322585020463,-0.10661934680409324,-1.8150740585162146,-0.4873557821588972,0.1622178245352992,-0.489181490514320,-0.283727723229194,1.40676702036147,-0.288130466548468,-0.940735163527393,0.178880368821319,0.843260785163434,-0.337779317884891,-0.418110488525182,0.453753327758718,0.0303724301350220,0.890609585079558
-1.1222046925117697,-1.5279325681816576,0.9242844409053266,-2.1849227483631894,-1.340386922005752,1.7153708783053414,-0.936993333282873,-0.591783323222052,0.858855487406787,-0.597306506705482,0.797687320884188,-0.0831857869344300,0.296567587013836,0.123310664214928,-0.947017500589965,-0.745166158235923,-0.590329923171339,-0.310222466027906
0.3230533348879314,-0.6495929596679662,0.7203023546208716,0.0977286174053158,-2.3592524160076764,-0.8073607948957036,0.846789868165107,-0.294038531965888,1.00455762114602,-0.238734108819920,0.111798745869922,-0.964627941596070,-0.728799752770692,0.635848135848201,0.254063119125436,0.641760816540973,0.763674137679338,-0.0703197397064555
